;FLAVOR:Marlin
;TIME:4343
;Filament used: 2.51369m
;Layer height: 0.15
;MINX:76.859
;MINY:19.897
;MINZ:0.15
;MAXX:137.515
;MAXY:55.717
;MAXZ:34.65
;Generated with Cura_SteamEngine 4.5.0
M140 S65
M105
M190 S65
M104 S205
M105
M109 S205
M82 ;absolute extrusion mode
G21 ;metric values
G90 ;absolute positioning
M82 ;set extruder to absolute mode
M107 ;start with the fan off
G28 X0 Y0 ;move X/Y to min endstops
G28 Z0 ;move Z to min endstops
G1 Z15.0 F100 ;move the platform down 15mm
G92 E0 ;zero the extruded length
G1 F200 E3 ;extrude 3mm of feed stock
G92 E0 ;zero the extruded length again
G1 F100
G0 Y20 F100
M117 Printing...
G5
G92 E0
G92 E0
G1 F2400 E-6
;LAYER_COUNT:231
;LAYER:0
M106 S255
M204 S3000
M205 X10 Y10
G1 F600 Z0.225
G0 F1800 X77.829 Y26.871 Z0.225
M204 S1800
M205 X8 Y8
;TYPE:SKIRT
G1 F600 Z0.15
G1 F2400 E0
G1 X78.072 Y26.345 E0.02226
G1 X78.385 Y25.857 E0.04453
G1 X79.399 Y24.738 E0.10254
G1 X79.825 Y24.344 E0.12483
G1 X80.25 Y24.043 E0.14484
G1 X83.803 Y21.847 E0.30529
G1 X84.315 Y21.577 E0.32753
G1 X84.801 Y21.398 E0.34743
G1 X88.8 Y20.195 E0.50785
G1 X89.365 Y20.067 E0.53011
G1 X89.885 Y20.019 E0.55017
G1 X93.998 Y19.897 E0.70824
G1 X94.577 Y19.92 E0.7305
G1 X95.068 Y20.003 E0.74963
G1 X99.193 Y20.956 E0.91227
G1 X99.748 Y21.125 E0.93455
G1 X100.237 Y21.349 E0.95522
G1 X102.955 Y22.81 E1.07376
G1 X111.151 Y22.698 E1.38864
G1 X111.55 Y22.593 E1.40449
G1 X112.289 Y22.517 E1.43303
G1 X114.767 Y22.484 E1.52823
G1 X133.269 Y22.376 E2.239
G1 X133.899 Y22.416 E2.26326
G1 X134.466 Y22.535 E2.28551
G1 X135.011 Y22.731 E2.30776
G1 X135.524 Y23 E2.33001
G1 X135.995 Y23.337 E2.35226
G1 X136.415 Y23.736 E2.37452
G1 X136.777 Y24.189 E2.39679
G1 X137.072 Y24.687 E2.41903
G1 X137.297 Y25.221 E2.44129
G1 X137.445 Y25.781 E2.46354
G1 X137.515 Y26.356 E2.48579
G1 X137.506 Y26.935 E2.50804
G1 X137.416 Y27.508 E2.53032
G1 X135.888 Y32.185 E2.71933
G1 X135.669 Y32.721 E2.74158
G1 X135.377 Y33.222 E2.76385
G1 X135.02 Y33.678 E2.7861
G1 X134.603 Y34.08 E2.80835
G1 X134.135 Y34.422 E2.83062
G1 X133.624 Y34.695 E2.85287
G1 X133.081 Y34.896 E2.87512
G1 X132.515 Y35.02 E2.89738
G1 X131.921 Y35.065 E2.92026
G1 X131.275 Y35.068 E2.94508
G1 X129.64 Y35.069 E3.00789
G1 X128.776 Y35.049 E3.04109
G1 X118.315 Y35.045 E3.44295
G1 X117.66 Y35.063 E3.46812
G1 X114.081 Y35.043 E3.60561
G1 X112.35 Y35.045 E3.67211
G1 X111.772 Y35.006 E3.69436
G1 X111.205 Y34.887 E3.71662
G1 X110.659 Y34.692 E3.73889
G1 X110.146 Y34.423 E3.76114
G1 X109.675 Y34.087 E3.78337
G1 X109.254 Y33.688 E3.80565
G1 X108.892 Y33.236 E3.8279
G1 X108.596 Y32.738 E3.85015
G1 X108.536 Y32.597 E3.85604
G1 X106.942 Y32.601 E3.91728
G1 X104.883 Y32.592 E3.99637
G1 X104.341 Y32.602 E4.0172
G1 X101.322 Y32.6 E4.13317
G1 X97.092 Y32.583 E4.29567
G1 X93.767 Y32.583 E4.4234
G1 X90.706 Y32.595 E4.541
G1 X87.36 Y32.601 E4.66953
G1 X83.074 Y32.565 E4.83419
G1 X81.749 Y32.563 E4.88509
G1 X81.171 Y32.522 E4.90735
G1 X80.604 Y32.402 E4.92961
G1 X80.059 Y32.205 E4.95187
G1 X79.547 Y31.936 E4.97409
G1 X79.076 Y31.598 E4.99636
G1 X78.656 Y31.198 E5.01864
G1 X78.296 Y30.745 E5.04087
G1 X78.001 Y30.246 E5.06314
G1 X77.777 Y29.712 E5.08539
G1 X77.63 Y29.152 E5.10763
G1 X77.56 Y28.577 E5.12988
G1 X77.571 Y27.997 E5.15216
G1 X77.661 Y27.425 E5.17441
G1 X77.829 Y26.871 E5.19665
M204 S3000
M205 X10 Y10
G0 F1800 X78.346 Y27.086
M204 S1800
M205 X8 Y8
G1 F2400 X78.572 Y26.597 E5.21734
G1 X78.868 Y26.146 E5.23807
G1 X79.807 Y25.121 E5.29147
G1 X80.205 Y24.757 E5.31219
G1 X84.097 Y22.324 E5.48851
G1 X84.576 Y22.075 E5.50925
G1 X88.961 Y20.731 E5.68543
G1 X89.488 Y20.615 E5.70616
G1 X94.015 Y20.457 E5.88018
G1 X94.554 Y20.481 E5.9009
G1 X99.067 Y21.501 E6.07865
G1 X99.582 Y21.661 E6.09936
G1 X102.818 Y23.372 E6.23998
G1 X111.246 Y23.257 E6.56378
G1 X111.493 Y23.178 E6.57374
G1 X112.025 Y23.091 E6.59445
G1 X114.775 Y23.044 E6.70011
G1 X133.273 Y22.936 E7.41073
G1 X133.859 Y22.976 E7.43329
G1 X134.385 Y23.095 E7.45401
G1 X134.887 Y23.29 E7.4747
G1 X135.356 Y23.558 E7.49545
G1 X135.779 Y23.891 E7.51613
G1 X136.149 Y24.284 E7.53686
G1 X136.456 Y24.727 E7.55757
G1 X136.695 Y25.211 E7.5783
G1 X136.86 Y25.724 E7.59901
G1 X136.947 Y26.256 E7.61971
G1 X136.954 Y26.795 E7.64042
G1 X136.882 Y27.33 E7.66116
G1 X135.357 Y32.009 E7.85021
G1 X135.15 Y32.507 E7.87093
G1 X134.871 Y32.969 E7.89166
G1 X134.528 Y33.385 E7.91238
G1 X134.127 Y33.745 E7.93308
G1 X133.677 Y34.042 E7.95379
G1 X133.188 Y34.27 E7.97452
G1 X132.671 Y34.423 E7.99523
G1 X131.918 Y34.505 E8.02433
G1 X131.272 Y34.508 E8.04914
G1 X129.639 Y34.509 E8.11188
G1 X128.79 Y34.489 E8.1445
G1 X118.337 Y34.485 E8.54606
G1 X117.645 Y34.504 E8.57265
G1 X114.084 Y34.483 E8.70945
G1 X112.349 Y34.485 E8.7761
G1 X111.811 Y34.446 E8.79682
G1 X111.285 Y34.327 E8.81754
G1 X110.782 Y34.133 E8.83825
G1 X110.314 Y33.866 E8.85895
G1 X109.89 Y33.532 E8.87968
G1 X109.52 Y33.14 E8.90039
G1 X109.212 Y32.698 E8.92109
G1 X108.972 Y32.214 E8.94184
G1 X108.915 Y32.036 E8.94902
G1 X106.94 Y32.041 E9.02489
G1 X104.876 Y32.032 E9.10418
G1 X104.331 Y32.042 E9.12512
G1 X101.322 Y32.04 E9.24071
G1 X97.094 Y32.023 E9.40313
G1 X93.765 Y32.023 E9.53102
G1 X90.704 Y32.035 E9.64861
G1 X87.359 Y32.041 E9.77711
G1 X83.079 Y32.005 E9.94153
G1 X81.75 Y32.003 E9.99259
G1 X81.212 Y31.962 E10.01332
G1 X80.686 Y31.843 E10.03403
G1 X80.184 Y31.646 E10.05475
G1 X79.716 Y31.378 E10.07547
G1 X79.293 Y31.044 E10.09617
G1 X78.924 Y30.651 E10.11688
G1 X78.617 Y30.207 E10.13762
G1 X78.379 Y29.723 E10.15834
G1 X78.215 Y29.21 E10.17903
G1 X78.129 Y28.677 E10.19977
G1 X78.122 Y28.138 E10.22047
G1 X78.195 Y27.604 E10.24118
G1 X78.346 Y27.086 E10.26191
M204 S3000
M205 X10 Y10
G0 F1800 X78.878 Y27.263
M204 S1800
M205 X8 Y8
G1 F2400 X79.092 Y26.816 E10.28094
G1 X79.512 Y26.252 E10.30796
G1 X80.215 Y25.505 E10.34736
G1 X80.839 Y24.996 E10.3783
G1 X84.392 Y22.8 E10.53875
G1 X84.833 Y22.574 E10.55779
G1 X89.123 Y21.268 E10.73006
G1 X89.608 Y21.163 E10.74912
G1 X94.032 Y21.016 E10.91917
G1 X94.816 Y21.094 E10.94943
G1 X98.941 Y22.047 E11.11207
G1 X99.414 Y22.197 E11.13113
G1 X102.681 Y23.934 E11.27327
G1 X111.336 Y23.816 E11.60579
G1 X111.977 Y23.659 E11.63114
G1 X114.782 Y23.604 E11.73892
G1 X133.276 Y23.496 E12.44939
G1 X133.815 Y23.536 E12.47015
G1 X134.297 Y23.655 E12.48922
G1 X134.753 Y23.849 E12.50826
G1 X135.172 Y24.114 E12.5273
G1 X135.543 Y24.444 E12.54638
G1 X135.857 Y24.828 E12.56543
G1 X136.105 Y25.258 E12.5845
G1 X136.28 Y25.721 E12.60352
G1 X136.379 Y26.208 E12.62261
G1 X136.398 Y26.703 E12.64164
G1 X136.338 Y27.195 E12.66068
G1 X134.825 Y31.833 E12.84809
G1 X134.632 Y32.29 E12.86715
G1 X134.368 Y32.71 E12.8862
G1 X134.039 Y33.082 E12.90528
G1 X133.656 Y33.396 E12.92431
G1 X133.227 Y33.645 E12.94336
G1 X132.763 Y33.822 E12.96244
G1 X132.278 Y33.922 E12.98146
G1 X131.269 Y33.948 E13.02024
G1 X129.639 Y33.949 E13.08285
G1 X128.804 Y33.929 E13.11494
G1 X118.321 Y33.925 E13.51765
G1 X117.629 Y33.944 E13.54424
G1 X114.087 Y33.923 E13.68031
G1 X112.349 Y33.925 E13.74708
G1 X111.854 Y33.886 E13.76615
G1 X111.372 Y33.767 E13.78523
G1 X110.916 Y33.573 E13.80426
G1 X110.497 Y33.309 E13.82329
G1 X110.125 Y32.98 E13.84237
G1 X109.811 Y32.596 E13.86142
G1 X109.563 Y32.167 E13.88046
G1 X109.387 Y31.703 E13.89952
G1 X109.34 Y31.474 E13.9085
G1 X106.939 Y31.481 E14.00074
G1 X104.868 Y31.472 E14.0803
G1 X104.321 Y31.482 E14.10131
G1 X101.323 Y31.48 E14.21648
G1 X97.097 Y31.463 E14.37883
G1 X93.763 Y31.463 E14.5069
G1 X90.702 Y31.475 E14.6245
G1 X87.358 Y31.481 E14.75296
G1 X83.084 Y31.445 E14.91715
G1 X81.75 Y31.443 E14.9684
G1 X81.256 Y31.402 E14.98744
G1 X80.775 Y31.283 E15.00647
G1 X80.319 Y31.088 E15.02553
G1 X79.9 Y30.822 E15.04459
G1 X79.529 Y30.492 E15.06367
G1 X79.217 Y30.107 E15.0827
G1 X78.969 Y29.677 E15.10177
G1 X78.795 Y29.213 E15.12081
G1 X78.697 Y28.727 E15.13985
G1 X78.678 Y28.231 E15.15892
G1 X78.739 Y27.739 E15.17797
G1 X78.878 Y27.263 E15.19702
M204 S3000
M205 X10 Y10
G0 F1800 X79.425 Y27.402
M204 S1800
M205 X8 Y8
G1 F2400 X79.633 Y27.004 E15.21427
G1 X79.92 Y26.636 E15.2322
G1 X80.623 Y25.889 E15.2716
G1 X81.133 Y25.472 E15.29691
G1 X84.686 Y23.276 E15.45737
G1 X85.285 Y23.007 E15.48259
G1 X89.284 Y21.804 E15.64301
G1 X89.935 Y21.698 E15.66835
G1 X94.048 Y21.576 E15.82642
G1 X94.69 Y21.64 E15.85121
G1 X98.815 Y22.593 E16.01385
G1 X99.441 Y22.828 E16.03953
G1 X102.544 Y24.496 E16.17487
G1 X111.436 Y24.375 E16.51649
G1 X111.981 Y24.223 E16.53823
G1 X114.789 Y24.164 E16.64612
G1 X133.279 Y24.056 E17.35643
G1 X133.768 Y24.096 E17.37528
G1 X134.2 Y24.214 E17.39248
G1 X134.605 Y24.408 E17.40974
G1 X134.969 Y24.67 E17.42696
G1 X135.281 Y24.992 E17.44419
G1 X135.531 Y25.365 E17.46144
G1 X135.711 Y25.776 E17.47868
G1 X135.815 Y26.212 E17.49589
G1 X135.84 Y26.66 E17.51313
G1 X135.713 Y27.368 E17.54076
G1 X134.293 Y31.657 E17.71432
G1 X134.115 Y32.069 E17.73156
G1 X133.867 Y32.442 E17.74877
G1 X133.556 Y32.766 E17.76602
G1 X133.193 Y33.029 E17.78324
G1 X132.789 Y33.224 E17.80048
G1 X132.356 Y33.344 E17.81774
G1 X131.267 Y33.388 E17.85961
G1 X129.639 Y33.389 E17.92215
G1 X128.819 Y33.369 E17.95366
G1 X118.306 Y33.365 E18.35752
G1 X117.614 Y33.384 E18.38411
G1 X114.09 Y33.363 E18.51949
G1 X112.348 Y33.365 E18.58641
G1 X111.901 Y33.326 E18.60365
G1 X111.468 Y33.208 E18.62089
G1 X111.063 Y33.015 E18.63812
G1 X110.699 Y32.753 E18.65535
G1 X110.387 Y32.431 E18.67257
G1 X110.137 Y32.059 E18.68979
G1 X109.956 Y31.648 E18.70704
G1 X109.852 Y31.212 E18.72426
G1 X109.83 Y30.913 E18.73578
G1 X106.937 Y30.921 E18.84692
G1 X104.905 Y30.912 E18.92498
G1 X104.311 Y30.923 E18.9478
G1 X101.323 Y30.92 E19.06259
G1 X97.099 Y30.903 E19.22485
G1 X93.761 Y30.903 E19.35309
G1 X90.7 Y30.915 E19.47068
G1 X87.357 Y30.921 E19.5991
G1 X83.089 Y30.885 E19.76306
G1 X81.751 Y30.883 E19.81446
G1 X81.305 Y30.842 E19.83167
G1 X80.872 Y30.723 E19.84892
G1 X80.468 Y30.529 E19.86613
G1 X80.104 Y30.267 E19.88336
G1 X79.793 Y29.944 E19.90059
G1 X79.543 Y29.571 E19.91784
G1 X79.364 Y29.16 E19.93506
G1 X79.261 Y28.723 E19.95231
G1 X79.237 Y28.275 E19.96954
G1 X79.292 Y27.83 E19.98677
G1 X79.425 Y27.402 E20.00398
M204 S3000
M205 X10 Y10
G0 F1800 X79.992 Y27.507
M204 S1800
M205 X8 Y8
G1 F2400 X80.328 Y27.02 E20.02671
G1 X81.031 Y26.273 E20.06612
G1 X81.428 Y25.949 E20.0858
G1 X84.981 Y23.753 E20.24626
G1 X85.446 Y23.543 E20.26586
G1 X89.445 Y22.34 E20.42628
G1 X89.952 Y22.258 E20.44601
G1 X94.065 Y22.136 E20.60409
G1 X94.564 Y22.185 E20.62335
G1 X98.689 Y23.138 E20.78599
G1 X99.176 Y23.322 E20.80599
G1 X102.406 Y25.058 E20.94685
G1 X111.553 Y24.933 E21.29827
G1 X112.041 Y24.781 E21.31791
G1 X114.797 Y24.724 E21.4238
G1 X133.283 Y24.616 E22.13396
G1 X133.714 Y24.656 E22.15059
G1 X134.092 Y24.774 E22.1658
G1 X134.438 Y24.965 E22.18099
G1 X134.739 Y25.222 E22.19619
G1 X134.981 Y25.535 E22.21139
G1 X135.157 Y25.889 E22.22658
G1 X135.257 Y26.272 E22.24178
G1 X135.279 Y26.666 E22.25694
G1 X135.182 Y27.192 E22.27749
G1 X133.762 Y31.481 E22.45105
G1 X133.6 Y31.842 E22.46625
G1 X133.369 Y32.163 E22.48144
G1 X133.079 Y32.432 E22.49664
G1 X132.74 Y32.636 E22.51184
G1 X132.368 Y32.769 E22.52701
G1 X131.91 Y32.825 E22.54474
G1 X131.264 Y32.828 E22.56955
G1 X129.638 Y32.829 E22.63202
G1 X128.834 Y32.809 E22.66291
G1 X118.291 Y32.805 E23.06793
G1 X117.599 Y32.824 E23.09452
G1 X114.092 Y32.803 E23.22925
G1 X112.347 Y32.805 E23.29628
G1 X111.954 Y32.766 E23.31145
G1 X111.576 Y32.648 E23.32666
G1 X111.23 Y32.457 E23.34185
G1 X110.929 Y32.2 E23.35705
G1 X110.686 Y31.888 E23.37224
G1 X110.51 Y31.534 E23.38743
G1 X110.409 Y31.152 E23.40261
G1 X110.385 Y30.351 E23.43339
G1 X106.935 Y30.361 E23.56593
G1 X104.897 Y30.352 E23.64422
G1 X104.301 Y30.363 E23.66712
G1 X101.324 Y30.36 E23.78148
G1 X97.101 Y30.343 E23.94371
G1 X93.759 Y30.343 E24.0721
G1 X90.698 Y30.355 E24.18969
G1 X87.356 Y30.361 E24.31807
G1 X83.093 Y30.325 E24.48184
G1 X81.752 Y30.323 E24.53336
G1 X81.359 Y30.283 E24.54853
G1 X80.981 Y30.164 E24.56376
G1 X80.636 Y29.972 E24.57892
G1 X80.335 Y29.714 E24.59415
G1 X80.093 Y29.402 E24.60932
G1 X79.918 Y29.047 E24.62453
G1 X79.818 Y28.665 E24.6397
G1 X79.797 Y28.27 E24.65489
G1 X79.856 Y27.879 E24.67008
G1 X79.992 Y27.507 E24.6853
M204 S3000
M205 X10 Y10
G0 F1800 X80.437 Y27.891
M204 S1800
M205 X8 Y8
G1 F2400 X80.587 Y27.592 E24.69815
G1 X81.438 Y26.657 E24.74672
G1 X81.722 Y26.425 E24.7608
G1 X85.275 Y24.229 E24.92126
G1 X85.608 Y24.079 E24.93529
G1 X89.607 Y22.876 E25.09571
G1 X89.968 Y22.818 E25.10976
G1 X94.081 Y22.696 E25.26783
G1 X94.438 Y22.731 E25.28161
G1 X98.563 Y23.684 E25.44425
G1 X98.911 Y23.815 E25.45853
G1 X102.269 Y25.62 E25.60499
G1 X111.688 Y25.492 E25.96686
G1 X111.832 Y25.414 E25.97315
G1 X112.326 Y25.317 E25.99249
G1 X114.804 Y25.284 E26.08769
G1 X133.286 Y25.176 E26.7977
G1 X133.653 Y25.216 E26.81188
G1 X133.965 Y25.333 E26.82468
G1 X134.242 Y25.521 E26.83754
G1 X134.465 Y25.769 E26.85035
G1 X134.624 Y26.063 E26.86319
G1 X134.708 Y26.387 E26.87605
G1 X134.714 Y26.721 E26.88888
G1 X134.65 Y27.016 E26.90048
G1 X133.23 Y31.305 E27.07404
G1 X133.088 Y31.607 E27.08686
G1 X132.878 Y31.867 E27.0997
G1 X132.613 Y32.07 E27.11252
G1 X132.307 Y32.205 E27.12537
G1 X131.908 Y32.265 E27.14087
G1 X131.262 Y32.268 E27.16569
G1 X129.638 Y32.269 E27.22807
G1 X128.808 Y32.249 E27.25997
G1 X118.276 Y32.245 E27.66456
G1 X117.583 Y32.264 E27.69119
G1 X114.096 Y32.243 E27.82515
G1 X112.347 Y32.245 E27.89234
G1 X112.015 Y32.206 E27.90518
G1 X111.702 Y32.089 E27.91801
G1 X111.426 Y31.901 E27.93084
G1 X111.202 Y31.653 E27.94368
G1 X111.043 Y31.359 E27.95652
G1 X110.945 Y30.845 E27.97662
G1 X110.945 Y29.79 E28.01715
G1 X106.934 Y29.801 E28.17124
G1 X104.889 Y29.792 E28.2498
G1 X104.29 Y29.803 E28.27281
G1 X101.325 Y29.8 E28.38671
G1 X97.103 Y29.783 E28.5489
G1 X93.756 Y29.783 E28.67748
G1 X90.695 Y29.795 E28.79507
G1 X87.355 Y29.801 E28.92338
G1 X83.098 Y29.765 E29.08692
G1 X81.753 Y29.763 E29.13859
G1 X81.421 Y29.723 E29.15143
G1 X81.109 Y29.605 E29.16425
G1 X80.833 Y29.416 E29.1771
G1 X80.61 Y29.168 E29.18991
G1 X80.451 Y28.874 E29.20275
G1 X80.368 Y28.55 E29.2156
G1 X80.363 Y28.216 E29.22843
G1 X80.437 Y27.891 E29.24124
M204 S3000
M205 X10 Y10
G0 F1800 X80.949 Y28.128
M204 S1800
M205 X8 Y8
G1 F2400 X81.143 Y27.787 E29.25631
G1 X81.846 Y27.04 E29.29571
G1 X82.016 Y26.901 E29.30415
G1 X85.569 Y24.705 E29.46461
G1 X85.769 Y24.616 E29.47301
G1 X89.768 Y23.413 E29.63344
G1 X89.985 Y23.377 E29.64189
G1 X94.098 Y23.255 E29.79996
G1 X94.312 Y23.277 E29.80823
G1 X98.437 Y24.23 E29.97086
G1 X98.646 Y24.308 E29.97943
G1 X102.132 Y26.182 E30.13147
G1 X111.836 Y26.05 E30.50429
G1 X112.069 Y25.924 E30.51447
G1 X112.334 Y25.877 E30.52481
G1 X114.812 Y25.844 E30.62001
G1 X133.289 Y25.736 E31.32982
G1 X133.576 Y25.776 E31.34095
G1 X133.808 Y25.891 E31.3509
G1 X133.993 Y26.072 E31.36084
G1 X134.114 Y26.3 E31.37076
G1 X134.161 Y26.554 E31.38068
G1 X134.118 Y26.84 E31.39179
G1 X132.698 Y31.129 E31.56535
G1 X132.58 Y31.359 E31.57528
G1 X132.398 Y31.542 E31.5852
G1 X132.169 Y31.661 E31.59511
G1 X131.905 Y31.705 E31.60539
G1 X131.259 Y31.708 E31.63021
G1 X129.638 Y31.709 E31.69248
G1 X128.822 Y31.689 E31.72384
G1 X118.297 Y31.685 E32.12816
G1 X117.568 Y31.705 E32.15618
G1 X114.099 Y31.683 E32.28944
G1 X112.346 Y31.685 E32.35678
G1 X112.091 Y31.646 E32.36669
G1 X111.859 Y31.53 E32.37666
G1 X111.674 Y31.35 E32.38657
G1 X111.552 Y31.122 E32.39651
G1 X111.505 Y30.845 E32.4073
G1 X111.505 Y29.228 E32.46942
G1 X106.932 Y29.241 E32.64509
G1 X104.881 Y29.232 E32.72388
G1 X104.28 Y29.243 E32.74698
G1 X101.325 Y29.24 E32.86049
G1 X97.106 Y29.223 E33.02257
G1 X93.754 Y29.223 E33.15134
G1 X90.693 Y29.235 E33.26893
G1 X87.354 Y29.241 E33.3972
G1 X83.103 Y29.205 E33.56051
G1 X81.754 Y29.203 E33.61233
G1 X81.498 Y29.163 E33.62228
G1 X81.267 Y29.047 E33.63221
G1 X81.083 Y28.866 E33.64213
G1 X80.961 Y28.638 E33.65206
G1 X80.915 Y28.384 E33.66198
G1 X80.949 Y28.128 E33.6719
M204 S3000
M205 X10 Y10
G0 F1800 X81.475 Y28.352
M204 S1800
M205 X8 Y8
G1 F2400 X81.551 Y28.171 E33.67944
G1 X82.254 Y27.424 E33.71885
G1 X85.864 Y25.182 E33.8821
G1 X89.929 Y23.949 E34.04528
G1 X94.115 Y23.815 E34.20617
G1 X98.311 Y24.775 E34.37153
G1 X101.996 Y26.744 E34.53203
G1 X112.095 Y26.606 E34.92002
