;FLAVOR:Marlin
;TIME:2756
;Filament used: 2.06065m
;Layer height: 0.18
;MINX:75.723
;MINY:24.473
;MINZ:0.15
;MAXX:134.103
;MAXY:63.923
;MAXZ:19.95
;Generated with Cura_SteamEngine 4.5.0
M140 S60
M105
M190 S60
M104 S200
M105
M109 S200
M82 ;absolute extrusion mode
G21 ;metric values
G90 ;absolute positioning
M82 ;set extruder to absolute mode
M107 ;start with the fan off
G28 X0 Y0 ;move X/Y to min endstops
G28 Z0 ;move Z to min endstops
G1 Z15.0 F100 ;move the platform down 15mm
G92 E0 ;zero the extruded length
G1 F200 E3 ;extrude 3mm of feed stock
G92 E0 ;zero the extruded length again
G1 F100
G0 Y20 F100
M117 Printing...
G5
G92 E0
G92 E0
G1 F2400 E-6
;LAYER_COUNT:111
;LAYER:0
M106 S255
M204 S3000
M205 X10 Y10
G1 F600 Z0.225
G0 F1800 X77.891 Y35.139 Z0.225
M204 S1800
M205 X8 Y8
;TYPE:SKIRT
G1 F600 Z0.15
G1 F2400 E0
G1 X78.861 Y33.447 E0.07492
G1 X79.976 Y31.877 E0.1489
G1 X81.243 Y30.424 E0.22296
G1 X82.612 Y29.13 E0.29532
G1 X84.123 Y27.958 E0.36878
G1 X85.748 Y26.937 E0.44251
G1 X87.462 Y26.084 E0.51605
G1 X89.256 Y25.404 E0.58976
G1 X91.097 Y24.908 E0.663
G1 X92.993 Y24.596 E0.73681
G1 X94.927 Y24.474 E0.81126
G1 X95.357 Y24.473 E0.82778
G1 X96.82 Y24.546 E0.88405
G1 X98.739 Y24.812 E0.95847
G1 X100.61 Y25.268 E1.03245
G1 X102.416 Y25.905 E1.10602
G1 X104.151 Y26.718 E1.17962
G1 X105.798 Y27.7 E1.25329
G1 X107.344 Y28.844 E1.32717
G1 X108.769 Y30.135 E1.40104
G1 X109.146 Y30.528 E1.42196
G1 X128.097 Y30.53 E2.14997
G1 X128.675 Y30.57 E2.17223
G1 X129.242 Y30.689 E2.19448
G1 X129.777 Y30.881 E2.21632
G1 X131.589 Y31.672 E2.29227
G1 X132.103 Y31.94 E2.31454
G1 X132.575 Y32.276 E2.3368
G1 X132.996 Y32.673 E2.35902
G1 X133.359 Y33.125 E2.38129
G1 X133.655 Y33.623 E2.40355
G1 X133.881 Y34.156 E2.42579
G1 X134.031 Y34.716 E2.44806
G1 X134.103 Y35.291 E2.47032
G1 X134.094 Y35.87 E2.49257
G1 X134.007 Y36.443 E2.51483
G1 X133.837 Y37.007 E2.53746
G1 X133.655 Y37.488 E2.55722
G1 X126.159 Y56.175 E3.33069
G1 X125.857 Y56.818 E3.35798
G1 X125.534 Y57.299 E3.38024
G1 X125.148 Y57.731 E3.40249
G1 X124.707 Y58.106 E3.42473
G1 X124.218 Y58.417 E3.44699
G1 X123.691 Y58.657 E3.46924
G1 X123.136 Y58.823 E3.49149
G1 X122.563 Y58.911 E3.51376
G1 X108.049 Y58.927 E4.07132
G1 X107.662 Y59.285 E4.09158
G1 X106.143 Y60.461 E4.16537
G1 X104.518 Y61.478 E4.23902
G1 X102.8 Y62.329 E4.31267
G1 X101.007 Y63.005 E4.38628
G1 X99.162 Y63.499 E4.45965
G1 X97.266 Y63.806 E4.53344
G1 X95.359 Y63.923 E4.60683
G1 X93.445 Y63.848 E4.68042
G1 X91.55 Y63.583 E4.75392
G1 X89.686 Y63.128 E4.82763
G1 X87.88 Y62.491 E4.9012
G1 X86.145 Y61.678 E4.9748
G1 X84.498 Y60.696 E5.04847
G1 X82.952 Y59.552 E5.12235
G1 X81.527 Y58.261 E5.19622
G1 X80.238 Y56.844 E5.2698
G1 X79.103 Y55.317 E5.34289
G1 X78.1 Y53.656 E5.41743
G1 X77.267 Y51.909 E5.49178
G1 X76.61 Y50.093 E5.56597
G1 X76.133 Y48.232 E5.63977
G1 X75.835 Y46.325 E5.71392
G1 X75.723 Y44.4 E5.78799
G1 X75.794 Y42.507 E5.86077
G1 X76.054 Y40.568 E5.93592
G1 X76.496 Y38.688 E6.01011
G1 X77.113 Y36.866 E6.08401
G1 X77.891 Y35.139 E6.15677
M204 S3000
M205 X10 Y10
G0 F1800 X78.399 Y35.375
M204 S1800
M205 X8 Y8
G1 F2400 X79.344 Y33.73 E6.22965
G1 X80.429 Y32.206 E6.30152
G1 X81.661 Y30.797 E6.37342
G1 X82.993 Y29.541 E6.44375
G1 X84.462 Y28.404 E6.51511
G1 X86.041 Y27.415 E6.58668
G1 X87.706 Y26.588 E6.6581
G1 X89.448 Y25.93 E6.72964
G1 X91.237 Y25.45 E6.80079
G1 X93.077 Y25.15 E6.87241
G1 X94.957 Y25.033 E6.94477
G1 X95.329 Y25.033 E6.95906
G1 X96.792 Y25.106 E7.01533
G1 X98.657 Y25.366 E7.08767
G1 X100.471 Y25.811 E7.15942
G1 X102.224 Y26.431 E7.23085
G1 X103.908 Y27.223 E7.30234
G1 X105.506 Y28.178 E7.37386
G1 X107.006 Y29.291 E7.44561
G1 X108.389 Y30.546 E7.51735
G1 X108.894 Y31.088 E7.54581
G1 X128.097 Y31.09 E8.2835
G1 X128.635 Y31.13 E8.30423
G1 X129.161 Y31.249 E8.32494
G1 X131.365 Y32.185 E8.41693
G1 X131.842 Y32.437 E8.43765
G1 X132.277 Y32.756 E8.45838
G1 X132.659 Y33.136 E8.47908
G1 X132.981 Y33.569 E8.4998
G1 X133.236 Y34.044 E8.52052
G1 X133.418 Y34.552 E8.54125
G1 X133.522 Y35.081 E8.56196
G1 X133.548 Y35.62 E8.58269
G1 X133.493 Y36.156 E8.60338
G1 X133.313 Y36.809 E8.62941
G1 X133.131 Y37.29 E8.64916
G1 X125.639 Y55.966 E9.42218
G1 X125.352 Y56.571 E9.44791
G1 X125.045 Y57.014 E9.46861
G1 X124.676 Y57.407 E9.48932
G1 X124.253 Y57.741 E9.51003
G1 X123.785 Y58.009 E9.53074
G1 X123.282 Y58.205 E9.55148
G1 X122.756 Y58.325 E9.57221
G1 X122.215 Y58.365 E9.59305
G1 X107.83 Y58.367 E10.14565
G1 X107.282 Y58.874 E10.17433
G1 X105.805 Y60.014 E10.24601
G1 X104.226 Y61 E10.31752
G1 X102.557 Y61.824 E10.38903
G1 X100.815 Y62.479 E10.46052
G1 X99.023 Y62.956 E10.53176
G1 X97.182 Y63.252 E10.60339
G1 X95.331 Y63.363 E10.67462
G1 X93.473 Y63.288 E10.74606
G1 X91.634 Y63.029 E10.8174
G1 X89.825 Y62.585 E10.88896
G1 X88.072 Y61.965 E10.96039
G1 X86.388 Y61.173 E11.03188
G1 X84.79 Y60.218 E11.10339
G1 X83.29 Y59.105 E11.17514
G1 X81.907 Y57.85 E11.24689
G1 X80.656 Y56.471 E11.31841
G1 X79.557 Y54.988 E11.38932
G1 X78.582 Y53.371 E11.46186
G1 X77.775 Y51.673 E11.53408
G1 X77.138 Y49.908 E11.60616
G1 X76.676 Y48.098 E11.67792
G1 X76.389 Y46.244 E11.74999
G1 X76.282 Y44.374 E11.82195
G1 X76.353 Y42.534 E11.89269
G1 X76.608 Y40.648 E11.9658
G1 X77.039 Y38.822 E12.03787
G1 X77.641 Y37.051 E12.10973
G1 X78.399 Y35.375 E12.18039
M204 S3000
M205 X10 Y10
G0 F1800 X78.907 Y35.61
M204 S1800
M205 X8 Y8
G1 F2400 X79.827 Y34.013 E12.25119
G1 X80.882 Y32.536 E12.32092
G1 X82.079 Y31.169 E12.39072
G1 X83.373 Y29.952 E12.45896
G1 X84.801 Y28.85 E12.52825
G1 X86.333 Y27.892 E12.59766
G1 X87.95 Y27.092 E12.66697
G1 X89.641 Y26.456 E12.73637
G1 X91.377 Y25.992 E12.8054
G1 X93.162 Y25.703 E12.87487
G1 X94.986 Y25.592 E12.94507
G1 X95.301 Y25.592 E12.95717
G1 X96.764 Y25.665 E13.01344
G1 X98.574 Y25.92 E13.08366
G1 X100.332 Y26.353 E13.15321
G1 X102.033 Y26.958 E13.22257
G1 X103.665 Y27.727 E13.29187
G1 X105.214 Y28.656 E13.36126
G1 X106.668 Y29.737 E13.43086
G1 X108.009 Y30.957 E13.5005
G1 X108.643 Y31.648 E13.53653
G1 X128.097 Y31.65 E14.28386
G1 X128.592 Y31.69 E14.30294
G1 X129.329 Y31.907 E14.33245
G1 X131.141 Y32.698 E14.40841
G1 X131.578 Y32.933 E14.42747
G1 X131.972 Y33.234 E14.44651
G1 X132.312 Y33.595 E14.46557
G1 X132.59 Y34.006 E14.48463
G1 X132.799 Y34.456 E14.50369
G1 X132.932 Y34.933 E14.52271
G1 X132.988 Y35.426 E14.54177
G1 X132.963 Y35.922 E14.56085
G1 X132.79 Y36.611 E14.58814
G1 X132.608 Y37.092 E14.6079
G1 X125.12 Y55.758 E15.3805
G1 X124.849 Y56.321 E15.40451
G1 X124.559 Y56.723 E15.42355
G1 X124.208 Y57.073 E15.44259
G1 X123.805 Y57.363 E15.46166
G1 X123.361 Y57.584 E15.48072
G1 X122.887 Y57.731 E15.49978
G1 X122.215 Y57.805 E15.52575
G1 X107.61 Y57.807 E16.08681
G1 X106.901 Y58.463 E16.12392
G1 X105.467 Y59.568 E16.19346
G1 X103.934 Y60.522 E16.26283
G1 X102.314 Y61.32 E16.3322
G1 X100.624 Y61.952 E16.40151
G1 X98.884 Y62.414 E16.47067
G1 X97.099 Y62.699 E16.54011
G1 X95.303 Y62.804 E16.60922
G1 X93.501 Y62.729 E16.67851
G1 X91.717 Y62.476 E16.74773
G1 X89.964 Y62.043 E16.81709
G1 X88.263 Y61.438 E16.88645
G1 X86.631 Y60.669 E16.95575
G1 X85.082 Y59.74 E17.02514
G1 X83.628 Y58.659 E17.09474
G1 X82.287 Y57.439 E17.16439
G1 X81.074 Y56.099 E17.23382
G1 X80.01 Y54.659 E17.3026
G1 X79.064 Y53.086 E17.37312
G1 X78.283 Y51.438 E17.44317
G1 X77.667 Y49.723 E17.51318
G1 X77.22 Y47.965 E17.58286
G1 X76.943 Y46.163 E17.6529
G1 X76.842 Y44.347 E17.72277
G1 X76.912 Y42.561 E17.79143
G1 X77.163 Y40.728 E17.8625
G1 X77.583 Y38.955 E17.9325
G1 X78.17 Y37.236 E18.00228
G1 X78.907 Y35.61 E18.07086
M204 S3000
M205 X10 Y10
G0 F1800 X79.415 Y35.846
M204 S1800
M205 X8 Y8
G1 F2400 X80.31 Y34.297 E18.13958
G1 X81.335 Y32.865 E18.20724
G1 X82.497 Y31.542 E18.27488
G1 X83.753 Y30.363 E18.34106
G1 X85.139 Y29.295 E18.40827
G1 X86.626 Y28.37 E18.47555
G1 X88.194 Y27.596 E18.54272
G1 X89.834 Y26.982 E18.60999
G1 X91.517 Y26.534 E18.6769
G1 X93.246 Y26.257 E18.74417
G1 X95.016 Y26.151 E18.81228
G1 X96.737 Y26.224 E18.87846
G1 X98.492 Y26.474 E18.94655
G1 X100.193 Y26.896 E19.01388
G1 X101.841 Y27.484 E19.0811
G1 X103.422 Y28.232 E19.14829
G1 X104.922 Y29.134 E19.21553
G1 X106.33 Y30.184 E19.283
G1 X107.628 Y31.368 E19.35049
G1 X108.392 Y32.208 E19.39411
G1 X128.097 Y32.21 E20.15109
G1 X128.544 Y32.25 E20.16833
G1 X129.105 Y32.42 E20.19085
G1 X130.917 Y33.211 E20.2668
G1 X131.311 Y33.427 E20.28406
G1 X131.66 Y33.708 E20.30127
G1 X131.953 Y34.048 E20.31851
G1 X132.182 Y34.433 E20.33572
G1 X132.339 Y34.854 E20.35298
G1 X132.419 Y35.295 E20.3702
G1 X132.419 Y35.744 E20.38745
G1 X132.266 Y36.413 E20.41381
G1 X132.084 Y36.894 E20.43357
G1 X124.6 Y55.549 E21.20573
G1 X124.348 Y56.067 E21.22786
G1 X124.076 Y56.424 E21.2451
G1 X123.745 Y56.727 E21.26234
G1 X123.366 Y56.967 E21.27957
G1 X122.95 Y57.135 E21.29681
G1 X122.511 Y57.228 E21.31405
G1 X107.391 Y57.247 E21.89489
G1 X106.521 Y58.052 E21.94042
G1 X105.129 Y59.121 E22.00784
G1 X103.642 Y60.044 E22.07508
G1 X102.071 Y60.815 E22.14231
G1 X100.432 Y61.426 E22.2095
G1 X98.745 Y61.871 E22.27652
G1 X97.015 Y62.145 E22.34381
G1 X95.275 Y62.245 E22.41076
G1 X93.529 Y62.17 E22.4779
G1 X91.801 Y61.922 E22.54496
G1 X90.103 Y61.5 E22.61218
G1 X88.455 Y60.912 E22.67939
G1 X86.874 Y60.164 E22.74658
G1 X85.374 Y59.262 E22.81382
G1 X83.966 Y58.212 E22.8813
G1 X82.668 Y57.028 E22.94879
G1 X81.492 Y55.726 E23.01619
G1 X80.463 Y54.33 E23.08281
G1 X79.546 Y52.801 E23.1513
G1 X78.791 Y51.202 E23.21923
G1 X78.196 Y49.538 E23.28712
G1 X77.764 Y47.831 E23.35476
G1 X77.497 Y46.082 E23.42273
G1 X77.401 Y44.32 E23.49051
G1 X77.472 Y42.587 E23.55714
G1 X77.717 Y40.807 E23.62617
G1 X78.127 Y39.089 E23.69402
G1 X78.699 Y37.421 E23.76176
G1 X79.415 Y35.846 E23.82822
M204 S3000
M205 X10 Y10
G0 F1800 X79.924 Y36.081
M204 S1800
M205 X8 Y8
G1 F2400 X80.793 Y34.58 E23.89485
G1 X81.788 Y33.194 E23.96039
G1 X82.916 Y31.914 E24.02593
G1 X84.134 Y30.774 E24.09002
G1 X85.478 Y29.741 E24.15514
G1 X86.919 Y28.847 E24.22028
G1 X88.438 Y28.1 E24.28531
G1 X90.027 Y27.508 E24.35045
G1 X91.658 Y27.076 E24.41527
G1 X93.331 Y26.81 E24.48035
G1 X95.045 Y26.711 E24.5463
G1 X96.709 Y26.783 E24.61028
G1 X98.409 Y27.027 E24.67626
G1 X100.054 Y27.438 E24.74139
G1 X101.649 Y28.01 E24.80649
G1 X103.179 Y28.736 E24.87154
G1 X104.63 Y29.611 E24.93664
G1 X105.992 Y30.63 E25.00198
G1 X107.248 Y31.779 E25.06737
G1 X108.141 Y32.768 E25.11856
G1 X128.097 Y32.77 E25.88518
G1 X128.491 Y32.81 E25.9004
G1 X128.881 Y32.934 E25.91612
G1 X130.693 Y33.725 E25.99207
G1 X131.038 Y33.919 E26.00727
G1 X131.336 Y34.178 E26.02244
G1 X131.577 Y34.492 E26.03765
G1 X131.75 Y34.848 E26.05285
G1 X131.847 Y35.231 E26.06803
G1 X131.866 Y35.626 E26.08322
G1 X131.742 Y36.215 E26.10634
G1 X131.56 Y36.696 E26.1261
G1 X124.08 Y55.341 E26.89785
G1 X123.848 Y55.808 E26.91788
G1 X123.598 Y56.114 E26.93306
G1 X123.291 Y56.363 E26.94824
G1 X122.94 Y56.546 E26.96345
G1 X122.56 Y56.654 E26.97862
G1 X122.215 Y56.685 E26.99193
G1 X107.171 Y56.687 E27.56985
G1 X106.14 Y57.641 E27.62381
G1 X104.791 Y58.675 E27.68911
G1 X103.35 Y59.567 E27.75421
G1 X101.828 Y60.311 E27.81929
G1 X100.24 Y60.9 E27.88436
G1 X98.606 Y61.329 E27.94926
G1 X96.932 Y61.591 E28.01435
G1 X95.246 Y61.686 E28.07922
G1 X93.558 Y61.611 E28.14413
G1 X91.884 Y61.368 E28.20911
G1 X90.242 Y60.958 E28.27412
G1 X88.647 Y60.386 E28.33922
G1 X87.117 Y59.66 E28.40427
G1 X85.666 Y58.785 E28.46937
G1 X84.304 Y57.766 E28.53471
G1 X83.048 Y56.617 E28.6001
G1 X81.911 Y55.354 E28.66539
G1 X80.916 Y54.001 E28.7299
G1 X80.028 Y52.516 E28.79637
G1 X79.299 Y50.966 E28.86217
G1 X78.724 Y49.353 E28.92796
G1 X78.308 Y47.697 E28.99355
G1 X78.051 Y46.002 E29.05941
G1 X77.96 Y44.293 E29.12515
G1 X78.031 Y42.614 E29.18971
G1 X78.271 Y40.887 E29.25669
G1 X78.671 Y39.223 E29.32244
G1 X79.227 Y37.606 E29.38812
G1 X79.924 Y36.081 E29.45254
M204 S3000
M205 X10 Y10
G0 F1800 X80.432 Y36.316
M204 S1800
M205 X8 Y8
G1 F2400 X81.276 Y34.863 E29.51709
G1 X82.241 Y33.523 E29.58052
G1 X83.334 Y32.287 E29.64391
G1 X84.514 Y31.185 E29.70593
G1 X85.817 Y30.187 E29.76898
G1 X87.211 Y29.324 E29.83196
G1 X88.683 Y28.604 E29.89491
G1 X90.219 Y28.033 E29.95786
G1 X91.798 Y27.619 E30.02057
G1 X93.416 Y27.364 E30.0835
G1 X95.074 Y27.27 E30.14729
G1 X96.681 Y27.343 E30.20909
G1 X98.326 Y27.581 E30.27294
G1 X99.915 Y27.981 E30.33589
G1 X101.457 Y28.536 E30.39884
G1 X102.936 Y29.241 E30.46178
G1 X104.338 Y30.089 E30.52473
G1 X105.654 Y31.077 E30.58794
G1 X106.868 Y32.19 E30.65121
G1 X107.89 Y33.328 E30.70997
G1 X128.097 Y33.33 E31.48623
G1 X128.429 Y33.37 E31.49908
G1 X130.469 Y34.238 E31.58425
G1 X130.757 Y34.407 E31.59707
G1 X130.997 Y34.64 E31.60992
G1 X131.175 Y34.923 E31.62277
G1 X131.28 Y35.24 E31.6356
G1 X131.308 Y35.572 E31.6484
G1 X131.218 Y36.016 E31.6658
G1 X131.036 Y36.497 E31.68556
G1 X123.56 Y55.132 E32.45689
G1 X123.352 Y55.542 E32.47455
G1 X123.126 Y55.788 E32.48738
G1 X122.849 Y55.973 E32.50018
G1 X122.535 Y56.088 E32.51302
G1 X122.215 Y56.125 E32.5254
G1 X106.945 Y56.127 E33.112
G1 X105.76 Y57.23 E33.17419
G1 X104.453 Y58.228 E33.23737
G1 X103.058 Y59.089 E33.30034
G1 X101.585 Y59.806 E33.36327
G1 X100.048 Y60.374 E33.42622
G1 X98.467 Y60.786 E33.48898
G1 X96.849 Y61.037 E33.55188
G1 X95.218 Y61.126 E33.61463
G1 X93.586 Y61.051 E33.67739
G1 X91.967 Y60.814 E33.74025
G1 X90.381 Y60.415 E33.80308
G1 X88.839 Y59.86 E33.86603
G1 X87.36 Y59.155 E33.92897
G1 X85.958 Y58.307 E33.99192
G1 X84.642 Y57.319 E34.05513
G1 X83.428 Y56.206 E34.1184
G1 X82.329 Y54.981 E34.18163
G1 X81.369 Y53.672 E34.24399
G1 X80.51 Y52.231 E34.30843
G1 X79.807 Y50.731 E34.37207
G1 X79.253 Y49.168 E34.43577
G1 X78.852 Y47.563 E34.49932
G1 X78.606 Y45.921 E34.56311
G1 X78.52 Y44.266 E34.62677
G1 X78.591 Y42.64 E34.68929
G1 X78.825 Y40.967 E34.75419
G1 X79.215 Y39.357 E34.81783
G1 X79.756 Y37.791 E34.88147
G1 X80.432 Y36.316 E34.9438
M204 S3000
M205 X10 Y10
G0 F1800 X80.94 Y36.552
M204 S1800
M205 X8 Y8
G1 F2400 X81.759 Y35.146 E35.00631
G1 X82.694 Y33.852 E35.06764
G1 X83.752 Y32.659 E35.12889
G1 X84.894 Y31.596 E35.18883
G1 X86.156 Y30.633 E35.24981
G1 X87.504 Y29.802 E35.31065
G1 X88.927 Y29.108 E35.37147
G1 X90.412 Y28.559 E35.43229
G1 X91.938 Y28.161 E35.49287
G1 X93.5 Y27.918 E35.5536
G1 X95.104 Y27.829 E35.61531
G1 X96.653 Y27.902 E35.67488
G1 X98.244 Y28.135 E35.73665
G1 X99.776 Y28.523 E35.79736
G1 X101.265 Y29.062 E35.85819
G1 X102.693 Y29.745 E35.919
G1 X104.046 Y30.567 E35.97982
G1 X105.316 Y31.523 E36.04089
G1 X106.487 Y32.601 E36.10203
G1 X107.528 Y33.764 E36.16199
G1 X107.624 Y33.888 E36.16801
G1 X128.097 Y33.89 E36.95449
G1 X128.433 Y33.96 E36.96768
G1 X130.245 Y34.751 E37.04363
G1 X130.463 Y34.89 E37.05356
G1 X130.629 Y35.088 E37.06349
G1 X130.726 Y35.327 E37.0734
G1 X130.747 Y35.585 E37.08334
G1 X130.513 Y36.299 E37.11221
G1 X123.041 Y54.924 E37.88312
G1 X122.862 Y55.261 E37.89778
G1 X122.668 Y55.432 E37.90772
G1 X122.431 Y55.537 E37.91768
G1 X122.215 Y55.565 E37.92604
G1 X106.696 Y55.567 E38.52221
G1 X105.38 Y56.819 E38.59199
G1 X104.115 Y57.782 E38.65306
G1 X102.766 Y58.611 E38.71389
G1 X101.342 Y59.302 E38.77469
G1 X99.856 Y59.848 E38.83551
G1 X98.328 Y60.244 E38.89615
G1 X96.765 Y60.484 E38.9569
G1 X95.19 Y60.567 E39.01748
G1 X93.614 Y60.492 E39.0781
G1 X92.051 Y60.261 E39.13879
G1 X90.52 Y59.873 E39.19946
G1 X89.031 Y59.334 E39.2603
G1 X87.603 Y58.651 E39.32111
G1 X86.25 Y57.829 E39.38192
G1 X84.98 Y56.873 E39.44299
G1 X83.809 Y55.795 E39.50413
G1 X82.747 Y54.609 E39.56529
G1 X81.822 Y53.343 E39.62552
G1 X80.992 Y51.946 E39.68795
G1 X80.315 Y50.495 E39.74946
G1 X79.781 Y48.983 E39.81106
G1 X79.395 Y47.43 E39.87253
G1 X79.16 Y45.84 E39.93427
G1 X79.079 Y44.239 E39.99586
G1 X79.15 Y42.667 E40.05631
G1 X79.38 Y41.047 E40.11916
G1 X79.758 Y39.49 E40.18071
G1 X80.284 Y37.976 E40.24228
G1 X80.94 Y36.552 E40.30251
M204 S3000
M205 X10 Y10
G0 F1800 X81.448 Y36.787
M204 S1800
M205 X8 Y8
G1 F2400 X82.242 Y35.429 E40.36294
G1 X83.147 Y34.181 E40.42217
G1 X84.17 Y33.032 E40.48127
G1 X85.275 Y32.007 E40.53916
G1 X86.495 Y31.079 E40.59805
G1 X87.797 Y30.279 E40.65675
G1 X89.171 Y29.612 E40.71543
G1 X90.605 Y29.085 E40.77412
G1 X92.078 Y28.703 E40.83257
G1 X93.585 Y28.471 E40.89115
G1 X95.133 Y28.388 E40.9507
G1 X96.625 Y28.461 E41.00809
G1 X98.161 Y28.689 E41.06774
