;FLAVOR:Marlin
;TIME:6563
;Filament used: 4.9052m
;Layer height: 0.18
;MINX:9.787
;MINY:9.036
;MINZ:0.15
;MAXX:199.695
;MAXY:184.735
;MAXZ:4.905
;Generated with Cura_SteamEngine 4.5.0
M140 S60
M105
M190 S60
M104 S200
M105
M109 S200
M82 ;absolute extrusion mode
G21 ;metric values
G90 ;absolute positioning
M82 ;set extruder to absolute mode
M107 ;start with the fan off
G28 X0 Y0 ;move X/Y to min endstops
G28 Z0 ;move Z to min endstops
G1 Z15.0 F100 ;move the platform down 15mm
G92 E0 ;zero the extruded length
G1 F200 E3 ;extrude 3mm of feed stock
G92 E0 ;zero the extruded length again
G1 F100
G0 Y20 F100
M117 Printing...
G5
G92 E0
G92 E0
G1 F2400 E-6
;LAYER_COUNT:27
;LAYER:0
M106 S255
M204 S3000
M205 X10 Y10
G1 F600 Z0.225
G0 F1800 X63.653 Y34.036 Z0.225
M204 S1800
M205 X8 Y8
;TYPE:SKIRT
G1 F600 Z0.15
G1 F2400 E0
G1 X66.052 Y29.965 E0.18152
G1 X68.678 Y26.387 E0.35202
G1 X71.719 Y22.979 E0.52748
G1 X75.205 Y19.769 E0.70953
G1 X78.887 Y17.012 E0.88623
G1 X82.672 Y14.72 E1.05621
G1 X86.926 Y12.668 E1.23765
G1 X91.102 Y11.152 E1.40832
G1 X95.519 Y10.009 E1.58359
G1 X100.048 Y9.3 E1.75969
G1 X104.621 Y9.038 E1.93565
G1 X105.031 Y9.036 E1.9514
G1 X109.196 Y9.223 E2.11157
G1 X113.737 Y9.859 E2.28771
G1 X118.189 Y10.936 E2.46367
G1 X122.666 Y12.498 E2.64583
G1 X126.83 Y14.444 E2.82239
G1 X130.77 Y16.783 E2.99841
G1 X134.464 Y19.496 E3.17448
G1 X137.872 Y22.558 E3.35048
G1 X140.858 Y25.822 E3.52042
G1 X143.701 Y29.596 E3.70194
G1 X146.004 Y33.395 E3.8726
G1 X148.055 Y37.649 E4.05402
G1 X149.624 Y41.972 E4.23069
G1 X150.757 Y46.41 E4.40664
G1 X151.45 Y50.94 E4.58269
G1 X151.695 Y55.516 E4.75873
G1 X151.499 Y59.936 E4.9287
G1 X150.84 Y64.618 E5.11033
G1 X149.744 Y69.08 E5.28683
G1 X148.221 Y73.4 E5.4628
G1 X146.279 Y77.553 E5.63892
G1 X143.94 Y81.493 E5.81494
G1 X141.227 Y85.187 E5.99101
G1 X138.165 Y88.595 E6.16701
G1 X134.784 Y91.687 E6.34301
G1 X131.24 Y94.34 E6.51308
G1 X127.343 Y96.718 E6.68846
G1 X123.073 Y98.778 E6.87058
G1 X118.751 Y100.347 E7.04721
G1 X114.313 Y101.48 E7.22317
G1 X109.781 Y102.173 E7.39929
G1 X105.206 Y102.418 E7.5753
G1 X100.629 Y102.213 E7.7513
G1 X96.092 Y101.561 E7.92738
G1 X91.643 Y100.467 E8.10338
G1 X87.321 Y98.943 E8.27943
G1 X83.313 Y97.07 E8.44939
G1 X79.378 Y94.752 E8.62483
G1 X75.548 Y91.959 E8.80693
G1 X72.126 Y88.885 E8.98364
G1 X69.035 Y85.506 E9.15956
G1 X66.288 Y81.836 E9.33566
G1 X63.916 Y77.916 E9.51168
G1 X61.937 Y73.782 E9.68774
G1 X60.375 Y69.473 E9.86382
G1 X59.243 Y65.036 E10.03973
G1 X58.55 Y60.504 E10.21585
G1 X58.305 Y55.931 E10.39177
G1 X58.501 Y51.51 E10.56178
G1 X59.16 Y46.828 E10.74341
G1 X60.256 Y42.366 E10.91991
G1 X61.779 Y38.046 E11.09588
G1 X63.653 Y34.036 E11.26592
M204 S3000
M205 X10 Y10
G0 F1800 X64.159 Y34.275
M204 S1800
M205 X8 Y8
G1 F2400 X66.534 Y30.251 E11.44542
G1 X69.128 Y26.72 E11.61373
G1 X72.135 Y23.354 E11.78712
G1 X75.583 Y20.183 E11.96708
G1 X79.221 Y17.461 E12.14162
G1 X82.96 Y15.2 E12.30948
G1 X87.167 Y13.174 E12.48885
G1 X91.29 Y11.68 E12.65732
G1 X95.657 Y10.551 E12.83059
G1 X100.132 Y9.853 E13.00458
G1 X104.651 Y9.597 E13.17846
G1 X105.006 Y9.596 E13.1921
G1 X109.171 Y9.783 E13.35226
G1 X113.657 Y10.413 E13.52628
G1 X118.055 Y11.48 E13.70013
G1 X122.479 Y13.026 E13.88016
G1 X126.591 Y14.951 E14.05458
G1 X130.482 Y17.263 E14.22845
G1 X134.13 Y19.946 E14.40241
G1 X137.496 Y22.973 E14.57631
G1 X140.443 Y26.198 E14.74414
G1 X143.253 Y29.931 E14.92363
G1 X145.523 Y33.683 E15.09209
G1 X147.549 Y37.89 E15.27147
G1 X149.097 Y42.161 E15.44599
G1 X150.214 Y46.547 E15.61986
G1 X150.896 Y51.022 E15.79375
G1 X151.136 Y55.543 E15.96767
G1 X150.94 Y59.909 E16.13556
G1 X150.285 Y64.537 E16.31512
G1 X149.201 Y68.943 E16.48943
G1 X147.694 Y73.211 E16.6633
G1 X145.772 Y77.314 E16.83736
G1 X143.46 Y81.205 E17.01123
G1 X140.777 Y84.853 E17.18519
G1 X137.75 Y88.219 E17.35909
G1 X134.408 Y91.272 E17.53298
G1 X130.906 Y93.891 E17.70097
G1 X127.053 Y96.239 E17.87431
G1 X122.832 Y98.272 E18.05429
G1 X118.562 Y99.82 E18.22877
G1 X114.176 Y100.937 E18.40263
G1 X109.699 Y101.619 E18.5766
G1 X105.179 Y101.859 E18.75049
G1 X100.656 Y101.654 E18.92442
G1 X96.174 Y101.007 E19.09838
G1 X91.78 Y99.924 E19.27223
G1 X87.509 Y98.415 E19.44624
G1 X83.552 Y96.564 E19.61406
G1 X79.664 Y94.271 E19.78746
G1 X75.88 Y91.508 E19.96745
G1 X72.502 Y88.47 E20.14198
G1 X69.45 Y85.13 E20.31579
G1 X66.738 Y81.502 E20.48979
G1 X64.396 Y77.628 E20.6637
G1 X62.444 Y73.543 E20.83762
G1 X60.902 Y69.284 E21.01162
G1 X59.786 Y64.899 E21.18545
G1 X59.104 Y60.422 E21.35942
G1 X58.864 Y55.903 E21.53326
G1 X59.06 Y51.537 E21.70115
G1 X59.715 Y46.909 E21.88071
G1 X60.799 Y42.503 E22.05502
G1 X62.306 Y38.235 E22.22889
G1 X64.159 Y34.275 E22.39685
M204 S3000
M205 X10 Y10
G0 F1800 X64.666 Y34.514
M204 S1800
M205 X8 Y8
G1 F2400 X67.015 Y30.538 E22.57425
G1 X69.578 Y27.054 E22.74041
G1 X72.552 Y23.729 E22.91178
G1 X75.96 Y20.596 E23.08961
G1 X79.554 Y17.911 E23.26195
G1 X83.248 Y15.68 E23.42773
G1 X87.409 Y13.679 E23.6051
G1 X91.479 Y12.207 E23.77136
G1 X95.795 Y11.094 E23.94259
G1 X100.216 Y10.407 E24.11446
G1 X104.68 Y10.156 E24.28622
G1 X104.981 Y10.155 E24.29778
G1 X109.146 Y10.342 E24.45795
G1 X113.577 Y10.968 E24.62985
G1 X117.92 Y12.024 E24.80155
G1 X122.292 Y13.554 E24.97949
G1 X126.351 Y15.457 E25.15171
G1 X130.194 Y17.743 E25.32348
G1 X133.797 Y20.396 E25.49537
G1 X137.12 Y23.388 E25.66714
G1 X140.028 Y26.574 E25.83285
G1 X142.804 Y30.266 E26.0103
G1 X145.043 Y33.971 E26.1766
G1 X147.044 Y38.132 E26.35397
G1 X148.57 Y42.349 E26.52625
G1 X149.671 Y46.683 E26.69803
G1 X150.342 Y51.104 E26.86981
G1 X150.576 Y55.571 E27.04165
G1 X150.38 Y59.881 E27.20739
G1 X149.731 Y64.457 E27.38494
G1 X148.658 Y68.807 E27.55705
G1 X147.166 Y73.023 E27.72886
G1 X145.266 Y77.074 E27.90074
G1 X142.98 Y80.917 E28.07252
G1 X140.327 Y84.52 E28.2444
G1 X137.335 Y87.843 E28.41618
G1 X134.032 Y90.857 E28.58795
G1 X130.573 Y93.441 E28.75381
G1 X126.763 Y95.76 E28.92516
G1 X122.591 Y97.767 E29.10301
G1 X118.374 Y99.293 E29.27529
G1 X114.04 Y100.394 E29.44707
G1 X109.617 Y101.065 E29.61892
G1 X105.151 Y101.299 E29.79072
G1 X100.684 Y101.094 E29.9625
G1 X96.256 Y100.453 E30.13438
G1 X91.916 Y99.381 E30.30611
G1 X87.698 Y97.888 E30.478
G1 X83.791 Y96.057 E30.64376
G1 X79.95 Y93.789 E30.81511
G1 X76.212 Y91.057 E30.99297
G1 X72.878 Y88.056 E31.16529
G1 X69.865 Y84.754 E31.33701
G1 X67.188 Y81.169 E31.50889
G1 X64.876 Y77.34 E31.68072
G1 X62.95 Y73.303 E31.85255
G1 X61.43 Y69.096 E32.02439
G1 X60.329 Y64.763 E32.19613
G1 X59.658 Y60.34 E32.36799
G1 X59.424 Y55.875 E32.53975
G1 X59.62 Y51.565 E32.70549
G1 X60.269 Y46.989 E32.88304
G1 X61.342 Y42.639 E33.05515
G1 X62.834 Y38.423 E33.22695
G1 X64.666 Y34.514 E33.39279
M204 S3000
M205 X10 Y10
G0 F1800 X65.172 Y34.754
M204 S1800
M205 X8 Y8
G1 F2400 X67.496 Y30.824 E33.56819
G1 X70.028 Y27.387 E33.73218
G1 X72.968 Y24.103 E33.90151
G1 X76.338 Y21.01 E34.07723
G1 X79.888 Y18.361 E34.24739
G1 X83.535 Y16.161 E34.41101
G1 X87.65 Y14.185 E34.58637
G1 X91.668 Y12.734 E34.75048
G1 X95.933 Y11.637 E34.91965
G1 X100.3 Y10.961 E35.08941
G1 X104.71 Y10.716 E35.25908
G1 X109.121 Y10.902 E35.42868
G1 X113.497 Y11.522 E35.59847
G1 X117.786 Y12.567 E35.76805
G1 X122.105 Y14.082 E35.94388
G1 X126.112 Y15.963 E36.11393
G1 X129.907 Y18.224 E36.28363
G1 X133.463 Y20.846 E36.45335
G1 X136.743 Y23.803 E36.623
G1 X139.613 Y26.951 E36.78665
G1 X142.356 Y30.601 E36.96204
G1 X144.563 Y34.259 E37.12616
G1 X146.538 Y38.373 E37.30147
G1 X148.043 Y42.538 E37.4716
G1 X149.127 Y46.819 E37.64124
G1 X149.788 Y51.186 E37.81092
G1 X150.017 Y55.598 E37.98063
G1 X149.821 Y59.854 E38.1443
G1 X149.177 Y64.377 E38.31981
G1 X148.114 Y68.671 E38.48974
G1 X146.639 Y72.834 E38.65941
G1 X144.76 Y76.835 E38.82921
G1 X142.499 Y80.63 E38.99891
G1 X139.877 Y84.186 E39.16864
G1 X136.92 Y87.466 E39.33829
G1 X133.655 Y90.442 E39.508
G1 X130.239 Y92.991 E39.67173
G1 X126.474 Y95.281 E39.84102
G1 X122.35 Y97.261 E40.01676
G1 X118.185 Y98.766 E40.18688
G1 X113.904 Y99.85 E40.35653
G1 X109.535 Y100.511 E40.52628
G1 X105.124 Y100.74 E40.69596
G1 X100.711 Y100.535 E40.86567
G1 X96.338 Y99.899 E41.03543
G1 X92.052 Y98.837 E41.20505
G1 X87.886 Y97.361 E41.37484
G1 X84.031 Y95.551 E41.53844
G1 X80.236 Y93.308 E41.70779
G1 X76.543 Y90.606 E41.88357
G1 X73.254 Y87.641 E42.05369
G1 X70.28 Y84.377 E42.22332
G1 X67.638 Y80.835 E42.39307
G1 X65.357 Y77.053 E42.56273
G1 X63.456 Y73.064 E42.73248
G1 X61.957 Y68.907 E42.90224
G1 X60.873 Y64.627 E43.07185
G1 X60.212 Y60.258 E43.2416
G1 X59.983 Y55.848 E43.41124
G1 X60.179 Y51.592 E43.57491
G1 X60.823 Y47.069 E43.75041
G1 X61.886 Y42.775 E43.92035
G1 X63.361 Y38.612 E44.09001
G1 X65.172 Y34.754 E44.25374
M204 S3000
M205 X10 Y10
G0 F1800 X65.678 Y34.993
M204 S1800
M205 X8 Y8
G1 F2400 X67.977 Y31.11 E44.42709
G1 X70.477 Y27.721 E44.58887
G1 X73.384 Y24.478 E44.75618
G1 X76.715 Y21.424 E44.92978
G1 X80.221 Y18.811 E45.09776
G1 X83.823 Y16.641 E45.2593
G1 X87.891 Y14.69 E45.43262
G1 X91.856 Y13.261 E45.59452
G1 X96.072 Y12.18 E45.76172
G1 X100.384 Y11.514 E45.92933
G1 X104.74 Y11.275 E46.09692
G1 X109.096 Y11.461 E46.26441
G1 X113.417 Y12.076 E46.43208
G1 X117.652 Y13.111 E46.59956
G1 X121.919 Y14.61 E46.7733
G1 X125.872 Y16.469 E46.94111
G1 X129.619 Y18.704 E47.10871
G1 X133.129 Y21.296 E47.27633
G1 X136.367 Y24.218 E47.44388
G1 X139.198 Y27.327 E47.60541
G1 X141.907 Y30.937 E47.77879
G1 X144.082 Y34.546 E47.94067
G1 X146.033 Y38.614 E48.11398
G1 X147.515 Y42.727 E48.28193
G1 X148.584 Y46.955 E48.44946
G1 X149.234 Y51.268 E48.61702
G1 X149.458 Y55.626 E48.78465
G1 X149.262 Y59.827 E48.94621
G1 X148.623 Y64.296 E49.11964
G1 X147.571 Y68.535 E49.28742
G1 X146.112 Y72.646 E49.455
G1 X144.254 Y76.595 E49.62265
G1 X142.019 Y80.342 E49.79026
G1 X139.427 Y83.852 E49.95788
G1 X136.505 Y87.09 E50.12543
G1 X133.279 Y90.027 E50.29302
G1 X129.906 Y92.541 E50.45463
G1 X126.184 Y94.801 E50.6219
G1 X122.109 Y96.756 E50.79553
G1 X117.996 Y98.238 E50.96348
G1 X113.768 Y99.307 E51.13101
G1 X109.453 Y99.957 E51.29864
G1 X105.096 Y100.181 E51.46624
G1 X100.739 Y99.976 E51.6338
G1 X96.42 Y99.345 E51.80148
G1 X92.188 Y98.294 E51.96899
G1 X88.075 Y96.834 E52.13665
G1 X84.27 Y95.045 E52.29817
G1 X80.522 Y92.827 E52.46548
G1 X76.875 Y90.155 E52.63916
G1 X73.63 Y87.226 E52.80709
G1 X70.695 Y84.001 E52.9746
G1 X68.088 Y80.501 E53.14225
G1 X65.837 Y76.765 E53.30981
G1 X63.962 Y72.824 E53.47747
G1 X62.484 Y68.719 E53.64507
G1 X61.416 Y64.491 E53.8126
G1 X60.766 Y60.176 E53.98023
G1 X60.542 Y55.82 E54.14779
G1 X60.738 Y51.619 E54.30935
G1 X61.377 Y47.15 E54.48277
G1 X62.429 Y42.911 E54.65055
G1 X63.888 Y38.8 E54.81813
G1 X65.678 Y34.993 E54.97974
M204 S3000
M205 X10 Y10
G0 F1800 X66.184 Y35.233
M204 S1800
M205 X8 Y8
G1 F2400 X68.459 Y31.396 E55.1511
G1 X70.927 Y28.054 E55.3107
G1 X73.8 Y24.852 E55.47596
G1 X77.093 Y21.837 E55.64747
G1 X80.555 Y19.261 E55.81325
G1 X84.111 Y17.121 E55.97268
G1 X88.132 Y15.195 E56.14395
G1 X92.045 Y13.789 E56.30368
G1 X96.21 Y12.722 E56.46885
G1 X100.469 Y12.068 E56.63438
G1 X104.769 Y11.834 E56.79981
G1 X109.071 Y12.02 E56.96523
G1 X113.336 Y12.63 E57.13074
G1 X117.518 Y13.655 E57.29615
G1 X121.732 Y15.138 E57.46776
G1 X125.633 Y16.975 E57.6334
G1 X129.331 Y19.184 E57.79888
G1 X132.796 Y21.745 E57.9644
G1 X135.991 Y24.633 E58.12985
G1 X138.783 Y27.703 E58.28926
G1 X141.458 Y31.272 E58.4606
G1 X143.602 Y34.834 E58.62031
G1 X145.528 Y38.855 E58.79159
G1 X146.988 Y42.915 E58.95733
G1 X148.041 Y47.091 E59.12278
G1 X148.68 Y51.351 E59.28826
G1 X148.898 Y55.653 E59.45373
G1 X148.702 Y59.799 E59.61318
G1 X148.069 Y64.216 E59.7846
G1 X147.028 Y68.399 E59.95019
G1 X145.584 Y72.457 E60.11565
G1 X143.748 Y76.356 E60.28121
G1 X141.539 Y80.054 E60.44669
G1 X138.978 Y83.519 E60.61221
G1 X136.09 Y86.714 E60.77766
G1 X132.903 Y89.612 E60.94314
G1 X129.572 Y92.091 E61.10264
G1 X125.894 Y94.322 E61.2679
G1 X121.868 Y96.251 E61.4394
G1 X117.808 Y97.711 E61.60514
G1 X113.632 Y98.764 E61.77058
G1 X109.37 Y99.403 E61.93614
G1 X105.069 Y99.621 E62.10158
G1 X100.766 Y99.416 E62.26707
G1 X96.503 Y98.791 E62.43258
G1 X92.324 Y97.751 E62.59802
G1 X88.264 Y96.306 E62.76357
G1 X84.51 Y94.539 E62.92296
G1 X80.809 Y92.345 E63.08824
G1 X77.207 Y89.704 E63.25982
G1 X74.007 Y86.811 E63.42554
G1 X71.11 Y83.625 E63.59096
G1 X68.537 Y80.168 E63.75651
G1 X66.317 Y76.477 E63.92197
G1 X64.468 Y72.585 E64.0875
G1 X63.012 Y68.53 E64.25301
G1 X61.959 Y64.355 E64.41842
G1 X61.32 Y60.093 E64.58398
G1 X61.102 Y55.793 E64.74938
G1 X61.298 Y51.647 E64.90882
G1 X61.931 Y47.23 E65.08024
G1 X62.972 Y43.047 E65.24583
G1 X64.416 Y38.989 E65.4113
G1 X66.184 Y35.233 E65.57077
M204 S3000
M205 X10 Y10
G0 F1800 X66.691 Y35.472
M204 S1800
M205 X8 Y8
G1 F2400 X68.94 Y31.683 E65.74004
G1 X71.377 Y28.388 E65.89747
G1 X74.217 Y25.227 E66.06072
G1 X77.471 Y22.251 E66.23012
G1 X80.889 Y19.71 E66.39373
G1 X84.399 Y17.602 E66.55102
G1 X88.373 Y15.701 E66.72025
G1 X92.233 Y14.316 E66.87779
G1 X96.348 Y13.265 E67.04094
G1 X100.553 Y12.622 E67.20436
G1 X104.799 Y12.393 E67.36771
G1 X109.046 Y12.58 E67.53101
G1 X113.256 Y13.185 E67.6944
G1 X117.384 Y14.198 E67.85769
G1 X121.545 Y15.666 E68.02719
G1 X125.393 Y17.482 E68.19065
G1 X129.043 Y19.665 E68.35403
G1 X132.462 Y22.195 E68.51742
G1 X135.615 Y25.048 E68.68077
G1 X138.368 Y28.079 E68.83807
G1 X141.01 Y31.607 E69.00739
G1 X143.122 Y35.122 E69.16492
G1 X145.022 Y39.096 E69.33413
G1 X146.461 Y43.104 E69.49772
G1 X147.498 Y47.227 E69.66104
G1 X148.126 Y51.433 E69.82441
G1 X148.339 Y55.681 E69.9878
G1 X148.143 Y59.772 E70.14514
G1 X147.514 Y64.136 E70.31452
G1 X146.485 Y68.263 E70.47791
G1 X145.057 Y72.269 E70.64129
G1 X143.241 Y76.116 E70.80471
G1 X141.058 Y79.766 E70.9681
G1 X138.528 Y83.185 E71.13149
G1 X135.675 Y86.338 E71.29484
G1 X132.527 Y89.197 E71.4582
G1 X129.238 Y91.642 E71.61563
G1 X125.605 Y93.843 E71.77881
G1 X121.627 Y95.745 E71.9482
G1 X117.619 Y97.184 E72.11179
G1 X113.496 Y98.221 E72.27511
G1 X109.288 Y98.849 E72.43855
G1 X105.041 Y99.062 E72.60191
G1 X100.794 Y98.857 E72.76525
G1 X96.585 Y98.237 E72.92868
G1 X92.46 Y97.208 E73.092
G1 X88.452 Y95.779 E73.25547
G1 X84.749 Y94.032 E73.41276
G1 X81.095 Y91.864 E73.57597
G1 X77.539 Y89.253 E73.74545
G1 X74.383 Y86.396 E73.90899
G1 X71.525 Y83.249 E74.07229
G1 X68.987 Y79.834 E74.23575
G1 X66.798 Y76.189 E74.39908
G1 X64.975 Y72.345 E74.56251
G1 X63.539 Y68.342 E74.72589
G1 X62.502 Y64.219 E74.88921
G1 X61.874 Y60.011 E75.05265
G1 X61.661 Y55.765 E75.21597
G1 X61.857 Y51.674 E75.3733
G1 X62.486 Y47.31 E75.54268
G1 X63.515 Y43.183 E75.70607
G1 X64.943 Y39.177 E75.86945
G1 X66.691 Y35.472 E76.02683
M204 S3000
M205 X10 Y10
G0 F1800 X67.197 Y35.711
M204 S1800
M205 X8 Y8
G1 F2400 X69.421 Y31.969 E76.19405
G1 X71.827 Y28.721 E76.34933
G1 X74.633 Y25.602 E76.5105
G1 X77.848 Y22.664 E76.67781
G1 X81.222 Y20.16 E76.83921
G1 X84.687 Y18.082 E76.99443
G1 X88.614 Y16.206 E77.16161
G1 X92.422 Y14.843 E77.31699
G1 X96.486 Y13.808 E77.47809
G1 X100.637 Y13.175 E77.6394
G1 X104.828 Y12.952 E77.80062
G1 X109.021 Y13.139 E77.96186
G1 X113.176 Y13.739 E78.12313
G1 X117.25 Y14.742 E78.28431
G1 X121.358 Y16.194 E78.45169
G1 X125.154 Y17.988 E78.61298
G1 X128.755 Y20.145 E78.77423
G1 X132.129 Y22.645 E78.93555
G1 X135.239 Y25.463 E79.09677
G1 X137.953 Y28.455 E79.25195
G1 X140.561 Y31.942 E79.41923
G1 X142.641 Y35.41 E79.57458
G1 X144.517 Y39.337 E79.74177
G1 X145.934 Y43.293 E79.90319
G1 X146.955 Y47.363 E80.06439
G1 X147.572 Y51.515 E80.22564
G1 X147.78 Y55.708 E80.38691
G1 X147.584 Y59.745 E80.54218
G1 X146.96 Y64.055 E80.70948
G1 X145.942 Y68.127 E80.87072
G1 X144.53 Y72.08 E81.03197
G1 X142.735 Y75.877 E81.19331
G1 X140.578 Y79.478 E81.35457
G1 X138.078 Y82.852 E81.51588
G1 X135.26 Y85.962 E81.67711
G1 X132.151 Y88.782 E81.83835
G1 X128.905 Y91.192 E81.99366
G1 X125.315 Y93.364 E82.15485
G1 X121.386 Y95.24 E82.3221
G1 X117.43 Y96.657 E82.48353
G1 X113.36 Y97.678 E82.64473
G1 X109.206 Y98.295 E82.80605
G1 X105.014 Y98.503 E82.96729
G1 X100.821 Y98.298 E83.12856
G1 X96.667 Y97.683 E83.28988
G1 X92.596 Y96.665 E83.45108
G1 X88.641 Y95.252 E83.61242
G1 X84.988 Y93.526 E83.76763
G1 X81.381 Y91.383 E83.9288
G1 X77.871 Y88.802 E84.09617
G1 X74.759 Y85.981 E84.25753
