;FLAVOR:Marlin
;TIME:4235
;Filament used: 3.44958m
;Layer height: 0.18
;MINX:19.001
;MINY:12.07
;MINZ:0.15
;MAXX:199.839
;MAXY:178.779
;MAXZ:4.83
;Generated with Cura_SteamEngine 4.5.0
M140 S60
M105
M190 S60
M104 S200
M105
M109 S200
M82 ;absolute extrusion mode
G21 ;metric values
G90 ;absolute positioning
M82 ;set extruder to absolute mode
M107 ;start with the fan off
G28 X0 Y0 ;move X/Y to min endstops
G28 Z0 ;move Z to min endstops
G1 Z15.0 F100 ;move the platform down 15mm
G92 E0 ;zero the extruded length
G1 F200 E3 ;extrude 3mm of feed stock
G92 E0 ;zero the extruded length again
G1 F100
G0 Y20 F100
M117 Printing...
G5
G92 E0
G92 E0
G1 F2400 E-6
;LAYER_COUNT:27
;LAYER:0
M106 S255
M204 S3000
M205 X10 Y10
G1 F600 Z0.225
G0 F1800 X113.771 Y41.546 Z0.225
M204 S1800
M205 X8 Y8
;TYPE:SKIRT
G1 F600 Z0.15
G1 F2400 E0
G1 X115.564 Y37.707 E0.16277
G1 X117.858 Y33.812 E0.33642
G1 X120.464 Y30.262 E0.5056
G1 X123.393 Y27.001 E0.67398
G1 X126.63 Y24.04 E0.84251
G1 X130.141 Y21.409 E1.01105
G1 X133.893 Y19.137 E1.17955
G1 X137.714 Y17.31 E1.34226
G1 X141.958 Y15.753 E1.51592
G1 X146.075 Y14.699 E1.67917
G1 X150.396 Y14.024 E1.84718
G1 X154.772 Y13.772 E2.01556
G1 X155.183 Y13.77 E2.03135
G1 X159.152 Y13.949 E2.18398
G1 X163.648 Y14.579 E2.35838
G1 X167.921 Y15.628 E2.52741
G1 X171.917 Y17.035 E2.69015
G1 X176.017 Y18.936 E2.86376
G1 X179.673 Y21.101 E3.02699
G1 X183.206 Y23.677 E3.19495
G1 X186.591 Y26.697 E3.36922
G1 X189.562 Y29.944 E3.53829
G1 X192.102 Y33.332 E3.70096
G1 X194.379 Y37.064 E3.8689
G1 X196.351 Y41.149 E4.04316
G1 X197.854 Y45.287 E4.21228
G1 X198.94 Y49.535 E4.38072
G1 X199.604 Y53.871 E4.54923
G1 X199.839 Y58.251 E4.71773
G1 X199.652 Y62.482 E4.88043
G1 X199.046 Y66.812 E5.04839
G1 X198.015 Y71.075 E5.21687
G1 X196.522 Y75.356 E5.39104
G1 X194.659 Y79.346 E5.56021
G1 X192.501 Y82.987 E5.7228
G1 X189.834 Y86.641 E5.89658
G1 X186.895 Y89.916 E6.06563
G1 X183.658 Y92.876 E6.23413
G1 X180.147 Y95.507 E6.40267
G1 X176.395 Y97.779 E6.57117
G1 X172.574 Y99.606 E6.73388
G1 X168.33 Y101.163 E6.90754
G1 X164.067 Y102.254 E7.07658
G1 X159.729 Y102.918 E7.24517
G1 X155.35 Y103.153 E7.41363
G1 X150.969 Y102.958 E7.58209
G1 X146.626 Y102.335 E7.75064
G1 X142.367 Y101.288 E7.91912
G1 X138.23 Y99.83 E8.08763
G1 X134.256 Y97.973 E8.25614
G1 X130.485 Y95.737 E8.42455
G1 X126.947 Y93.137 E8.59322
G1 X123.685 Y90.207 E8.76166
G1 X120.725 Y86.971 E8.93013
G1 X118.095 Y83.461 E9.09862
G1 X115.901 Y79.837 E9.26137
G1 X113.937 Y75.765 E9.43504
G1 X112.434 Y71.629 E9.60409
G1 X111.348 Y67.381 E9.77253
G1 X110.684 Y63.043 E9.94112
G1 X110.449 Y58.665 E10.10954
G1 X110.636 Y54.434 E10.27224
G1 X111.265 Y49.954 E10.44603
G1 X112.314 Y45.681 E10.61505
G1 X113.771 Y41.546 E10.78347
M204 S3000
M205 X10 Y10
G0 F1800 X114.299 Y41.734
M204 S1800
M205 X8 Y8
G1 F2400 X116.07 Y37.946 E10.94411
G1 X118.339 Y34.098 E11.11571
G1 X120.914 Y30.596 E11.2827
G1 X123.808 Y27.377 E11.44898
G1 X127.006 Y24.455 E11.6154
G1 X130.475 Y21.859 E11.78184
G1 X134.181 Y19.618 E11.94821
G1 X137.953 Y17.816 E12.1088
G1 X142.149 Y16.279 E12.28047
G1 X146.211 Y15.242 E12.44152
G1 X150.48 Y14.577 E12.60749
G1 X154.802 Y14.331 E12.77379
G1 X155.158 Y14.33 E12.78747
G1 X159.127 Y14.509 E12.94009
G1 X163.567 Y15.134 E13.11234
G1 X167.785 Y16.171 E13.2792
G1 X171.728 Y17.562 E13.43982
G1 X175.78 Y19.443 E13.61144
G1 X179.386 Y21.581 E13.77248
G1 X182.874 Y24.128 E13.93839
G1 X186.216 Y27.114 E14.11056
G1 X189.147 Y30.32 E14.27743
G1 X191.652 Y33.666 E14.438
G1 X193.899 Y37.354 E14.6039
G1 X195.845 Y41.39 E14.77603
G1 X197.327 Y45.475 E14.94296
G1 X198.397 Y49.671 E15.10931
G1 X199.05 Y53.953 E15.27571
G1 X199.28 Y58.278 E15.44209
G1 X199.093 Y62.455 E15.60271
G1 X198.492 Y66.732 E15.76863
G1 X197.471 Y70.94 E15.93497
G1 X195.994 Y75.17 E16.10709
G1 X194.152 Y79.106 E16.27403
G1 X192.021 Y82.699 E16.43451
G1 X189.383 Y86.309 E16.60627
G1 X186.48 Y89.54 E16.77313
G1 X183.282 Y92.461 E16.93952
G1 X179.813 Y95.057 E17.10596
G1 X176.107 Y97.298 E17.27234
G1 X172.335 Y99.1 E17.43293
G1 X168.139 Y100.637 E17.60459
G1 X163.931 Y101.711 E17.77143
G1 X159.647 Y102.364 E17.9379
G1 X155.323 Y102.594 E18.10424
G1 X150.996 Y102.399 E18.27063
G1 X146.708 Y101.781 E18.43706
G1 X142.503 Y100.745 E18.60343
G1 X138.418 Y99.302 E18.76986
G1 X134.496 Y97.466 E18.93622
G1 X130.773 Y95.256 E19.10254
G1 X127.281 Y92.687 E19.26907
G1 X124.061 Y89.792 E19.43542
G1 X121.14 Y86.595 E19.60177
G1 X118.545 Y83.127 E19.76817
G1 X116.381 Y79.549 E19.9288
G1 X114.442 Y75.524 E20.10043
G1 X112.961 Y71.44 E20.26732
G1 X111.891 Y67.245 E20.43363
G1 X111.238 Y62.961 E20.6001
G1 X111.008 Y58.638 E20.76641
G1 X111.195 Y54.461 E20.92703
G1 X111.82 Y50.035 E21.09874
G1 X112.857 Y45.817 E21.2656
G1 X114.299 Y41.734 E21.43195
M204 S3000
M205 X10 Y10
G0 F1800 X114.826 Y41.923
M204 S1800
M205 X8 Y8
G1 F2400 X116.577 Y38.185 E21.59052
G1 X118.821 Y34.384 E21.76008
G1 X121.363 Y30.93 E21.92483
G1 X124.223 Y27.753 E22.08904
G1 X127.382 Y24.87 E22.25334
G1 X130.809 Y22.309 E22.41769
G1 X134.469 Y20.098 E22.58195
G1 X138.192 Y18.322 E22.74041
G1 X142.339 Y16.806 E22.91003
G1 X146.347 Y15.785 E23.06892
G1 X150.565 Y15.131 E23.23289
G1 X154.831 Y14.89 E23.39703
G1 X155.133 Y14.889 E23.40864
G1 X159.102 Y15.068 E23.56126
G1 X163.487 Y15.688 E23.73139
G1 X167.649 Y16.714 E23.89606
G1 X171.54 Y18.09 E24.05461
G1 X175.542 Y19.95 E24.22414
G1 X179.098 Y22.062 E24.38302
G1 X182.542 Y24.579 E24.54689
G1 X185.842 Y27.53 E24.71696
G1 X188.732 Y30.696 E24.88163
G1 X191.202 Y34 E25.0401
G1 X193.42 Y37.643 E25.20395
G1 X195.34 Y41.632 E25.37401
G1 X196.8 Y45.664 E25.53875
G1 X197.854 Y49.807 E25.70297
G1 X198.496 Y54.035 E25.86725
G1 X198.72 Y58.306 E26.03155
G1 X198.533 Y62.428 E26.19006
G1 X197.937 Y66.652 E26.35394
G1 X196.927 Y70.806 E26.51816
G1 X195.466 Y74.983 E26.68816
G1 X193.646 Y78.867 E26.85293
G1 X191.54 Y82.412 E27.01133
G1 X188.932 Y85.977 E27.18102
G1 X186.065 Y89.164 E27.3457
G1 X182.906 Y92.046 E27.50997
G1 X179.479 Y94.607 E27.67432
G1 X175.819 Y96.818 E27.83858
G1 X172.096 Y98.594 E27.99704
G1 X167.949 Y100.11 E28.16666
G1 X163.795 Y101.168 E28.33133
G1 X159.565 Y101.81 E28.49569
G1 X155.295 Y102.034 E28.65995
G1 X151.024 Y101.839 E28.8242
G1 X146.79 Y101.227 E28.98854
G1 X142.639 Y100.202 E29.15279
G1 X138.607 Y98.775 E29.31709
G1 X134.735 Y96.96 E29.48137
G1 X131.061 Y94.776 E29.64556
G1 X127.615 Y92.237 E29.80999
G1 X124.437 Y89.377 E29.97424
G1 X121.555 Y86.219 E30.13848
G1 X118.994 Y82.793 E30.3028
G1 X116.862 Y79.262 E30.46125
G1 X114.947 Y75.283 E30.63089
G1 X113.488 Y71.252 E30.79557
G1 X112.434 Y67.109 E30.95979
G1 X111.792 Y62.879 E31.12415
G1 X111.568 Y58.61 E31.28837
G1 X111.755 Y54.488 E31.44689
G1 X112.374 Y50.115 E31.61655
G1 X113.4 Y45.953 E31.78122
G1 X114.826 Y41.923 E31.94544
M204 S3000
M205 X10 Y10
G0 F1800 X115.353 Y42.112
M204 S1800
M205 X8 Y8
G1 F2400 X117.083 Y38.425 E32.1019
G1 X119.302 Y34.67 E32.26945
G1 X121.813 Y31.263 E32.43204
G1 X124.638 Y28.129 E32.59413
G1 X127.758 Y25.285 E32.75631
G1 X131.142 Y22.758 E32.91855
G1 X134.757 Y20.578 E33.08072
G1 X138.431 Y18.829 E33.23703
G1 X142.53 Y17.333 E33.40466
G1 X146.484 Y16.329 E33.56137
G1 X150.649 Y15.685 E33.72327
G1 X154.861 Y15.45 E33.88533
G1 X159.077 Y15.628 E34.04744
G1 X163.407 Y16.242 E34.21544
G1 X167.513 Y17.258 E34.37793
G1 X171.351 Y18.617 E34.53434
G1 X175.304 Y20.457 E34.70184
G1 X178.81 Y22.542 E34.85854
G1 X182.21 Y25.03 E35.02039
G1 X185.467 Y27.946 E35.18833
G1 X188.317 Y31.072 E35.35083
G1 X190.753 Y34.333 E35.5072
G1 X192.941 Y37.933 E35.66903
G1 X194.834 Y41.873 E35.83695
G1 X196.273 Y45.853 E35.99953
G1 X197.31 Y49.943 E36.16162
G1 X197.942 Y54.117 E36.3238
G1 X198.161 Y58.333 E36.48598
G1 X197.974 Y62.4 E36.64238
G1 X197.383 Y66.572 E36.80425
G1 X196.384 Y70.672 E36.96636
G1 X194.938 Y74.796 E37.13424
G1 X193.14 Y78.628 E37.29685
G1 X191.06 Y82.124 E37.45312
G1 X188.481 Y85.645 E37.62078
G1 X185.65 Y88.788 E37.78328
G1 X182.53 Y91.631 E37.94543
G1 X179.146 Y94.158 E38.10768
G1 X175.531 Y96.338 E38.26985
G1 X171.857 Y98.087 E38.42616
G1 X167.758 Y99.583 E38.59378
G1 X163.659 Y100.624 E38.75625
G1 X159.483 Y101.256 E38.9185
G1 X155.268 Y101.475 E39.08064
G1 X151.051 Y101.28 E39.24281
G1 X146.872 Y100.673 E39.40503
G1 X142.775 Y99.658 E39.56718
G1 X138.795 Y98.248 E39.72938
G1 X134.975 Y96.454 E39.89151
G1 X131.349 Y94.296 E40.0536
G1 X127.948 Y91.788 E40.21594
G1 X124.813 Y88.962 E40.37808
G1 X121.97 Y85.843 E40.5402
G1 X119.444 Y82.46 E40.70239
G1 X117.342 Y78.974 E40.85877
G1 X115.453 Y75.041 E41.02638
G1 X114.015 Y71.063 E41.18888
G1 X112.978 Y66.973 E41.35097
G1 X112.346 Y62.797 E41.51322
G1 X112.127 Y58.583 E41.67532
G1 X112.314 Y54.516 E41.83172
G1 X112.928 Y50.195 E41.99938
G1 X113.944 Y46.089 E42.16187
G1 X115.353 Y42.112 E42.32395
M204 S3000
M205 X10 Y10
G0 F1800 X115.88 Y42.3
M204 S1800
M205 X8 Y8
G1 F2400 X117.589 Y38.664 E42.47829
G1 X119.783 Y34.956 E42.6438
G1 X122.263 Y31.597 E42.8042
G1 X125.053 Y28.505 E42.96419
G1 X128.134 Y25.7 E43.12425
G1 X131.476 Y23.208 E43.2844
G1 X135.045 Y21.059 E43.44444
G1 X138.671 Y19.335 E43.59868
G1 X142.721 Y17.859 E43.76427
G1 X146.62 Y16.872 E43.91878
G1 X150.733 Y16.238 E44.07864
G1 X154.89 Y16.009 E44.23858
G1 X159.051 Y16.187 E44.39857
G1 X163.327 Y16.796 E44.56449
G1 X167.377 Y17.801 E44.7248
G1 X171.163 Y19.144 E44.87912
G1 X175.067 Y20.964 E45.04459
G1 X178.522 Y23.023 E45.19909
G1 X181.878 Y25.481 E45.3589
G1 X185.092 Y28.362 E45.52471
G1 X187.902 Y31.448 E45.68504
G1 X190.303 Y34.667 E45.83931
G1 X192.462 Y38.222 E45.99909
G1 X194.329 Y42.114 E46.16491
G1 X195.745 Y46.042 E46.32532
G1 X196.767 Y50.079 E46.48529
G1 X197.388 Y54.199 E46.64535
G1 X197.602 Y58.361 E46.80545
G1 X197.415 Y62.373 E46.95974
G1 X196.829 Y66.492 E47.11956
G1 X195.84 Y70.538 E47.27957
G1 X194.41 Y74.609 E47.44533
G1 X192.634 Y78.388 E47.60573
G1 X190.579 Y81.836 E47.75993
G1 X188.03 Y85.313 E47.92555
G1 X185.235 Y88.411 E48.08583
G1 X182.154 Y91.216 E48.2459
G1 X178.812 Y93.708 E48.40604
G1 X175.243 Y95.857 E48.56608
G1 X171.617 Y97.581 E48.72032
G1 X167.567 Y99.057 E48.88591
G1 X163.523 Y100.081 E49.04617
G1 X159.4 Y100.702 E49.20634
G1 X155.24 Y100.916 E49.36636
G1 X151.079 Y100.721 E49.52638
G1 X146.955 Y100.119 E49.68649
G1 X142.911 Y99.115 E49.84656
G1 X138.984 Y97.721 E50.00664
G1 X135.214 Y95.948 E50.16668
G1 X131.637 Y93.815 E50.32667
G1 X128.282 Y91.338 E50.48687
G1 X125.189 Y88.547 E50.64692
G1 X122.385 Y85.467 E50.80692
G1 X119.894 Y82.126 E50.96702
G1 X117.823 Y78.686 E51.12127
G1 X115.958 Y74.8 E51.28685
G1 X114.543 Y70.874 E51.44717
G1 X113.521 Y66.837 E51.60714
G1 X112.9 Y62.714 E51.76732
G1 X112.686 Y58.555 E51.9273
G1 X112.873 Y54.543 E52.08159
G1 X113.482 Y50.275 E52.2472
G1 X114.487 Y46.225 E52.40751
G1 X115.88 Y42.3 E52.5675
M204 S3000
M205 X10 Y10
G0 F1800 X116.408 Y42.489
M204 S1800
M205 X8 Y8
G1 F2400 X118.095 Y38.904 E52.71971
G1 X120.265 Y35.243 E52.8832
G1 X122.713 Y31.931 E53.04141
G1 X125.468 Y28.881 E53.1993
G1 X128.51 Y26.115 E53.35724
G1 X131.81 Y23.658 E53.51529
G1 X135.332 Y21.539 E53.67319
G1 X138.91 Y19.841 E53.82534
G1 X142.911 Y18.386 E53.98888
G1 X146.756 Y17.415 E54.14123
G1 X150.817 Y16.792 E54.29906
G1 X154.92 Y16.568 E54.45691
G1 X159.026 Y16.746 E54.61479
G1 X163.247 Y17.35 E54.7786
G1 X167.24 Y18.344 E54.93667
G1 X170.974 Y19.672 E55.08892
G1 X174.829 Y21.471 E55.25234
G1 X178.234 Y23.503 E55.40467
G1 X181.546 Y25.932 E55.56245
G1 X184.718 Y28.778 E55.72616
G1 X187.487 Y31.824 E55.8843
G1 X189.853 Y35.001 E56.03647
G1 X191.982 Y38.512 E56.19421
G1 X193.824 Y42.355 E56.35792
G1 X195.218 Y46.23 E56.51612
G1 X196.224 Y50.216 E56.67404
G1 X196.834 Y54.282 E56.83199
G1 X197.042 Y58.388 E56.98992
G1 X196.855 Y62.345 E57.1421
G1 X196.275 Y66.412 E57.29992
G1 X195.296 Y70.404 E57.45782
G1 X193.882 Y74.423 E57.62149
G1 X192.128 Y78.149 E57.77969
G1 X190.099 Y81.548 E57.93176
G1 X187.579 Y84.981 E58.09536
G1 X184.82 Y88.035 E58.25346
G1 X181.778 Y90.801 E58.41141
G1 X178.478 Y93.258 E58.56946
G1 X174.956 Y95.377 E58.72736
G1 X171.378 Y97.075 E58.8795
G1 X167.377 Y98.53 E59.04305
G1 X163.386 Y99.538 E59.20118
G1 X159.318 Y100.148 E59.3592
G1 X155.213 Y100.356 E59.5171
G1 X151.106 Y100.161 E59.67505
G1 X147.037 Y99.565 E59.83303
G1 X143.048 Y98.572 E59.99095
G1 X139.173 Y97.193 E60.14895
G1 X135.453 Y95.442 E60.3069
G1 X131.924 Y93.335 E60.46479
G1 X128.616 Y90.888 E60.62286
G1 X125.565 Y88.132 E60.7808
G1 X122.8 Y85.091 E60.93869
G1 X120.344 Y81.792 E61.09669
G1 X118.303 Y78.398 E61.24883
G1 X116.464 Y74.559 E61.41235
G1 X115.07 Y70.686 E61.57048
G1 X114.064 Y66.7 E61.72841
G1 X113.454 Y62.632 E61.88643
G1 X113.246 Y58.528 E62.04429
G1 X113.433 Y54.571 E62.19647
G1 X114.036 Y50.355 E62.36007
G1 X115.03 Y46.362 E62.51815
G1 X116.408 Y42.489 E62.67607
M204 S3000
M205 X10 Y10
G0 F1800 X116.935 Y42.677
M204 S1800
M205 X8 Y8
G1 F2400 X118.602 Y39.143 E62.82617
G1 X120.746 Y35.529 E62.9876
G1 X123.162 Y32.264 E63.14363
G1 X125.883 Y29.257 E63.29942
G1 X128.886 Y26.53 E63.45525
G1 X132.143 Y24.107 E63.61119
G1 X135.62 Y22.019 E63.767
G1 X139.149 Y20.348 E63.917
G1 X143.102 Y18.912 E64.07856
G1 X146.892 Y17.958 E64.2287
G1 X150.901 Y17.346 E64.38449
G1 X154.95 Y17.127 E64.54026
G1 X159.001 Y17.306 E64.69603
G1 X163.166 Y17.905 E64.85768
G1 X167.104 Y18.887 E65.01359
G1 X170.786 Y20.199 E65.16375
G1 X174.591 Y21.978 E65.32511
G1 X177.947 Y23.983 E65.47529
G1 X181.214 Y26.383 E65.63101
G1 X184.343 Y29.195 E65.79262
G1 X187.072 Y32.2 E65.94856
G1 X189.404 Y35.334 E66.09863
G1 X191.503 Y38.802 E66.25436
G1 X193.318 Y42.596 E66.41592
G1 X194.691 Y46.419 E66.57197
G1 X195.681 Y50.352 E66.72777
G1 X196.28 Y54.364 E66.8836
G1 X196.483 Y58.416 E67.03946
G1 X196.296 Y62.318 E67.18953
G1 X195.72 Y66.332 E67.3453
G1 X194.753 Y70.269 E67.50104
G1 X193.354 Y74.236 E67.66263
G1 X191.621 Y77.909 E67.81865
G1 X189.619 Y81.261 E67.96864
G1 X187.128 Y84.649 E68.13018
G1 X184.405 Y87.659 E68.28611
G1 X181.402 Y90.386 E68.44194
G1 X178.145 Y92.809 E68.59788
G1 X174.668 Y94.897 E68.75369
G1 X171.139 Y96.568 E68.90368
G1 X167.186 Y98.004 E69.06525
G1 X163.25 Y98.995 E69.22117
G1 X159.236 Y99.594 E69.37708
G1 X155.185 Y99.797 E69.5329
G1 X151.134 Y99.602 E69.6887
G1 X147.119 Y99.011 E69.8446
G1 X143.184 Y98.029 E70.0004
G1 X139.361 Y96.666 E70.15631
G1 X135.693 Y94.935 E70.31213
G1 X132.212 Y92.855 E70.4679
G1 X128.949 Y90.439 E70.62387
G1 X125.941 Y87.717 E70.77972
G1 X123.215 Y84.715 E70.93549
G1 X120.793 Y81.459 E71.09138
G1 X118.783 Y78.111 E71.2414
G1 X116.969 Y74.318 E71.40291
G1 X115.597 Y70.497 E71.55887
G1 X114.607 Y66.564 E71.71467
G1 X114.008 Y62.55 E71.87058
G1 X113.805 Y58.5 E72.02636
G1 X113.992 Y54.598 E72.17643
G1 X114.591 Y50.436 E72.33796
G1 X115.573 Y46.498 E72.49387
G1 X116.935 Y42.677 E72.6497
M204 S3000
M205 X10 Y10
G0 F1800 X117.462 Y42.866
M204 S1800
M205 X8 Y8
G1 F2400 X119.108 Y39.382 E72.79773
G1 X121.227 Y35.815 E72.95711
G1 X123.612 Y32.598 E73.11095
G1 X126.298 Y29.633 E73.26464
G1 X129.262 Y26.945 E73.41836
G1 X132.477 Y24.557 E73.5722
G1 X135.908 Y22.5 E73.72588
G1 X139.388 Y20.854 E73.87377
G1 X143.293 Y19.439 E74.03332
G1 X147.028 Y18.501 E74.18126
G1 X150.985 Y17.899 E74.33502
G1 X154.979 Y17.686 E74.48867
G1 X158.976 Y17.865 E74.64237
G1 X163.086 Y18.459 E74.8019
G1 X166.968 Y19.43 E74.95562
G1 X170.597 Y20.726 E75.10365
G1 X174.354 Y22.485 E75.26302
G1 X177.659 Y24.464 E75.411
G1 X180.882 Y26.834 E75.56468
G1 X183.968 Y29.611 E75.72417
G1 X186.657 Y32.576 E75.87793
G1 X188.954 Y35.668 E76.0259
G1 X191.024 Y39.091 E76.17957
G1 X192.813 Y42.837 E76.33905
G1 X194.164 Y46.608 E76.49293
G1 X195.138 Y50.488 E76.6466
G1 X195.726 Y54.446 E76.80032
G1 X195.924 Y58.443 E76.95406
G1 X195.737 Y62.291 E77.10205
G1 X195.166 Y66.252 E77.25579
G1 X194.209 Y70.135 E77.40942
G1 X192.826 Y74.049 E77.56889
G1 X191.115 Y77.67 E77.72274
G1 X189.138 Y80.973 E77.87062
G1 X186.677 Y84.317 E78.03012
G1 X183.99 Y87.283 E78.18386
G1 X181.026 Y89.971 E78.33757
G1 X177.811 Y92.359 E78.49142
G1 X174.38 Y94.416 E78.6451
G1 X170.9 Y96.062 E78.79298
G1 X166.995 Y97.477 E78.95254
G1 X163.114 Y98.452 E79.10626
G1 X159.154 Y99.04 E79.26006
