;FLAVOR:Marlin
;TIME:746
;Filament used: 0.642294m
;Layer height: 0.18
;MINX:75.305
;MINY:15.158
;MINZ:0.15
;MAXX:134.695
;MAXY:74.537
;MAXZ:4.83
;Generated with Cura_SteamEngine 4.5.0
M140 S60
M105
M190 S60
M104 S200
M105
M109 S200
M82 ;absolute extrusion mode
G21 ;metric values
G90 ;absolute positioning
M82 ;set extruder to absolute mode
M107 ;start with the fan off
G28 X0 Y0 ;move X/Y to min endstops
G28 Z0 ;move Z to min endstops
G1 Z15.0 F100 ;move the platform down 15mm
G92 E0 ;zero the extruded length
G1 F200 E3 ;extrude 3mm of feed stock
G92 E0 ;zero the extruded length again
G1 F100
G0 Y20 F100
M117 Printing...
G5
G92 E0
G92 E0
G1 F2400 E-6
;LAYER_COUNT:27
;LAYER:0
M106 S255
M204 S3000
M205 X10 Y10
G1 F600 Z0.225
G0 F1800 X77.452 Y33.766 Z0.225
M204 S1800
M205 X8 Y8
;TYPE:SKIRT
G1 F600 Z0.15
G1 F2400 E0
G1 X78.687 Y31.087 E0.11332
G1 X80.142 Y28.61 E0.22368
G1 X81.904 Y26.182 E0.33893
G1 X83.857 Y23.996 E0.45154
G1 X85.93 Y22.09 E0.55972
G1 X88.32 Y20.28 E0.67489
G1 X90.819 Y18.757 E0.78731
G1 X93.402 Y17.514 E0.89743
G1 X96.087 Y16.527 E1.00732
G1 X98.895 Y15.792 E1.11883
G1 X101.777 Y15.334 E1.23093
G1 X104.683 Y15.16 E1.34276
G1 X105.091 Y15.158 E1.35844
G1 X107.589 Y15.269 E1.4545
G1 X110.579 Y15.681 E1.57044
G1 X113.422 Y16.372 E1.68284
G1 X116.173 Y17.334 E1.79479
G1 X118.775 Y18.542 E1.905
G1 X121.319 Y20.039 E2.01839
G1 X123.601 Y21.703 E2.12689
G1 X125.841 Y23.696 E2.24207
G1 X127.822 Y25.849 E2.35446
G1 X129.575 Y28.178 E2.46644
G1 X131.043 Y30.587 E2.57481
G1 X132.349 Y33.28 E2.68979
G1 X133.356 Y36.032 E2.80236
G1 X134.084 Y38.851 E2.91421
G1 X134.532 Y41.732 E3.02621
G1 X134.695 Y44.641 E3.13814
G1 X134.578 Y47.455 E3.24633
G1 X134.182 Y50.33 E3.35782
G1 X133.504 Y53.163 E3.46973
G1 X132.52 Y56.006 E3.5853
G1 X131.286 Y58.665 E3.69791
G1 X129.805 Y61.174 E3.80983
G1 X128.086 Y63.526 E3.92174
G1 X126.144 Y65.699 E4.0337
G1 X123.999 Y67.67 E4.14561
G1 X121.668 Y69.425 E4.25769
G1 X119.181 Y70.939 E4.36954
G1 X116.555 Y72.204 E4.48152
G1 X113.815 Y73.205 E4.59358
G1 X110.997 Y73.932 E4.70538
G1 X108.113 Y74.38 E4.8175
G1 X105.299 Y74.537 E4.92577
G1 X102.313 Y74.421 E5.04056
G1 X99.409 Y74.013 E5.15322
G1 X96.578 Y73.324 E5.26515
G1 X93.827 Y72.362 E5.3771
G1 X91.183 Y71.134 E5.48909
G1 X88.756 Y69.703 E5.59733
G1 X86.41 Y68.001 E5.70867
G1 X84.228 Y66.062 E5.82081
G1 X82.187 Y63.858 E5.9362
G1 X80.423 Y61.515 E6.04887
G1 X78.909 Y59.029 E6.16068
G1 X77.665 Y56.444 E6.27089
G1 X76.647 Y53.673 E6.38429
G1 X75.94 Y50.936 E6.49289
G1 X75.471 Y47.978 E6.60794
G1 X75.305 Y45.056 E6.72037
G1 X75.422 Y42.241 E6.8286
G1 X75.833 Y39.269 E6.94386
G1 X76.524 Y36.426 E7.05626
G1 X77.452 Y33.766 E7.16448
M204 S3000
M205 X10 Y10
G0 F1800 X77.98 Y33.954
M204 S1800
M205 X8 Y8
G1 F2400 X79.194 Y31.325 E7.27572
G1 X80.623 Y28.897 E7.38395
G1 X82.355 Y26.514 E7.49712
G1 X84.272 Y24.372 E7.60755
G1 X86.306 Y22.505 E7.71361
G1 X88.656 Y20.729 E7.82677
G1 X91.107 Y19.237 E7.937
G1 X93.642 Y18.021 E8.04501
G1 X96.277 Y17.054 E8.15283
G1 X99.033 Y16.335 E8.26225
G1 X101.862 Y15.887 E8.37228
G1 X104.713 Y15.719 E8.48199
G1 X105.067 Y15.718 E8.49559
G1 X107.565 Y15.829 E8.59165
G1 X110.498 Y16.236 E8.7054
G1 X113.286 Y16.915 E8.81563
G1 X115.984 Y17.861 E8.92546
G1 X118.535 Y19.048 E9.03355
G1 X121.032 Y20.52 E9.1449
G1 X123.267 Y22.153 E9.25124
G1 X125.467 Y24.112 E9.3644
G1 X127.408 Y26.225 E9.47462
G1 X129.125 Y28.511 E9.58445
G1 X130.562 Y30.875 E9.69073
G1 X131.843 Y33.521 E9.80366
G1 X132.829 Y36.22 E9.91404
G1 X133.541 Y38.987 E10.0238
G1 X133.978 Y41.814 E10.13369
G1 X134.136 Y44.668 E10.2435
G1 X134.019 Y47.428 E10.34962
G1 X133.628 Y50.25 E10.45907
G1 X132.96 Y53.029 E10.56886
G1 X131.992 Y55.819 E10.68231
G1 X130.779 Y58.426 E10.79277
G1 X129.325 Y60.886 E10.90254
G1 X127.636 Y63.193 E11.01238
G1 X125.729 Y65.323 E11.12221
G1 X123.623 Y67.256 E11.23202
G1 X121.334 Y68.975 E11.34199
G1 X118.893 Y70.459 E11.45173
G1 X116.315 Y71.697 E11.5616
G1 X113.626 Y72.678 E11.67155
G1 X110.861 Y73.389 E11.78123
G1 X108.031 Y73.826 E11.89123
G1 X105.272 Y73.978 E11.99738
G1 X102.338 Y73.861 E12.11018
G1 X99.491 Y73.459 E12.22064
G1 X96.714 Y72.781 E12.33045
G1 X94.016 Y71.835 E12.44028
G1 X91.423 Y70.627 E12.55017
G1 X89.044 Y69.222 E12.65631
G1 X86.742 Y67.55 E12.76561
G1 X84.602 Y65.646 E12.87564
G1 X82.6 Y63.48 E12.98895
G1 X80.873 Y61.182 E13.09938
G1 X79.389 Y58.741 E13.20912
G1 X78.172 Y56.204 E13.31721
G1 X77.173 Y53.483 E13.42856
G1 X76.483 Y50.8 E13.53499
G1 X76.024 Y47.893 E13.64804
G1 X75.864 Y45.028 E13.75828
G1 X75.981 Y42.268 E13.8644
G1 X76.388 Y39.35 E13.97758
G1 X77.067 Y36.562 E14.08781
G1 X77.98 Y33.954 E14.19396
M204 S3000
M205 X10 Y10
G0 F1800 X78.507 Y34.142
M204 S1800
M205 X8 Y8
G1 F2400 X79.701 Y31.563 E14.30314
G1 X81.103 Y29.184 E14.40922
G1 X82.806 Y26.846 E14.52033
G1 X84.687 Y24.749 E14.62855
G1 X86.682 Y22.919 E14.73255
G1 X88.991 Y21.177 E14.84366
G1 X91.395 Y19.717 E14.95171
G1 X93.881 Y18.527 E15.05759
G1 X96.467 Y17.581 E15.16337
G1 X99.172 Y16.877 E15.27074
G1 X101.946 Y16.441 E15.37862
G1 X104.742 Y16.278 E15.48621
G1 X105.042 Y16.277 E15.49773
G1 X107.54 Y16.388 E15.59379
G1 X110.418 Y16.79 E15.70542
G1 X113.15 Y17.458 E15.81347
G1 X115.796 Y18.389 E15.92122
G1 X118.296 Y19.555 E16.02719
G1 X120.745 Y21.001 E16.13645
G1 X122.934 Y22.603 E16.24065
G1 X125.092 Y24.528 E16.35174
G1 X126.993 Y26.601 E16.45979
G1 X128.676 Y28.845 E16.56755
G1 X130.082 Y31.163 E16.6717
G1 X131.338 Y33.763 E16.78262
G1 X132.302 Y36.409 E16.8908
G1 X132.998 Y39.123 E16.99844
G1 X133.424 Y41.896 E17.10621
G1 X133.576 Y44.696 E17.21393
G1 X133.459 Y47.401 E17.31794
G1 X133.073 Y50.17 E17.42535
G1 X132.416 Y52.895 E17.53303
G1 X131.464 Y55.632 E17.64435
G1 X130.273 Y58.186 E17.75261
G1 X128.845 Y60.598 E17.86028
G1 X127.186 Y62.859 E17.96802
G1 X125.314 Y64.947 E18.07574
G1 X123.247 Y66.841 E18.18344
G1 X121.001 Y68.525 E18.29128
G1 X118.605 Y69.979 E18.39895
G1 X116.076 Y71.191 E18.50668
G1 X113.438 Y72.15 E18.61451
G1 X110.725 Y72.846 E18.72211
G1 X107.949 Y73.272 E18.83
G1 X105.245 Y73.418 E18.93402
G1 X102.363 Y73.302 E19.04483
G1 X99.573 Y72.905 E19.15308
G1 X96.85 Y72.238 E19.26078
G1 X94.204 Y71.307 E19.36854
G1 X91.662 Y70.121 E19.4763
G1 X89.332 Y68.742 E19.58031
G1 X87.074 Y67.098 E19.6876
G1 X84.977 Y65.23 E19.79549
G1 X83.014 Y63.102 E19.9067
G1 X81.323 Y60.848 E20.01495
G1 X79.869 Y58.453 E20.12258
G1 X78.678 Y55.965 E20.22855
G1 X77.7 Y53.293 E20.33785
G1 X77.026 Y50.664 E20.44211
G1 X76.578 Y47.809 E20.55313
G1 X76.424 Y45.001 E20.66117
G1 X76.541 Y42.295 E20.76521
G1 X76.942 Y39.43 E20.87635
G1 X77.61 Y36.698 E20.98439
G1 X78.507 Y34.142 E21.08845
M204 S3000
M205 X10 Y10
G0 F1800 X79.035 Y34.331
M204 S1800
M205 X8 Y8
G1 F2400 X80.208 Y31.8 E21.19562
G1 X81.584 Y29.471 E21.29953
G1 X83.257 Y27.178 E21.40857
G1 X85.102 Y25.125 E21.51461
G1 X87.058 Y23.334 E21.61649
G1 X89.326 Y21.626 E21.72556
G1 X91.683 Y20.198 E21.83143
G1 X94.12 Y19.033 E21.93519
G1 X96.656 Y18.108 E22.03889
G1 X99.31 Y17.42 E22.14422
G1 X102.03 Y16.995 E22.24997
G1 X104.772 Y16.838 E22.35548
G1 X107.515 Y16.947 E22.46094
G1 X110.338 Y17.344 E22.57045
G1 X113.014 Y18.002 E22.67631
G1 X115.607 Y18.916 E22.78193
G1 X118.056 Y20.061 E22.88579
G1 X120.458 Y21.481 E22.99298
G1 X122.601 Y23.053 E23.09508
G1 X124.717 Y24.944 E23.2041
G1 X126.578 Y26.977 E23.30997
G1 X128.226 Y29.179 E23.41563
G1 X129.602 Y31.451 E23.51767
G1 X130.832 Y34.004 E23.62653
G1 X131.775 Y36.598 E23.73256
G1 X132.454 Y39.259 E23.83806
G1 X132.87 Y41.979 E23.94377
G1 X133.017 Y44.723 E24.04933
G1 X132.9 Y47.374 E24.15127
G1 X132.519 Y50.09 E24.25663
G1 X131.873 Y52.761 E24.36219
G1 X130.936 Y55.445 E24.4714
G1 X129.767 Y57.947 E24.57749
G1 X128.364 Y60.31 E24.68306
G1 X126.736 Y62.526 E24.7887
G1 X124.899 Y64.571 E24.8943
G1 X122.871 Y66.426 E24.99988
G1 X120.667 Y68.075 E25.10562
G1 X118.317 Y69.498 E25.21116
G1 X115.837 Y70.685 E25.31678
G1 X113.249 Y71.623 E25.42253
G1 X110.589 Y72.302 E25.52799
G1 X107.867 Y72.718 E25.63377
G1 X105.218 Y72.859 E25.73568
G1 X102.388 Y72.742 E25.84448
G1 X99.655 Y72.351 E25.95054
G1 X96.986 Y71.694 E26.05613
G1 X94.393 Y70.78 E26.16175
G1 X91.901 Y69.615 E26.26743
G1 X89.62 Y68.262 E26.36931
G1 X87.405 Y66.647 E26.47462
G1 X85.352 Y64.814 E26.58034
G1 X83.427 Y62.725 E26.68947
G1 X81.773 Y60.515 E26.79551
G1 X80.35 Y58.165 E26.90105
G1 X79.184 Y55.726 E27.0049
G1 X78.227 Y53.103 E27.11216
G1 X77.569 Y50.528 E27.21426
G1 X77.132 Y47.725 E27.32324
G1 X76.983 Y44.973 E27.42911
G1 X77.1 Y42.322 E27.53105
G1 X77.496 Y39.51 E27.64014
G1 X78.154 Y36.834 E27.746
G1 X79.035 Y34.331 E27.84794
M204 S3000
M205 X10 Y10
G0 F1800 X79.562 Y34.519
M204 S1800
M205 X8 Y8
G1 F2400 X80.715 Y32.038 E27.95304
G1 X82.065 Y29.758 E28.05483
G1 X83.708 Y27.51 E28.16179
G1 X85.516 Y25.501 E28.26562
G1 X87.434 Y23.749 E28.36541
G1 X89.661 Y22.075 E28.47244
G1 X91.971 Y20.678 E28.57615
G1 X94.359 Y19.54 E28.67777
G1 X96.846 Y18.635 E28.77943
G1 X99.448 Y17.963 E28.88267
G1 X102.114 Y17.548 E28.98632
G1 X104.802 Y17.397 E29.08974
G1 X107.49 Y17.507 E29.19309
G1 X110.257 Y17.898 E29.30044
G1 X112.878 Y18.545 E29.40415
G1 X115.419 Y19.443 E29.50768
G1 X117.817 Y20.567 E29.60942
G1 X120.171 Y21.962 E29.71454
G1 X122.267 Y23.503 E29.81447
G1 X124.342 Y25.36 E29.92145
G1 X126.163 Y27.353 E30.02515
G1 X127.776 Y29.512 E30.12868
G1 X129.121 Y31.739 E30.22863
G1 X130.327 Y34.245 E30.33546
G1 X131.247 Y36.786 E30.43928
G1 X131.911 Y39.395 E30.5427
G1 X132.316 Y42.061 E30.64629
G1 X132.458 Y44.751 E30.74977
G1 X132.341 Y47.346 E30.84956
G1 X131.965 Y50.01 E30.95291
G1 X131.329 Y52.627 E31.05637
G1 X130.408 Y55.259 E31.16349
G1 X129.261 Y57.707 E31.26735
G1 X127.884 Y60.022 E31.37082
G1 X126.286 Y62.192 E31.47435
G1 X124.484 Y64.194 E31.57782
G1 X122.495 Y66.011 E31.68131
G1 X120.333 Y67.625 E31.78496
G1 X118.029 Y69.018 E31.88839
G1 X115.597 Y70.179 E31.99191
G1 X113.061 Y71.096 E32.09551
G1 X110.453 Y71.759 E32.19888
G1 X107.785 Y72.164 E32.30255
G1 X105.19 Y72.3 E32.40237
G1 X102.414 Y72.183 E32.50911
G1 X99.737 Y71.797 E32.61301
G1 X97.122 Y71.151 E32.71649
G1 X94.581 Y70.253 E32.82002
G1 X92.141 Y69.109 E32.92354
G1 X89.907 Y67.781 E33.02338
G1 X87.737 Y66.196 E33.12661
G1 X85.727 Y64.398 E33.23021
G1 X83.841 Y62.347 E33.33725
G1 X82.223 Y60.181 E33.44111
G1 X80.83 Y57.877 E33.54454
G1 X79.691 Y55.487 E33.64624
G1 X78.754 Y52.913 E33.75147
G1 X78.113 Y50.392 E33.8514
G1 X77.685 Y47.641 E33.95835
G1 X77.542 Y44.945 E34.06207
G1 X77.659 Y42.35 E34.16186
G1 X78.05 Y39.591 E34.2689
G1 X78.697 Y36.97 E34.37261
G1 X79.562 Y34.519 E34.47246
M204 S3000
M205 X10 Y10
G0 F1800 X80.089 Y34.707
M204 S1800
M205 X8 Y8
G1 F2400 X81.222 Y32.276 E34.57549
G1 X82.546 Y30.045 E34.67515
G1 X84.159 Y27.841 E34.78007
G1 X85.931 Y25.877 E34.88169
G1 X87.811 Y24.164 E34.9794
G1 X89.996 Y22.523 E35.08437
G1 X92.259 Y21.158 E35.18589
G1 X94.598 Y20.046 E35.28539
G1 X97.036 Y19.162 E35.38501
G1 X99.586 Y18.505 E35.48617
G1 X102.198 Y18.102 E35.5877
G1 X104.831 Y17.956 E35.689
G1 X107.465 Y18.066 E35.79027
G1 X110.177 Y18.452 E35.89551
G1 X112.741 Y19.088 E35.99699
G1 X115.23 Y19.971 E36.09844
G1 X117.578 Y21.073 E36.19808
G1 X119.884 Y22.443 E36.30112
G1 X121.934 Y23.953 E36.39893
G1 X123.967 Y25.776 E36.50383
G1 X125.748 Y27.73 E36.6054
G1 X127.326 Y29.846 E36.7068
G1 X128.641 Y32.026 E36.8046
G1 X129.822 Y34.486 E36.90943
G1 X130.72 Y36.975 E37.01108
G1 X131.368 Y39.532 E37.11241
G1 X131.762 Y42.143 E37.21385
G1 X131.898 Y44.778 E37.31521
G1 X131.781 Y47.319 E37.41293
G1 X131.411 Y49.93 E37.51423
G1 X130.785 Y52.492 E37.61555
G1 X129.88 Y55.072 E37.72058
G1 X128.755 Y57.468 E37.82226
G1 X127.404 Y59.734 E37.92361
G1 X125.837 Y61.859 E38.02504
G1 X124.069 Y63.818 E38.12641
G1 X122.118 Y65.596 E38.22781
G1 X120 Y67.176 E38.32932
G1 X117.741 Y68.538 E38.43066
G1 X115.358 Y69.673 E38.53205
G1 X112.872 Y70.568 E38.63356
G1 X110.316 Y71.216 E38.73485
G1 X107.703 Y71.61 E38.83637
G1 X105.163 Y71.74 E38.93407
G1 X102.439 Y71.624 E39.03881
G1 X99.819 Y71.243 E39.14052
G1 X97.259 Y70.608 E39.24184
G1 X94.77 Y69.725 E39.34329
G1 X92.38 Y68.603 E39.44472
G1 X90.195 Y67.301 E39.54243
G1 X88.069 Y65.745 E39.64364
G1 X86.102 Y63.982 E39.74511
G1 X84.254 Y61.969 E39.85009
G1 X82.672 Y59.848 E39.95173
G1 X81.31 Y57.589 E40.05307
G1 X80.197 Y55.248 E40.15264
G1 X79.281 Y52.724 E40.25579
G1 X78.656 Y50.256 E40.3536
G1 X78.239 Y47.557 E40.45851
G1 X78.102 Y44.918 E40.56002
G1 X78.219 Y42.377 E40.65774
G1 X78.604 Y39.671 E40.76274
G1 X79.24 Y37.107 E40.86422
G1 X80.089 Y34.707 E40.96202
M204 S3000
M205 X10 Y10
G0 F1800 X80.617 Y34.896
M204 S1800
M205 X8 Y8
G1 F2400 X81.729 Y32.513 E41.06304
G1 X83.027 Y30.332 E41.16054
G1 X84.61 Y28.173 E41.26338
G1 X86.346 Y26.254 E41.36279
G1 X88.187 Y24.579 E41.4584
G1 X90.331 Y22.972 E41.56134
G1 X92.547 Y21.639 E41.66068
G1 X94.837 Y20.552 E41.75806
G1 X97.225 Y19.689 E41.8556
G1 X99.725 Y19.048 E41.95475
G1 X102.282 Y18.656 E42.05412
G1 X104.861 Y18.515 E42.15334
G1 X107.44 Y18.626 E42.25251
G1 X110.097 Y19.007 E42.35562
G1 X112.605 Y19.631 E42.45491
G1 X115.042 Y20.498 E42.55427
G1 X117.338 Y21.58 E42.65178
G1 X119.597 Y22.924 E42.75276
G1 X121.601 Y24.403 E42.84844
G1 X123.592 Y26.192 E42.95126
G1 X125.333 Y28.106 E43.05066
G1 X126.877 Y30.18 E43.14998
G1 X128.161 Y32.314 E43.24566
G1 X129.316 Y34.727 E43.34843
G1 X130.193 Y37.164 E43.44792
G1 X130.825 Y39.668 E43.54713
G1 X131.208 Y42.225 E43.64646
G1 X131.339 Y44.806 E43.74573
G1 X131.222 Y47.292 E43.84134
G1 X130.856 Y49.85 E43.94061
G1 X130.242 Y52.358 E44.0398
G1 X129.352 Y54.885 E44.14272
G1 X128.248 Y57.228 E44.24222
G1 X126.923 Y59.446 E44.34147
G1 X125.387 Y61.525 E44.44077
G1 X123.654 Y63.442 E44.54004
G1 X121.742 Y65.181 E44.63933
G1 X119.666 Y66.726 E44.73874
G1 X117.453 Y68.057 E44.83795
G1 X115.118 Y69.166 E44.93725
G1 X112.684 Y70.041 E45.03661
G1 X110.18 Y70.673 E45.13582
G1 X107.621 Y71.056 E45.23522
G1 X105.136 Y71.181 E45.3308
G1 X102.464 Y71.064 E45.43355
G1 X99.901 Y70.689 E45.53305
G1 X97.395 Y70.065 E45.63226
G1 X94.958 Y69.198 E45.73163
G1 X92.62 Y68.096 E45.83092
G1 X90.483 Y66.821 E45.92652
G1 X88.4 Y65.294 E46.02573
G1 X86.477 Y63.566 E46.12505
G1 X84.668 Y61.592 E46.22791
G1 X83.122 Y59.514 E46.32741
G1 X81.791 Y57.301 E46.42661
G1 X80.703 Y55.009 E46.52408
G1 X79.808 Y52.534 E46.62518
G1 X79.199 Y50.12 E46.72082
G1 X78.793 Y47.472 E46.82373
G1 X78.661 Y44.89 E46.92305
G1 X78.778 Y42.404 E47.01866
G1 X79.159 Y39.751 E47.12162
G1 X79.783 Y37.243 E47.2209
G1 X80.617 Y34.896 E47.31659
M204 S3000
M205 X10 Y10
G0 F1800 X81.144 Y35.084
M204 S1800
M205 X8 Y8
G1 F2400 X82.236 Y32.751 E47.41554
G1 X83.508 Y30.619 E47.51091
G1 X85.061 Y28.505 E47.61168
G1 X86.761 Y26.63 E47.70891
G1 X88.563 Y24.994 E47.80241
G1 X90.666 Y23.421 E47.90329
G1 X92.835 Y22.119 E48.00048
G1 X95.076 Y21.059 E48.09571
G1 X97.415 Y20.216 E48.19122
G1 X99.863 Y19.591 E48.28828
G1 X102.366 Y19.209 E48.38555
G1 X104.89 Y19.074 E48.48265
G1 X107.415 Y19.185 E48.57974
G1 X110.016 Y19.561 E48.6807
G1 X112.469 Y20.174 E48.77783
G1 X114.853 Y21.025 E48.87507
G1 X117.099 Y22.086 E48.97049
G1 X119.31 Y23.405 E49.06939
G1 X121.268 Y24.853 E49.16295
G1 X123.217 Y26.608 E49.2637
G1 X124.918 Y28.482 E49.36092
G1 X126.427 Y30.513 E49.45812
G1 X127.68 Y32.602 E49.5517
G1 X128.811 Y34.968 E49.65244
G1 X129.666 Y37.353 E49.74977
G1 X130.282 Y39.804 E49.84686
G1 X130.654 Y42.307 E49.94407
G1 X130.78 Y44.833 E50.04123
G1 X130.663 Y47.265 E50.13476
G1 X130.302 Y49.77 E50.23199
G1 X129.698 Y52.224 E50.32907
G1 X128.824 Y54.698 E50.42987
G1 X127.742 Y56.989 E50.5272
G1 X126.443 Y59.158 E50.62432
G1 X124.937 Y61.192 E50.72155
G1 X123.239 Y63.066 E50.81869
G1 X121.366 Y64.766 E50.91586
G1 X119.333 Y66.276 E51.01315
G1 X117.165 Y67.577 E51.11028
G1 X114.879 Y68.66 E51.20745
G1 X112.495 Y69.514 E51.30473
G1 X110.044 Y70.13 E51.40182
G1 X107.539 Y70.502 E51.4991
G1 X105.109 Y70.622 E51.59257
G1 X102.489 Y70.505 E51.69331
G1 X99.983 Y70.135 E51.79063
G1 X97.531 Y69.522 E51.88772
G1 X95.147 Y68.671 E51.98496
G1 X92.859 Y67.59 E52.08217
G1 X90.771 Y66.34 E52.17566
G1 X88.732 Y64.843 E52.27283
G1 X86.852 Y63.15 E52.37002
