;FLAVOR:Marlin
;TIME:7536
;Filament used: 4.77533m
;Layer height: 0.14
;MINX:34.805
;MINY:13.29
;MINZ:0.15
;MAXX:175.195
;MAXY:153.67
;MAXZ:5.89
;Generated with Cura_SteamEngine 4.5.0
M140 S60
M105
M190 S60
M104 S200
M105
M109 S200
M82 ;absolute extrusion mode
G21 ;metric values
G90 ;absolute positioning
M82 ;set extruder to absolute mode
M107 ;start with the fan off
G28 X0 Y0 ;move X/Y to min endstops
G28 Z0 ;move Z to min endstops
G1 Z15.0 F100 ;move the platform down 15mm
G92 E0 ;zero the extruded length
G1 F200 E3 ;extrude 3mm of feed stock
G92 E0 ;zero the extruded length again
G1 F100
G0 Y20 F100
M117 Printing...
G5
G92 E0
G92 E0
G1 F2400 E-6
;LAYER_COUNT:42
;LAYER:0
M106 S255
M204 S3000
M205 X10 Y10
G1 F600 Z0.225
G0 F1800 X84.233 Y66.7 Z0.225
M204 S1800
M205 X8 Y8
;TYPE:SKIRT
G1 F600 Z0.15
G1 F2400 E0
G1 X85.977 Y64.745 E0.10064
G1 X87.843 Y63.027 E0.19808
G1 X89.986 Y61.402 E0.3014
G1 X92.165 Y60.072 E0.39946
G1 X94.503 Y58.935 E0.49934
G1 X97.04 Y57.995 E0.60327
G1 X99.507 Y57.354 E0.70119
G1 X102.164 Y56.931 E0.80455
G1 X104.794 Y56.78 E0.90574
G1 X105.204 Y56.78 E0.92149
G1 X107.324 Y56.883 E1.00303
G1 X109.993 Y57.25 E1.10653
G1 X112.553 Y57.87 E1.20771
G1 X115.027 Y58.735 E1.3084
G1 X117.325 Y59.799 E1.40568
G1 X119.571 Y61.11 E1.50558
G1 X121.763 Y62.698 E1.60956
G1 X123.731 Y64.453 E1.71086
G1 X125.504 Y66.379 E1.81142
G1 X127.081 Y68.472 E1.9121
G1 X128.446 Y70.711 E2.01283
G1 X129.547 Y72.993 E2.11017
G1 X130.48 Y75.515 E2.21347
G1 X131.142 Y78.061 E2.31453
G1 X131.547 Y80.653 E2.41531
G1 X131.695 Y83.269 E2.51596
G1 X131.592 Y85.799 E2.61323
G1 X131.238 Y88.383 E2.71343
G1 X130.608 Y91.014 E2.81735
G1 X129.741 Y93.499 E2.91846
G1 X128.64 Y95.876 E3.01909
G1 X127.312 Y98.132 E3.11966
G1 X125.767 Y100.25 E3.22037
G1 X124.023 Y102.205 E3.32101
G1 X122.157 Y103.923 E3.41845
G1 X120.083 Y105.497 E3.51847
G1 X117.85 Y106.869 E3.61915
G1 X115.496 Y108.015 E3.71973
G1 X113.038 Y108.926 E3.82043
G1 X110.429 Y109.613 E3.92407
G1 X107.82 Y110.022 E4.02552
G1 X105.206 Y110.17 E4.1261
G1 X102.59 Y110.062 E4.22668
G1 X100.078 Y109.711 E4.32412
G1 X97.461 Y109.083 E4.42751
G1 X95.055 Y108.246 E4.52537
G1 X92.61 Y107.121 E4.62876
G1 X90.342 Y105.786 E4.72986
G1 X88.292 Y104.292 E4.8273
G1 X86.342 Y102.564 E4.92739
G1 X84.561 Y100.642 E5.02805
G1 X82.927 Y98.488 E5.13192
G1 X81.597 Y96.31 E5.22995
G1 X80.423 Y93.894 E5.33314
G1 X79.515 Y91.42 E5.43438
G1 X78.858 Y88.889 E5.53483
G1 X78.453 Y86.295 E5.63569
G1 X78.305 Y83.682 E5.73623
G1 X78.408 Y81.151 E5.83354
G1 X78.775 Y78.482 E5.93703
G1 X79.395 Y75.922 E6.03822
G1 X80.259 Y73.451 E6.13878
G1 X81.36 Y71.074 E6.23941
G1 X82.688 Y68.818 E6.33998
G1 X84.233 Y66.7 E6.44069
M204 S3000
M205 X10 Y10
G0 F1800 X84.683 Y67.033
M204 S1800
M205 X8 Y8
G1 F2400 X86.392 Y65.121 E6.53921
G1 X88.219 Y63.442 E6.63453
G1 X90.322 Y61.851 E6.73583
G1 X92.453 Y60.553 E6.83168
G1 X94.744 Y59.44 E6.92953
G1 X97.231 Y58.521 E7.03138
G1 X99.643 Y57.897 E7.12709
G1 X102.249 Y57.484 E7.22845
G1 X104.822 Y57.339 E7.32745
G1 X105.177 Y57.339 E7.34109
G1 X107.297 Y57.442 E7.42263
G1 X109.913 Y57.805 E7.52408
G1 X112.416 Y58.414 E7.62304
G1 X114.838 Y59.262 E7.72162
G1 X117.085 Y60.305 E7.81679
G1 X119.285 Y61.592 E7.9147
G1 X121.431 Y63.149 E8.01655
G1 X123.354 Y64.868 E8.11564
G1 X125.089 Y66.755 E8.21411
G1 X126.631 Y68.805 E8.31266
G1 X127.966 Y70.999 E8.41132
G1 X129.041 Y73.233 E8.50656
G1 X129.954 Y75.706 E8.60782
G1 X130.598 Y78.198 E8.7067
G1 X130.993 Y80.735 E8.80533
G1 X131.136 Y83.296 E8.90387
G1 X131.033 Y85.772 E8.99907
G1 X130.684 Y88.303 E9.09722
G1 X130.064 Y90.88 E9.19904
G1 X129.214 Y93.31 E9.29794
G1 X128.134 Y95.637 E9.39649
G1 X126.832 Y97.845 E9.49496
G1 X125.317 Y99.917 E9.59356
G1 X123.608 Y101.829 E9.69208
G1 X121.781 Y103.508 E9.7874
G1 X119.747 Y105.049 E9.88543
G1 X117.56 Y106.39 E9.98398
G1 X115.255 Y107.51 E10.08243
G1 X112.848 Y108.4 E10.18101
G1 X110.291 Y109.07 E10.28255
G1 X107.737 Y109.468 E10.38185
G1 X105.178 Y109.611 E10.48031
G1 X102.618 Y109.503 E10.57874
G1 X100.16 Y109.157 E10.6741
G1 X97.595 Y108.539 E10.77545
G1 X95.244 Y107.719 E10.8711
G1 X92.848 Y106.614 E10.97246
G1 X90.63 Y105.306 E11.07138
G1 X88.625 Y103.842 E11.16675
G1 X86.717 Y102.147 E11.26479
G1 X84.975 Y100.264 E11.36334
G1 X83.375 Y98.153 E11.46509
G1 X82.078 Y96.022 E11.56093
G1 X80.928 Y93.653 E11.66209
G1 X80.042 Y91.231 E11.76116
G1 X79.402 Y88.752 E11.85952
G1 X79.007 Y86.212 E11.95826
G1 X78.864 Y83.654 E12.05668
G1 X78.967 Y81.178 E12.15188
G1 X79.33 Y78.562 E12.25334
G1 X79.939 Y76.059 E12.3523
G1 X80.786 Y73.64 E12.45076
G1 X81.866 Y71.313 E12.54931
G1 X83.168 Y69.105 E12.64778
G1 X84.683 Y67.033 E12.74638
M204 S3000
M205 X10 Y10
G0 F1800 X85.133 Y67.367
M204 S1800
M205 X8 Y8
G1 F2400 X86.807 Y65.498 E12.84277
G1 X88.595 Y63.857 E12.936
G1 X90.657 Y62.299 E13.03528
G1 X92.74 Y61.033 E13.12892
G1 X94.986 Y59.946 E13.22478
G1 X97.421 Y59.048 E13.32448
G1 X99.779 Y58.44 E13.41802
G1 X102.333 Y58.038 E13.51735
G1 X104.849 Y57.899 E13.61415
G1 X105.149 Y57.899 E13.62567
G1 X107.269 Y58.002 E13.70721
G1 X109.833 Y58.359 E13.80665
G1 X112.28 Y58.957 E13.90342
G1 X114.649 Y59.789 E13.99988
G1 X116.846 Y60.811 E14.09296
G1 X118.999 Y62.073 E14.18883
G1 X121.099 Y63.6 E14.28858
G1 X122.978 Y65.283 E14.38548
G1 X124.674 Y67.131 E14.48184
G1 X126.182 Y69.139 E14.57831
G1 X127.485 Y71.286 E14.67479
G1 X128.535 Y73.472 E14.76795
G1 X129.427 Y75.896 E14.86717
G1 X130.055 Y78.334 E14.96389
G1 X130.439 Y80.817 E15.06041
G1 X130.576 Y83.323 E15.15682
G1 X130.473 Y85.744 E15.24991
G1 X130.129 Y88.223 E15.34605
G1 X129.521 Y90.745 E15.44571
G1 X128.687 Y93.122 E15.54248
G1 X127.628 Y95.397 E15.63888
G1 X126.351 Y97.557 E15.73527
G1 X124.867 Y99.583 E15.83175
G1 X123.193 Y101.452 E15.92814
G1 X121.405 Y103.093 E16.02137
G1 X119.412 Y104.6 E16.11735
G1 X117.271 Y105.911 E16.21379
G1 X115.014 Y107.004 E16.31013
G1 X112.657 Y107.873 E16.40663
G1 X110.153 Y108.527 E16.50605
G1 X107.655 Y108.914 E16.60316
G1 X105.151 Y109.051 E16.6995
G1 X102.645 Y108.943 E16.79585
G1 X100.242 Y108.603 E16.88909
G1 X97.73 Y107.996 E16.98836
G1 X95.432 Y107.192 E17.08189
G1 X93.085 Y106.107 E17.18122
G1 X90.918 Y104.826 E17.27792
G1 X88.959 Y103.392 E17.37118
G1 X87.091 Y101.731 E17.46721
G1 X85.389 Y99.887 E17.56361
G1 X83.824 Y97.818 E17.66327
G1 X82.558 Y95.735 E17.75691
G1 X81.434 Y93.411 E17.85608
G1 X80.569 Y91.043 E17.95293
G1 X79.945 Y88.616 E18.04919
G1 X79.561 Y86.13 E18.14583
G1 X79.424 Y83.627 E18.24212
G1 X79.527 Y81.206 E18.33521
G1 X79.884 Y78.642 E18.43466
G1 X80.482 Y76.195 E18.53143
G1 X81.313 Y73.828 E18.6278
G1 X82.372 Y71.553 E18.7242
G1 X83.649 Y69.393 E18.82059
G1 X85.133 Y67.367 E18.91707
M204 S3000
M205 X10 Y10
G0 F1800 X85.583 Y67.7
M204 S1800
M205 X8 Y8
G1 F2400 X87.222 Y65.874 E19.01133
G1 X88.971 Y64.272 E19.10244
G1 X90.992 Y62.748 E19.19968
G1 X93.028 Y61.514 E19.29114
G1 X95.227 Y60.451 E19.38497
G1 X97.612 Y59.575 E19.48257
G1 X99.915 Y58.984 E19.57391
G1 X102.417 Y58.592 E19.6712
G1 X104.877 Y58.458 E19.76584
G1 X107.242 Y58.561 E19.85678
G1 X109.752 Y58.913 E19.95414
G1 X112.144 Y59.5 E20.04876
G1 X114.46 Y60.316 E20.14309
G1 X116.607 Y61.318 E20.23411
G1 X118.713 Y62.555 E20.32793
G1 X120.767 Y64.051 E20.42555
G1 X122.602 Y65.697 E20.52025
G1 X124.259 Y67.508 E20.61454
G1 X125.732 Y69.473 E20.70888
G1 X127.005 Y71.574 E20.80325
G1 X128.028 Y73.711 E20.89427
G1 X128.9 Y76.087 E20.9915
G1 X129.512 Y78.47 E21.08601
G1 X129.885 Y80.899 E21.18042
G1 X130.017 Y83.351 E21.27475
G1 X129.914 Y85.717 E21.36573
G1 X129.575 Y88.143 E21.45983
G1 X128.977 Y90.61 E21.55734
G1 X128.16 Y92.933 E21.65194
G1 X127.121 Y95.158 E21.74627
G1 X125.871 Y97.269 E21.84052
G1 X124.417 Y99.25 E21.93492
G1 X122.778 Y101.076 E22.02918
G1 X121.029 Y102.678 E22.12029
G1 X119.076 Y104.152 E22.21429
G1 X116.982 Y105.431 E22.30855
G1 X114.773 Y106.499 E22.40281
G1 X112.467 Y107.347 E22.49719
G1 X110.014 Y107.985 E22.59456
G1 X107.573 Y108.36 E22.68943
G1 X105.123 Y108.492 E22.78369
G1 X102.673 Y108.384 E22.8779
G1 X100.324 Y108.049 E22.96905
G1 X97.865 Y107.452 E23.06625
G1 X95.62 Y106.664 E23.15766
G1 X93.323 Y105.6 E23.2549
G1 X91.205 Y104.345 E23.34948
G1 X89.292 Y102.943 E23.44059
G1 X87.466 Y101.315 E23.53457
G1 X85.802 Y99.509 E23.62891
G1 X84.272 Y97.483 E23.72643
G1 X83.039 Y95.447 E23.81787
G1 X81.939 Y93.17 E23.91502
G1 X81.096 Y90.854 E24.0097
G1 X80.488 Y88.48 E24.10384
G1 X80.115 Y86.048 E24.19836
G1 X79.983 Y83.599 E24.29257
G1 X80.086 Y81.233 E24.38355
G1 X80.438 Y78.723 E24.48092
G1 X81.025 Y76.331 E24.57553
G1 X81.84 Y74.017 E24.66978
G1 X82.879 Y71.792 E24.76411
G1 X84.129 Y69.681 E24.85836
G1 X85.583 Y67.7 E24.95276
M204 S3000
M205 X10 Y10
G0 F1800 X86.033 Y68.034
M204 S1800
M205 X8 Y8
G1 F2400 X87.637 Y66.25 E25.04492
G1 X89.347 Y64.687 E25.13392
G1 X91.327 Y63.196 E25.22913
G1 X93.315 Y61.994 E25.31838
G1 X95.468 Y60.956 E25.4102
G1 X97.803 Y60.101 E25.50572
G1 X100.051 Y59.527 E25.59485
G1 X102.501 Y59.145 E25.69011
G1 X104.904 Y59.017 E25.78255
G1 X107.215 Y59.12 E25.87141
G1 X109.672 Y59.467 E25.96674
G1 X112.007 Y60.043 E26.05913
G1 X114.272 Y60.844 E26.15142
G1 X116.368 Y61.824 E26.2403
G1 X118.427 Y63.037 E26.33211
G1 X120.436 Y64.502 E26.42762
G1 X122.226 Y66.112 E26.52011
G1 X123.844 Y67.884 E26.61229
G1 X125.282 Y69.806 E26.7045
G1 X126.524 Y71.862 E26.79678
G1 X127.522 Y73.95 E26.88568
G1 X128.374 Y76.278 E26.98091
G1 X128.969 Y78.607 E27.07326
G1 X129.331 Y80.982 E27.16555
G1 X129.458 Y83.378 E27.25772
G1 X129.355 Y85.69 E27.34662
G1 X129.021 Y88.063 E27.43868
G1 X128.434 Y90.476 E27.53408
G1 X127.632 Y92.744 E27.6265
G1 X126.615 Y94.919 E27.71873
G1 X125.39 Y96.981 E27.81087
G1 X123.967 Y98.916 E27.90314
G1 X122.363 Y100.7 E27.9953
G1 X120.653 Y102.263 E28.0843
G1 X118.741 Y103.703 E28.17625
G1 X116.692 Y104.952 E28.26843
G1 X114.531 Y105.994 E28.3606
G1 X112.276 Y106.82 E28.45285
G1 X109.876 Y107.442 E28.54809
G1 X107.491 Y107.806 E28.64078
G1 X105.096 Y107.933 E28.73291
G1 X102.7 Y107.825 E28.82505
G1 X100.405 Y107.495 E28.91412
G1 X97.999 Y106.909 E29.00925
G1 X95.809 Y106.137 E29.09845
G1 X93.561 Y105.093 E29.19367
G1 X91.493 Y103.865 E29.28606
G1 X89.626 Y102.493 E29.37507
G1 X87.84 Y100.898 E29.46705
G1 X86.216 Y99.132 E29.55922
G1 X84.721 Y97.147 E29.65468
G1 X83.519 Y95.16 E29.74389
G1 X82.444 Y92.929 E29.83903
G1 X81.624 Y90.665 E29.93153
G1 X81.031 Y88.343 E30.02359
G1 X80.669 Y85.966 E30.11596
G1 X80.542 Y83.572 E30.20806
G1 X80.645 Y81.26 E30.29696
G1 X80.992 Y78.803 E30.39228
G1 X81.568 Y76.468 E30.48467
G1 X82.368 Y74.206 E30.57684
G1 X83.385 Y72.031 E30.66908
G1 X84.61 Y69.969 E30.76122
G1 X86.033 Y68.034 E30.85349
M204 S3000
M205 X10 Y10
G0 F1800 X86.482 Y68.367
M204 S1800
M205 X8 Y8
G1 F2400 X88.052 Y66.626 E30.94355
G1 X89.723 Y65.102 E31.03043
G1 X91.663 Y63.645 E31.12363
G1 X93.603 Y62.475 E31.21066
G1 X95.71 Y61.462 E31.30047
G1 X97.993 Y60.628 E31.39384
G1 X100.188 Y60.07 E31.48085
G1 X102.585 Y59.699 E31.57402
G1 X104.931 Y59.577 E31.66427
G1 X107.188 Y59.68 E31.75106
G1 X109.592 Y60.021 E31.84434
G1 X111.871 Y60.586 E31.93454
G1 X114.083 Y61.371 E32.0247
G1 X116.128 Y62.33 E32.11147
G1 X118.142 Y63.518 E32.2013
G1 X120.104 Y64.953 E32.29468
G1 X121.85 Y66.527 E32.38498
G1 X123.429 Y68.26 E32.47505
G1 X124.832 Y70.14 E32.56516
G1 X126.044 Y72.15 E32.65533
G1 X127.016 Y74.19 E32.74214
G1 X127.847 Y76.468 E32.83529
G1 X128.426 Y78.743 E32.92547
G1 X128.777 Y81.064 E33.01565
G1 X128.898 Y83.406 E33.10573
G1 X128.795 Y85.663 E33.19253
G1 X128.467 Y87.983 E33.28254
G1 X127.89 Y90.341 E33.37579
G1 X127.105 Y92.556 E33.46607
G1 X126.109 Y94.679 E33.55616
G1 X124.91 Y96.693 E33.6462
G1 X123.518 Y98.583 E33.73637
G1 X121.948 Y100.324 E33.82643
G1 X120.277 Y101.848 E33.91331
G1 X118.406 Y103.255 E34.00324
G1 X116.403 Y104.472 E34.09328
G1 X114.29 Y105.488 E34.18334
G1 X112.085 Y106.293 E34.27352
G1 X109.737 Y106.9 E34.36668
G1 X107.409 Y107.252 E34.45713
G1 X105.069 Y107.373 E34.54714
G1 X102.727 Y107.265 E34.63721
G1 X100.487 Y106.941 E34.72415
G1 X98.134 Y106.365 E34.81721
G1 X95.997 Y105.609 E34.90429
G1 X93.799 Y104.586 E34.99743
G1 X91.781 Y103.385 E35.08764
G1 X89.959 Y102.043 E35.17457
G1 X88.215 Y100.482 E35.26448
G1 X86.63 Y98.755 E35.35453
G1 X85.17 Y96.812 E35.4479
G1 X84 Y94.872 E35.53493
G1 X82.95 Y92.687 E35.62806
G1 X82.151 Y90.477 E35.71833
G1 X81.574 Y88.207 E35.80831
G1 X81.223 Y85.884 E35.89856
G1 X81.102 Y83.545 E35.98853
G1 X81.205 Y81.287 E36.07537
G1 X81.546 Y78.883 E36.16864
G1 X82.111 Y76.604 E36.25884
G1 X82.895 Y74.394 E36.34892
G1 X83.891 Y72.271 E36.43901
G1 X85.09 Y70.257 E36.52905
G1 X86.482 Y68.367 E36.61922
M204 S3000
M205 X10 Y10
G0 F1800 X86.932 Y68.701
M204 S1800
M205 X8 Y8
G1 F2400 X88.467 Y67.002 E36.70718
G1 X90.099 Y65.517 E36.79195
G1 X91.998 Y64.093 E36.88313
G1 X93.891 Y62.955 E36.96798
G1 X95.951 Y61.967 E37.05574
G1 X98.184 Y61.154 E37.14704
G1 X100.324 Y60.613 E37.23183
G1 X102.67 Y60.253 E37.32301
G1 X104.959 Y60.136 E37.41106
G1 X107.161 Y60.239 E37.49574
G1 X109.511 Y60.576 E37.58694
G1 X111.735 Y61.129 E37.67498
G1 X113.894 Y61.898 E37.76302
G1 X115.889 Y62.837 E37.84772
G1 X117.856 Y64 E37.93551
G1 X119.772 Y65.404 E38.02676
G1 X121.473 Y66.942 E38.11485
G1 X123.014 Y68.636 E38.20282
G1 X124.383 Y70.474 E38.29087
G1 X125.564 Y72.437 E38.37887
G1 X126.509 Y74.429 E38.46357
G1 X127.321 Y76.659 E38.55474
G1 X127.883 Y78.879 E38.64271
G1 X128.223 Y81.146 E38.73077
G1 X128.339 Y83.433 E38.81874
G1 X128.236 Y85.636 E38.90346
G1 X127.912 Y87.903 E38.99144
G1 X127.346 Y90.207 E39.08258
G1 X126.578 Y92.367 E39.17064
G1 X125.602 Y94.44 E39.25866
G1 X124.43 Y96.406 E39.34659
G1 X123.068 Y98.249 E39.43462
G1 X121.533 Y99.948 E39.52258
G1 X119.901 Y101.433 E39.60735
G1 X118.07 Y102.807 E39.69529
G1 X116.113 Y103.993 E39.7832
G1 X114.049 Y104.983 E39.87114
G1 X111.895 Y105.767 E39.95919
G1 X109.599 Y106.357 E40.05026
G1 X107.327 Y106.698 E40.13852
G1 X105.041 Y106.814 E40.22645
G1 X102.755 Y106.706 E40.31436
G1 X100.569 Y106.387 E40.39923
G1 X98.268 Y105.821 E40.49026
G1 X96.185 Y105.082 E40.57516
G1 X94.036 Y104.079 E40.66627
G1 X92.069 Y102.904 E40.75429
G1 X90.293 Y101.593 E40.83909
G1 X88.589 Y100.066 E40.92699
G1 X87.043 Y98.377 E41.01495
G1 X85.618 Y96.477 E41.10618
G1 X84.48 Y94.584 E41.19103
G1 X83.455 Y92.446 E41.28212
G1 X82.678 Y90.288 E41.37023
G1 X82.117 Y88.071 E41.45808
G1 X81.777 Y85.802 E41.54622
G1 X81.661 Y83.517 E41.63411
G1 X81.764 Y81.314 E41.71883
G1 X82.101 Y78.964 E41.81003
G1 X82.654 Y76.74 E41.89807
G1 X83.422 Y74.583 E41.98602
G1 X84.398 Y72.51 E42.07404
G1 X85.57 Y70.544 E42.16197
G1 X86.932 Y68.701 E42.25001
M204 S3000
M205 X10 Y10
G0 F1800 X87.382 Y69.034
M204 S1800
M205 X8 Y8
G1 F2400 X88.882 Y67.378 E42.33584
G1 X90.475 Y65.932 E42.41849
G1 X92.333 Y64.542 E42.50763
G1 X94.178 Y63.436 E42.59026
G1 X96.192 Y62.472 E42.67604
G1 X98.375 Y61.681 E42.76523
G1 X100.46 Y61.156 E42.84783
G1 X102.754 Y60.806 E42.93697
G1 X104.986 Y60.695 E43.02282
G1 X107.134 Y60.798 E43.10544
G1 X109.431 Y61.13 E43.19459
G1 X111.598 Y61.672 E43.2804
G1 X113.705 Y62.425 E43.36636
G1 X115.65 Y63.343 E43.44898
G1 X117.57 Y64.481 E43.53472
G1 X119.44 Y65.855 E43.62386
G1 X121.097 Y67.357 E43.70978
G1 X122.599 Y69.012 E43.79563
G1 X123.933 Y70.807 E43.88155
G1 X125.083 Y72.725 E43.96746
G1 X126.003 Y74.668 E44.05004
G1 X126.794 Y76.85 E44.1392
G1 X127.34 Y79.016 E44.22501
G1 X127.669 Y81.228 E44.31092
G1 X127.78 Y83.46 E44.39677
G1 X127.677 Y85.609 E44.47942
G1 X127.358 Y87.823 E44.56535
G1 X126.803 Y90.072 E44.65434
G1 X126.051 Y92.178 E44.74025
G1 X125.096 Y94.201 E44.82619
G1 X123.949 Y96.118 E44.912
G1 X122.618 Y97.916 E44.99794
G1 X121.118 Y99.572 E45.08377
G1 X119.525 Y101.018 E45.16642
G1 X117.735 Y102.358 E45.25232
G1 X115.824 Y103.514 E45.33812
G1 X113.808 Y104.478 E45.42396
G1 X111.704 Y105.24 E45.50993
G1 X109.46 Y105.814 E45.59891
G1 X107.245 Y106.144 E45.68493
G1 X105.014 Y106.255 E45.77075
G1 X102.782 Y106.147 E45.85659
G1 X100.651 Y105.833 E45.93934
G1 X98.403 Y105.278 E46.02829
G1 X96.374 Y104.555 E46.11103
G1 X94.274 Y103.572 E46.20011
G1 X92.357 Y102.424 E46.28594
