;FLAVOR:Marlin
;TIME:6858
;Filament used: 3.0469m
;Layer height: 0.1
;MINX:33.501
;MINY:14.325
;MINZ:0.1
;MAXX:176.499
;MAXY:157.316
;MAXZ:6
;Generated with Cura_SteamEngine 4.5.0
M140 S60
M105
M190 S60
M104 S200
M105
M109 S200
M82 ;absolute extrusion mode
G21 ;metric values
G90 ;absolute positioning
M82 ;set extruder to absolute mode
M107 ;start with the fan off
G28 X0 Y0 ;move X/Y to min endstops
G28 Z0 ;move Z to min endstops
G1 Z15.0 F50 ;move the platform down 15mm
G92 E0 ;zero the extruded length
G1 F200 E3 ;extrude 3mm of feed stock
G92 E0 ;zero the extruded length again
G1 F50
G0 Y20 F50
M117 Printing...
G5
G92 E0
G92 E0
G1 F2400 E-6
;LAYER_COUNT:60
;LAYER:0
M106 S255
M204 S3000
M205 X10 Y10
G1 F600 Z0.175
G0 F1500 X49.438 Y40.814 Z0.175
M204 S1800
M205 X8 Y8
;TYPE:SKIRT
G1 F600 Z0.1
G1 F2400 E0
G1 X50.568 Y39.491 E0.04051
G1 X53.691 Y36.043 E0.14882
G1 X54.141 Y35.56 E0.16419
G1 X55.333 Y34.413 E0.2027
G1 X58.839 Y31.232 E0.31292
G1 X59.306 Y30.822 E0.32739
G1 X60.635 Y29.774 E0.36679
G1 X64.304 Y27.051 E0.47317
G1 X64.841 Y26.665 E0.48857
G1 X66.192 Y25.798 E0.52594
G1 X70.194 Y23.388 E0.63471
G1 X70.795 Y23.037 E0.65091
G1 X72.27 Y22.28 E0.68951
G1 X76.495 Y20.269 E0.79845
G1 X77.111 Y19.987 E0.81422
G1 X78.667 Y19.374 E0.85316
G1 X83.175 Y17.749 E0.96473
G1 X83.988 Y17.468 E0.98476
G1 X84.678 Y17.261 E1.00153
G1 X89.977 Y15.929 E1.12874
G1 X90.604 Y15.779 E1.14375
G1 X92.299 Y15.477 E1.18383
G1 X96.805 Y14.807 E1.28989
G1 X97.455 Y14.72 E1.30516
G1 X99.052 Y14.592 E1.34246
G1 X103.797 Y14.348 E1.45308
G1 X104.412 Y14.325 E1.46741
G1 X106.134 Y14.356 E1.50751
G1 X110.767 Y14.571 E1.61549
G1 X111.399 Y14.608 E1.63023
G1 X113.148 Y14.812 E1.67123
G1 X117.842 Y15.497 E1.78167
G1 X118.688 Y15.633 E1.80162
G1 X119.444 Y15.788 E1.81959
G1 X124.64 Y17.085 E1.94427
G1 X125.226 Y17.24 E1.95839
G1 X126.761 Y17.736 E1.99594
G1 X131.202 Y19.314 E2.10567
G1 X131.818 Y19.541 E2.12096
G1 X133.369 Y20.216 E2.16034
G1 X137.589 Y22.2 E2.26891
G1 X138.18 Y22.488 E2.28421
G1 X139.688 Y23.328 E2.3244
G1 X143.777 Y25.767 E2.43525
G1 X144.493 Y26.206 E2.4548
G1 X145.132 Y26.637 E2.47275
G1 X149.511 Y29.88 E2.59962
G1 X150.002 Y30.254 E2.61399
G1 X151.325 Y31.384 E2.65449
G1 X154.773 Y34.507 E2.76281
G1 X155.256 Y34.957 E2.77817
G1 X156.403 Y36.149 E2.81669
G1 X159.584 Y39.655 E2.92691
G1 X159.994 Y40.122 E2.94137
G1 X161.042 Y41.451 E2.98078
G1 X163.765 Y45.12 E3.08716
G1 X164.154 Y45.663 E3.10271
G1 X165.005 Y46.987 E3.13935
G1 X167.514 Y51.15 E3.25252
G1 X167.932 Y51.867 E3.27184
G1 X168.283 Y52.531 E3.28933
G1 X170.564 Y57.343 E3.41331
G1 X170.85 Y57.971 E3.42938
G1 X171.422 Y59.425 E3.46575
G1 X173.068 Y63.992 E3.57878
G1 X173.34 Y64.778 E3.59814
G1 X173.56 Y65.509 E3.61592
G1 X174.877 Y70.753 E3.7418
G1 X175.035 Y71.414 E3.75762
G1 X175.137 Y71.914 E3.7695
G1 X175.338 Y73.11 E3.79774
G1 X176.027 Y77.743 E3.90679
G1 X176.112 Y78.37 E3.92152
G1 X176.243 Y80.031 E3.96031
G1 X176.477 Y84.749 E4.07029
G1 X176.499 Y85.369 E4.08474
G1 X176.466 Y87.074 E4.12444
G1 X176.246 Y91.593 E4.22978
G1 X176.203 Y92.286 E4.24594
G1 X176.02 Y93.861 E4.28286
G1 X175.331 Y98.575 E4.39378
G1 X175.232 Y99.19 E4.40828
G1 X174.875 Y100.838 E4.44754
G1 X173.706 Y105.549 E4.56055
G1 X173.508 Y106.299 E4.57861
G1 X173.296 Y106.991 E4.59546
G1 X171.488 Y112.061 E4.72078
G1 X171.266 Y112.659 E4.73563
G1 X170.607 Y114.171 E4.77403
G1 X168.616 Y118.405 E4.88296
G1 X168.327 Y119.001 E4.89838
G1 X167.503 Y120.478 E4.93776
G1 X165.106 Y124.499 E5.04675
G1 X164.775 Y125.039 E5.06149
G1 X163.789 Y126.458 E5.10172
G1 X161.022 Y130.207 E5.21021
G1 X160.643 Y130.708 E5.22483
G1 X159.539 Y132.007 E5.26452
G1 X156.303 Y135.594 E5.377
G1 X155.763 Y136.177 E5.3955
G1 X155.234 Y136.703 E5.41287
G1 X151.162 Y140.4 E5.54092
G1 X150.703 Y140.804 E5.55516
G1 X149.367 Y141.857 E5.59476
G1 X145.586 Y144.662 E5.70437
G1 X145.079 Y145.026 E5.7189
G1 X143.688 Y145.918 E5.75737
G1 X139.713 Y148.302 E5.86529
G1 X139.19 Y148.606 E5.87937
G1 X137.753 Y149.342 E5.91696
G1 X133.397 Y151.414 E6.02927
G1 X132.612 Y151.774 E6.04937
G1 X131.935 Y152.052 E6.06641
G1 X126.797 Y153.895 E6.1935
G1 X126.162 Y154.113 E6.20913
G1 X124.574 Y154.561 E6.24754
G1 X120.022 Y155.703 E6.35681
G1 X119.397 Y155.853 E6.37177
G1 X118.902 Y155.953 E6.38353
G1 X117.706 Y156.154 E6.41177
G1 X113.073 Y156.843 E6.52082
G1 X112.44 Y156.928 E6.53569
G1 X110.786 Y157.059 E6.57432
G1 X106.067 Y157.293 E6.68432
G1 X105.437 Y157.316 E6.699
G1 X103.773 Y157.283 E6.73775
G1 X99.077 Y157.054 E6.84721
G1 X98.433 Y157.014 E6.86223
G1 X96.761 Y156.817 E6.90143
G1 X92.095 Y156.127 E7.01125
G1 X91.489 Y156.028 E7.02554
G1 X89.816 Y155.661 E7.06542
G1 X85.272 Y154.525 E7.17447
G1 X84.661 Y154.362 E7.18919
G1 X83.061 Y153.842 E7.22836
G1 X78.613 Y152.252 E7.33834
G1 X78.068 Y152.05 E7.35187
G1 X76.485 Y151.358 E7.39209
G1 X72.233 Y149.349 E7.50158
G1 X71.704 Y149.091 E7.51528
G1 X70.208 Y148.254 E7.5552
G1 X66.2 Y145.852 E7.66398
G1 X65.657 Y145.518 E7.67883
G1 X64.226 Y144.521 E7.71943
G1 X60.489 Y141.751 E7.82773
G1 X59.985 Y141.367 E7.84249
G1 X58.706 Y140.277 E7.88161
G1 X55.321 Y137.211 E7.98794
G1 X54.825 Y136.748 E8.00374
G1 X53.698 Y135.578 E8.04156
G1 X50.42 Y131.978 E8.15492
G1 X49.901 Y131.391 E8.17316
G1 X49.423 Y130.804 E8.19078
G1 X46.236 Y126.513 E8.31523
G1 X45.855 Y125.984 E8.33041
G1 X44.986 Y124.629 E8.36788
G1 X42.572 Y120.623 E8.47678
G1 X42.219 Y120.018 E8.49309
G1 X41.464 Y118.546 E8.5316
G1 X39.453 Y114.321 E8.64054
G1 X39.168 Y113.699 E8.65647
G1 X38.567 Y112.174 E8.69463
G1 X36.969 Y107.741 E8.80435
G1 X36.756 Y107.122 E8.81959
G1 X36.285 Y105.466 E8.85967
G1 X35.111 Y100.825 E8.97113
G1 X34.927 Y100.056 E8.98954
G1 X34.771 Y99.25 E9.00865
G1 X33.973 Y93.888 E9.13486
G1 X33.887 Y93.253 E9.14978
G1 X33.757 Y91.602 E9.18834
G1 X33.523 Y86.883 E9.29834
G1 X33.501 Y86.263 E9.31279
G1 X33.534 Y84.558 E9.35249
G1 X33.754 Y80.039 E9.45783
G1 X33.797 Y79.348 E9.47395
G1 X33.985 Y77.74 E9.51164
G1 X34.684 Y72.957 E9.62418
G1 X34.817 Y72.13 E9.64368
G1 X34.969 Y71.382 E9.66145
G1 X36.291 Y66.088 E9.78849
G1 X36.454 Y65.477 E9.80322
G1 X36.974 Y63.875 E9.84243
G1 X38.512 Y59.57 E9.94886
G1 X38.732 Y58.978 E9.96357
G1 X39.393 Y57.461 E10.00209
G1 X41.384 Y53.227 E10.11102
G1 X41.672 Y52.636 E10.12633
G1 X42.512 Y51.128 E10.16652
G1 X44.965 Y47.016 E10.278
G1 X45.391 Y46.322 E10.29695
G1 X45.824 Y45.679 E10.315
G1 X49.064 Y41.305 E10.44173
G1 X49.438 Y40.814 E10.4561
M204 S3000
M205 X10 Y10
G0 F1500 X49.883 Y41.154
M204 S1800
M205 X8 Y8
G1 F2400 X50.991 Y39.858 E10.4958
G1 X54.106 Y36.419 E10.60383
G1 X54.55 Y35.942 E10.619
G1 X55.718 Y34.82 E10.65671
G1 X59.216 Y31.647 E10.76667
G1 X59.675 Y31.243 E10.7809
G1 X60.978 Y30.217 E10.81952
G1 X64.638 Y27.501 E10.92563
G1 X65.167 Y27.121 E10.94079
G1 X66.491 Y26.272 E10.97741
G1 X70.483 Y23.868 E11.0859
G1 X71.077 Y23.521 E11.10192
G1 X72.521 Y22.78 E11.13971
G1 X76.736 Y20.775 E11.24838
G1 X77.344 Y20.496 E11.26395
G1 X78.868 Y19.897 E11.30208
G1 X83.365 Y18.276 E11.41337
G1 X84.17 Y17.998 E11.4332
G1 X84.831 Y17.799 E11.44927
G1 X90.114 Y16.472 E11.57609
G1 X90.733 Y16.324 E11.59091
G1 X92.392 Y16.029 E11.63014
G1 X96.887 Y15.361 E11.73594
G1 X97.529 Y15.275 E11.75102
G1 X99.091 Y15.15 E11.78751
G1 X103.826 Y14.907 E11.89789
G1 X104.432 Y14.884 E11.91201
G1 X106.119 Y14.915 E11.95129
G1 X110.741 Y15.131 E12.05902
G1 X111.366 Y15.167 E12.0736
G1 X113.078 Y15.367 E12.11373
G1 X117.76 Y16.051 E12.22389
G1 X118.599 Y16.186 E12.24368
G1 X119.324 Y16.334 E12.2609
G1 X124.504 Y17.628 E12.38521
G1 X125.082 Y17.781 E12.39913
G1 X126.584 Y18.267 E12.43589
G1 X131.014 Y19.842 E12.54535
G1 X131.623 Y20.067 E12.56047
G1 X133.141 Y20.727 E12.599
G1 X137.351 Y22.706 E12.70731
G1 X137.935 Y22.991 E12.72244
G1 X139.411 Y23.815 E12.7618
G1 X143.49 Y26.248 E12.87238
G1 X144.2 Y26.683 E12.89176
G1 X144.811 Y27.096 E12.90893
G1 X149.178 Y30.33 E13.03545
G1 X149.662 Y30.699 E13.04962
G1 X150.958 Y31.807 E13.08932
G1 X154.397 Y34.922 E13.19735
G1 X154.874 Y35.366 E13.21252
G1 X155.996 Y36.534 E13.25023
G1 X159.169 Y40.032 E13.36018
G1 X159.573 Y40.491 E13.37442
G1 X160.599 Y41.794 E13.41303
G1 X163.315 Y45.454 E13.51914
G1 X163.699 Y45.989 E13.53447
G1 X164.531 Y47.286 E13.57035
G1 X167.034 Y51.439 E13.68324
G1 X167.448 Y52.149 E13.70238
G1 X167.785 Y52.786 E13.71916
G1 X170.058 Y57.583 E13.84274
G1 X170.34 Y58.203 E13.8586
G1 X170.899 Y59.626 E13.8942
G1 X172.541 Y64.182 E14.00695
G1 X172.811 Y64.961 E14.02615
G1 X173.02 Y65.661 E14.04315
G1 X174.334 Y70.89 E14.16868
G1 X174.491 Y71.544 E14.18434
G1 X174.786 Y73.202 E14.22355
G1 X175.474 Y77.826 E14.33239
G1 X175.557 Y78.444 E14.34691
G1 X175.685 Y80.071 E14.3849
G1 X175.918 Y84.776 E14.49458
G1 X175.94 Y85.388 E14.50884
G1 X175.906 Y87.058 E14.54773
G1 X175.687 Y91.566 E14.65281
G1 X175.644 Y92.251 E14.66879
G1 X175.464 Y93.79 E14.70486
G1 X174.777 Y98.494 E14.81554
G1 X174.679 Y99.101 E14.82986
G1 X174.329 Y100.714 E14.86829
G1 X173.163 Y105.414 E14.98103
G1 X172.966 Y106.155 E14.99888
G1 X172.762 Y106.821 E15.0151
G1 X170.961 Y111.872 E15.13995
G1 X170.742 Y112.463 E15.15462
G1 X170.096 Y113.943 E15.19222
G1 X168.109 Y118.167 E15.3009
G1 X167.823 Y118.756 E15.31614
G1 X167.017 Y120.201 E15.35467
G1 X164.625 Y124.213 E15.46341
G1 X164.298 Y124.745 E15.47795
G1 X163.332 Y126.135 E15.51736
G1 X160.572 Y129.875 E15.62558
G1 X160.197 Y130.37 E15.64004
G1 X159.116 Y131.641 E15.67889
G1 X155.887 Y135.219 E15.7911
G1 X155.352 Y135.796 E15.80942
G1 X154.846 Y136.299 E15.82603
G1 X150.785 Y139.985 E15.95372
G1 X150.333 Y140.384 E15.96775
G1 X149.024 Y141.414 E16.00653
G1 X145.252 Y144.212 E16.11588
G1 X144.753 Y144.571 E16.13019
G1 X143.39 Y145.444 E16.16787
G1 X139.425 Y147.821 E16.2755
G1 X138.909 Y148.122 E16.28941
G1 X137.502 Y148.841 E16.3262
G1 X133.157 Y150.908 E16.43822
G1 X132.378 Y151.265 E16.45817
G1 X131.731 Y151.531 E16.47446
G1 X126.609 Y153.368 E16.60115
G1 X125.981 Y153.583 E16.6166
G1 X124.427 Y154.021 E16.65419
G1 X119.886 Y155.16 E16.76319
G1 X119.267 Y155.308 E16.77801
G1 X117.614 Y155.602 E16.8171
G1 X112.99 Y156.29 E16.92594
G1 X112.366 Y156.373 E16.9406
G1 X110.746 Y156.501 E16.97843
G1 X106.04 Y156.734 E17.08813
G1 X105.417 Y156.756 E17.10265
G1 X103.789 Y156.723 E17.14056
G1 X99.105 Y156.495 E17.24974
G1 X98.469 Y156.455 E17.26458
G1 X96.832 Y156.262 E17.30295
G1 X92.177 Y155.573 E17.41251
G1 X91.579 Y155.476 E17.42662
G1 X89.94 Y155.115 E17.46569
G1 X85.408 Y153.981 E17.57446
G1 X84.806 Y153.821 E17.58896
G1 X83.239 Y153.311 E17.62733
G1 X78.802 Y151.725 E17.73703
G1 X78.263 Y151.525 E17.75042
G1 X76.714 Y150.847 E17.78978
G1 X72.473 Y148.843 E17.89899
G1 X71.95 Y148.588 E17.91254
G1 X70.486 Y147.768 E17.95161
G1 X66.488 Y145.372 E18.06012
G1 X65.951 Y145.042 E18.0748
G1 X64.55 Y144.064 E18.11458
G1 X60.822 Y141.302 E18.2226
G1 X60.325 Y140.922 E18.23716
G1 X59.073 Y139.854 E18.27548
G1 X55.697 Y136.796 E18.38153
G1 X55.208 Y136.339 E18.39711
G1 X54.105 Y135.193 E18.43414
G1 X50.834 Y131.601 E18.54725
G1 X50.321 Y131.021 E18.56528
G1 X49.863 Y130.457 E18.5822
G1 X46.686 Y126.18 E18.70624
G1 X46.31 Y125.657 E18.72124
G1 X45.46 Y124.331 E18.75791
G1 X43.052 Y120.334 E18.86655
G1 X42.703 Y119.736 E18.88267
G1 X41.964 Y118.295 E18.92037
G1 X39.959 Y114.08 E19.02904
G1 X39.677 Y113.466 E19.04477
G1 X39.09 Y111.974 E19.0821
G1 X37.496 Y107.551 E19.19156
G1 X37.286 Y106.94 E19.20661
G1 X36.825 Y105.317 E19.24589
G1 X35.654 Y100.688 E19.35705
G1 X35.471 Y99.926 E19.3753
G1 X35.323 Y99.153 E19.39362
G1 X34.526 Y93.806 E19.51949
G1 X34.442 Y93.18 E19.53419
G1 X34.315 Y91.563 E19.57196
G1 X34.082 Y86.856 E19.68168
G1 X34.06 Y86.244 E19.69594
G1 X34.094 Y84.574 E19.73483
G1 X34.313 Y80.066 E19.83991
G1 X34.356 Y79.383 E19.85584
G1 X34.541 Y77.81 E19.89271
G1 X35.239 Y73.038 E20.005
G1 X35.37 Y72.219 E20.02431
G1 X35.516 Y71.501 E20.04137
G1 X36.835 Y66.224 E20.16801
G1 X36.995 Y65.622 E20.18251
G1 X37.505 Y64.053 E20.22092
G1 X39.04 Y59.759 E20.32709
G1 X39.257 Y59.173 E20.34164
G1 X39.904 Y57.689 E20.37933
G1 X41.891 Y53.465 E20.48801
G1 X42.175 Y52.881 E20.50313
G1 X42.999 Y51.405 E20.54249
G1 X45.446 Y47.303 E20.65369
G1 X45.868 Y46.615 E20.67248
G1 X46.283 Y46 E20.68976
G1 X49.514 Y41.638 E20.81614
G1 X49.883 Y41.154 E20.83031
M204 S3000
M205 X10 Y10
G0 F1500 X50.329 Y41.493
M204 S1800
M205 X8 Y8
G1 F2400 X51.413 Y40.226 E20.86913
G1 X54.521 Y36.795 E20.97691
G1 X54.959 Y36.325 E20.99187
G1 X56.103 Y35.227 E21.02879
G1 X59.592 Y32.062 E21.13846
G1 X60.044 Y31.665 E21.15247
G1 X61.321 Y30.659 E21.19032
G1 X64.971 Y27.951 E21.29613
G1 X65.493 Y27.576 E21.3111
G1 X66.789 Y26.746 E21.34693
G1 X70.772 Y24.347 E21.45518
G1 X71.359 Y24.004 E21.47101
G1 X72.772 Y23.281 E21.50796
G1 X76.976 Y21.281 E21.61635
G1 X77.577 Y21.005 E21.63175
G1 X79.069 Y20.419 E21.66907
G1 X83.555 Y18.802 E21.78009
G1 X84.353 Y18.527 E21.79974
G1 X84.984 Y18.338 E21.81508
G1 X90.25 Y17.015 E21.94149
G1 X90.863 Y16.869 E21.95616
G1 X92.485 Y16.581 E21.99452
G1 X96.97 Y15.915 E22.10008
G1 X97.603 Y15.83 E22.11495
G1 X99.131 Y15.709 E22.15064
G1 X103.854 Y15.466 E22.26075
G1 X104.452 Y15.444 E22.27468
G1 X106.104 Y15.475 E22.31315
G1 X110.715 Y15.69 E22.42062
G1 X111.333 Y15.726 E22.43503
G1 X113.009 Y15.923 E22.47432
G1 X117.679 Y16.606 E22.5842
G1 X118.51 Y16.739 E22.6038
G1 X119.204 Y16.881 E22.62029
G1 X124.368 Y18.172 E22.74422
G1 X124.939 Y18.322 E22.75796
G1 X126.408 Y18.798 E22.79392
G1 X130.827 Y20.369 E22.90311
G1 X131.429 Y20.592 E22.91805
G1 X132.913 Y21.239 E22.95575
G1 X137.112 Y23.213 E23.06377
G1 X137.689 Y23.494 E23.07871
G1 X139.134 Y24.302 E23.11726
G1 X143.203 Y26.729 E23.22757
G1 X143.906 Y27.16 E23.24676
G1 X144.491 Y27.555 E23.2632
G1 X148.844 Y30.78 E23.38933
G1 X149.323 Y31.145 E23.40335
G1 X150.59 Y32.229 E23.44217
G1 X154.021 Y35.337 E23.54995
G1 X154.491 Y35.775 E23.56491
G1 X155.589 Y36.919 E23.60183
G1 X158.754 Y40.408 E23.7115
G1 X159.151 Y40.86 E23.72551
G1 X160.157 Y42.137 E23.76336
G1 X162.865 Y45.787 E23.86917
G1 X163.243 Y46.315 E23.88429
G1 X164.058 Y47.585 E23.91942
G1 X166.555 Y51.728 E24.03205
G1 X166.963 Y52.43 E24.05095
G1 X167.286 Y53.041 E24.06704
G1 X169.551 Y57.822 E24.19021
G1 X169.83 Y58.434 E24.20587
G1 X170.376 Y59.827 E24.24071
G1 X172.014 Y64.371 E24.35316
G1 X172.282 Y65.144 E24.37221
G1 X172.481 Y65.812 E24.38844
G1 X173.791 Y71.026 E24.5136
G1 X173.946 Y71.674 E24.52912
G1 X174.233 Y73.295 E24.56744
G1 X174.92 Y77.908 E24.67603
G1 X175.002 Y78.518 E24.69036
G1 X175.126 Y80.11 E24.72754
G1 X175.358 Y84.804 E24.83696
G1 X175.38 Y85.408 E24.85103
G1 X175.346 Y87.042 E24.88908
G1 X175.127 Y91.538 E24.99388
G1 X175.086 Y92.217 E25.00972
G1 X174.908 Y93.72 E25.04495
G1 X174.222 Y98.412 E25.15536
G1 X174.127 Y99.012 E25.1695
G1 X173.783 Y100.591 E25.20712
G1 X172.619 Y105.279 E25.31958
G1 X172.425 Y106.011 E25.33721
G1 X172.229 Y106.65 E25.35278
G1 X170.434 Y111.684 E25.47721
G1 X170.217 Y112.268 E25.49171
G1 X169.585 Y113.714 E25.52845
G1 X167.603 Y117.928 E25.63687
G1 X167.32 Y118.511 E25.65196
G1 X166.53 Y119.924 E25.68965
G1 X164.144 Y123.926 E25.79813
G1 X163.821 Y124.452 E25.8125
G1 X162.875 Y125.811 E25.85105
G1 X160.121 Y129.542 E25.95902
G1 X159.751 Y130.031 E25.9733
G1 X158.692 Y131.274 E26.01131
G1 X155.471 Y134.844 E26.12326
G1 X154.942 Y135.416 E26.1414
G1 X154.458 Y135.895 E26.15725
G1 X150.409 Y139.57 E26.28456
G1 X149.963 Y139.963 E26.2984
G1 X148.681 Y140.971 E26.33637
G1 X144.919 Y143.762 E26.44543
G1 X144.427 Y144.116 E26.45954
G1 X143.091 Y144.97 E26.49646
G1 X139.138 Y147.341 E26.60378
G1 X138.628 Y147.638 E26.61752
G1 X137.251 Y148.34 E26.65351
G1 X132.917 Y150.402 E26.76525
G1 X132.145 Y150.756 E26.78502
G1 X131.526 Y151.01 E26.8006
G1 X126.42 Y152.841 E26.92689
G1 X125.8 Y153.053 E26.94215
G1 X124.279 Y153.48 E26.97893
G1 X119.75 Y154.617 E27.08764
G1 X119.137 Y154.763 E27.10231
G1 X117.521 Y155.049 E27.14052
G1 X112.908 Y155.736 E27.24911
G1 X112.292 Y155.818 E27.26358
G1 X110.707 Y155.942 E27.30059
G1 X106.012 Y156.174 E27.41003
G1 X105.398 Y156.196 E27.42434
G1 X103.805 Y156.163 E27.46143
G1 X99.132 Y155.935 E27.57036
G1 X98.504 Y155.896 E27.58501
