;FLAVOR:Marlin
;TIME:2026
;Filament used: 0.975245m
;Layer height: 0.1
;MINX:85.997
;MINY:16.469
;MINZ:0.15
;MAXX:124.004
;MAXY:43.869
;MAXZ:10.95
;Generated with Cura_SteamEngine 4.5.0
M140 S60
M105
M190 S60
M104 S200
M105
M109 S200
M82 ;absolute extrusion mode
G21 ;metric values
G90 ;absolute positioning
M82 ;set extruder to absolute mode
M107 ;start with the fan off
G28 X0 Y0 ;move X/Y to min endstops
G28 Z0 ;move Z to min endstops
G1 Z15.0 F100 ;move the platform down 15mm
G92 E0 ;zero the extruded length
G1 F200 E3 ;extrude 3mm of feed stock
G92 E0 ;zero the extruded length again
G1 F100
G0 Y20 F100
M117 Printing...
G5
G92 E0
G92 E0
G1 F2400 E-6
;LAYER_COUNT:109
;LAYER:0
M106 S255
M204 S3000
M205 X10 Y10
G1 F600 Z0.225
G0 F1800 X86.156 Y19.523 Z0.225
M204 S1800
M205 X8 Y8
;TYPE:SKIRT
G1 F600 Z0.15
G1 F2400 E0
G1 X86.352 Y18.978 E0.02225
G1 X86.622 Y18.465 E0.04452
G1 X86.959 Y17.994 E0.06677
G1 X87.358 Y17.574 E0.08902
G1 X87.811 Y17.213 E0.11127
G1 X88.309 Y16.917 E0.13353
G1 X88.843 Y16.693 E0.15577
G1 X89.403 Y16.545 E0.17803
G1 X90.197 Y16.469 E0.20867
G1 X119.803 Y16.469 E1.346
G1 X120.381 Y16.509 E1.36825
G1 X120.948 Y16.628 E1.39051
G1 X121.493 Y16.824 E1.41276
G1 X122.006 Y17.093 E1.43501
G1 X122.477 Y17.43 E1.45726
G1 X122.897 Y17.829 E1.47951
G1 X123.259 Y18.282 E1.50179
G1 X123.554 Y18.78 E1.52402
G1 X123.779 Y19.314 E1.54628
G1 X123.927 Y19.874 E1.56854
G1 X124.003 Y20.669 E1.59922
G1 X124.004 Y39.669 E2.32911
G1 X123.964 Y40.247 E2.35137
G1 X123.845 Y40.814 E2.37362
G1 X123.649 Y41.359 E2.39587
G1 X123.38 Y41.872 E2.41812
G1 X123.043 Y42.343 E2.44037
G1 X122.644 Y42.763 E2.46263
G1 X122.191 Y43.125 E2.4849
G1 X121.693 Y43.42 E2.50714
G1 X121.159 Y43.644 E2.52938
G1 X120.599 Y43.793 E2.55164
G1 X119.804 Y43.869 E2.58232
G1 X90.197 Y43.869 E3.71969
G1 X89.619 Y43.829 E3.74195
G1 X89.052 Y43.71 E3.7642
G1 X88.507 Y43.514 E3.78645
G1 X87.994 Y43.245 E3.80871
G1 X87.523 Y42.908 E3.83095
G1 X87.103 Y42.509 E3.85321
G1 X86.741 Y42.056 E3.87548
G1 X86.446 Y41.558 E3.89772
G1 X86.221 Y41.024 E3.91998
G1 X86.073 Y40.464 E3.94223
G1 X85.997 Y39.669 E3.97291
G1 X85.997 Y20.668 E4.70284
G1 X86.037 Y20.09 E4.7251
G1 X86.156 Y19.523 E4.74736
M204 S3000
M205 X10 Y10
G0 F1800 X86.716 Y19.604
M204 S1800
M205 X8 Y8
G1 F2400 X86.912 Y19.102 E4.76806
G1 X87.179 Y18.634 E4.78876
G1 X87.513 Y18.21 E4.80949
G1 X87.906 Y17.841 E4.8302
G1 X88.349 Y17.533 E4.85093
G1 X88.832 Y17.294 E4.87163
G1 X89.346 Y17.13 E4.89236
G1 X89.878 Y17.043 E4.91306
G1 X119.803 Y17.029 E6.06265
G1 X120.341 Y17.069 E6.08337
G1 X120.867 Y17.188 E6.10409
G1 X121.369 Y17.383 E6.12478
G1 X121.838 Y17.651 E6.14553
G1 X122.261 Y17.984 E6.16621
G1 X122.631 Y18.377 E6.18694
G1 X122.938 Y18.82 E6.20765
G1 X123.177 Y19.304 E6.22839
G1 X123.342 Y19.817 E6.24909
G1 X123.429 Y20.349 E6.2698
G1 X123.444 Y39.669 E7.01198
G1 X123.404 Y40.207 E7.03271
G1 X123.285 Y40.733 E7.05342
G1 X123.09 Y41.235 E7.07411
G1 X122.822 Y41.703 E7.09483
G1 X122.489 Y42.127 E7.11554
G1 X122.096 Y42.497 E7.13628
G1 X121.653 Y42.804 E7.15698
G1 X121.17 Y43.043 E7.17768
G1 X120.656 Y43.208 E7.19842
G1 X120.124 Y43.295 E7.21913
G1 X90.197 Y43.309 E8.36879
G1 X89.659 Y43.269 E8.38951
G1 X89.133 Y43.15 E8.41023
G1 X88.631 Y42.955 E8.43092
G1 X88.162 Y42.687 E8.45167
G1 X87.739 Y42.354 E8.47235
G1 X87.369 Y41.961 E8.49309
G1 X87.062 Y41.518 E8.51379
G1 X86.823 Y41.034 E8.53453
G1 X86.658 Y40.521 E8.55523
G1 X86.571 Y39.989 E8.57594
G1 X86.557 Y20.668 E9.31816
G1 X86.597 Y20.13 E9.33889
G1 X86.716 Y19.604 E9.35961
M204 S3000
M205 X10 Y10
G0 F1800 X87.276 Y19.693
M204 S1800
M205 X8 Y8
G1 F2400 X87.47 Y19.237 E9.37864
G1 X87.735 Y18.818 E9.39769
G1 X88.064 Y18.447 E9.41674
G1 X88.449 Y18.133 E9.43582
G1 X88.878 Y17.886 E9.45484
G1 X89.342 Y17.71 E9.4739
G1 X89.828 Y17.611 E9.49296
G1 X119.803 Y17.589 E10.64446
G1 X120.779 Y17.748 E10.68245
G1 X121.235 Y17.942 E10.70148
G1 X121.654 Y18.207 E10.72053
G1 X122.025 Y18.537 E10.7396
G1 X122.339 Y18.921 E10.75866
G1 X122.587 Y19.351 E10.77773
G1 X122.762 Y19.814 E10.79674
G1 X122.861 Y20.301 E10.81583
G1 X122.884 Y39.669 E11.55986
G1 X122.844 Y40.163 E11.5789
G1 X122.725 Y40.645 E11.59798
G1 X122.531 Y41.101 E11.61701
G1 X122.266 Y41.52 E11.63606
G1 X121.937 Y41.891 E11.65511
G1 X121.552 Y42.205 E11.67419
G1 X121.123 Y42.452 E11.69321
G1 X120.659 Y42.628 E11.71227
G1 X120.173 Y42.727 E11.73133
G1 X90.197 Y42.749 E12.88287
G1 X89.703 Y42.709 E12.90191
G1 X89.221 Y42.59 E12.92098
G1 X88.765 Y42.396 E12.94002
G1 X88.346 Y42.131 E12.95906
G1 X87.975 Y41.801 E12.97814
G1 X87.661 Y41.417 E12.99719
G1 X87.413 Y40.987 E13.01626
G1 X87.238 Y40.524 E13.03528
G1 X87.139 Y40.037 E13.05437
G1 X87.116 Y24.563 E13.64881
G1 X87.117 Y20.669 E13.7984
G1 X87.157 Y20.175 E13.81744
G1 X87.276 Y19.693 E13.83651
M204 S3000
M205 X10 Y10
G0 F1800 X87.835 Y19.79
M204 S1800
M205 X8 Y8
G1 F2400 X88.029 Y19.385 E13.85376
G1 X88.291 Y19.021 E13.87099
G1 X88.613 Y18.709 E13.88821
G1 X88.986 Y18.459 E13.90546
G1 X89.397 Y18.28 E13.92268
G1 X89.833 Y18.175 E13.93991
G1 X90.197 Y18.149 E13.95393
G1 X119.803 Y18.149 E15.09126
G1 X120.682 Y18.307 E15.12557
G1 X121.087 Y18.501 E15.14282
G1 X121.451 Y18.763 E15.16005
G1 X121.763 Y19.085 E15.17727
G1 X122.013 Y19.458 E15.19452
G1 X122.193 Y19.869 E15.21176
G1 X122.297 Y20.305 E15.22898
G1 X122.323 Y20.669 E15.243
G1 X122.324 Y39.669 E15.97289
G1 X122.284 Y40.116 E15.99013
G1 X122.166 Y40.548 E16.00733
G1 X121.972 Y40.953 E16.02458
G1 X121.71 Y41.317 E16.04181
G1 X121.388 Y41.629 E16.05904
G1 X121.015 Y41.879 E16.07629
G1 X120.604 Y42.059 E16.09352
G1 X120.168 Y42.163 E16.11074
G1 X119.804 Y42.189 E16.12476
G1 X90.197 Y42.189 E17.26213
G1 X89.75 Y42.149 E17.27937
G1 X89.318 Y42.031 E17.29657
G1 X88.913 Y41.837 E17.31382
G1 X88.549 Y41.575 E17.33105
G1 X88.237 Y41.253 E17.34827
G1 X87.987 Y40.88 E17.36552
G1 X87.807 Y40.469 E17.38276
G1 X87.703 Y40.033 E17.39998
G1 X87.677 Y39.669 E17.414
G1 X87.677 Y20.669 E18.14389
G1 X87.717 Y20.222 E18.16113
G1 X87.835 Y19.79 E18.17834
M204 S3000
M205 X10 Y10
G0 F1800 X88.277 Y20.276
M204 S1800
M205 X8 Y8
G1 F2400 X88.395 Y19.898 E18.19355
G1 X88.586 Y19.552 E18.20873
G1 X88.843 Y19.252 E18.22391
G1 X89.155 Y19.009 E18.2391
G1 X89.51 Y18.833 E18.25432
G1 X89.892 Y18.733 E18.26949
G1 X119.803 Y18.709 E19.41853
G1 X120.574 Y18.867 E19.44877
G1 X120.92 Y19.058 E19.46395
G1 X121.221 Y19.315 E19.47915
G1 X121.463 Y19.628 E19.49435
G1 X121.639 Y19.982 E19.50954
G1 X121.739 Y20.365 E19.52475
G1 X121.764 Y39.669 E20.26632
G1 X121.724 Y40.062 E20.28149
G1 X121.606 Y40.44 E20.29671
G1 X121.415 Y40.786 E20.31189
G1 X121.158 Y41.086 E20.32706
G1 X120.846 Y41.329 E20.34226
G1 X120.491 Y41.505 E20.35748
G1 X120.109 Y41.605 E20.37265
G1 X90.197 Y41.629 E21.52173
G1 X89.804 Y41.589 E21.53691
G1 X89.426 Y41.471 E21.55212
G1 X89.08 Y41.28 E21.5673
G1 X88.779 Y41.023 E21.58251
G1 X88.537 Y40.71 E21.5977
G1 X88.361 Y40.356 E21.61289
G1 X88.261 Y39.973 E21.6281
G1 X88.236 Y24.563 E22.22008
G1 X88.237 Y20.669 E22.36967
G1 X88.277 Y20.276 E22.38485
M204 S3000
M205 X10 Y10
G0 F1800 X88.837 Y20.337
M204 S1800
M205 X8 Y8
G1 F2400 X88.954 Y20.025 E22.39765
G1 X89.142 Y19.748 E22.41051
G1 X89.39 Y19.525 E22.42332
G1 X89.684 Y19.366 E22.43616
G1 X90.197 Y19.269 E22.45622
G1 X119.803 Y19.269 E23.59354
G1 X120.447 Y19.426 E23.61901
G1 X120.724 Y19.614 E23.63187
G1 X120.947 Y19.862 E23.64468
G1 X121.106 Y20.156 E23.65752
G1 X121.203 Y20.669 E23.67758
G1 X121.204 Y39.669 E24.40747
G1 X121.164 Y40.001 E24.42032
G1 X121.047 Y40.313 E24.43312
G1 X120.859 Y40.59 E24.44598
G1 X120.611 Y40.813 E24.45879
G1 X120.317 Y40.972 E24.47163
G1 X119.804 Y41.069 E24.49169
G1 X90.197 Y41.069 E25.62905
G1 X89.865 Y41.029 E25.6419
G1 X89.553 Y40.912 E25.6547
G1 X89.276 Y40.724 E25.66756
G1 X89.053 Y40.476 E25.68037
G1 X88.894 Y40.182 E25.69321
G1 X88.797 Y39.669 E25.71327
G1 X88.797 Y20.669 E26.44316
G1 X88.837 Y20.337 E26.45601
M204 S3000
M205 X10 Y10
G0 F1800 X89.397 Y20.414
M204 S1800
M205 X8 Y8
G1 F2400 X89.512 Y20.182 E26.46596
G1 X89.693 Y19.997 E26.4759
G1 X89.921 Y19.876 E26.48581
G1 X90.197 Y19.829 E26.49657
G1 X119.803 Y19.829 E27.6339
G1 X120.29 Y19.984 E27.65353
G1 X120.475 Y20.165 E27.66347
G1 X120.596 Y20.393 E27.67339
G1 X120.643 Y20.669 E27.68414
G1 X120.644 Y39.669 E28.41404
G1 X120.604 Y39.924 E28.42395
G1 X120.489 Y40.156 E28.4339
G1 X120.308 Y40.341 E28.44384
G1 X120.08 Y40.462 E28.45376
G1 X119.804 Y40.509 E28.46451
G1 X90.197 Y40.509 E29.60188
G1 X89.942 Y40.469 E29.6118
G1 X89.71 Y40.354 E29.62174
G1 X89.525 Y40.173 E29.63169
G1 X89.404 Y39.945 E29.6416
G1 X89.357 Y39.669 E29.65236
G1 X89.357 Y20.669 E30.38225
G1 X89.397 Y20.414 E30.39217
M204 S3000
M205 X10 Y10
G0 F1800 X89.956 Y20.526
M204 S1800
M205 X8 Y8
G1 F2400 X90.063 Y20.423 E30.39787
G1 X90.197 Y20.389 E30.40318
G1 X119.803 Y20.389 E31.54051
G1 X120.049 Y20.535 E31.5515
G1 X120.083 Y20.669 E31.55681
G1 X120.084 Y39.669 E32.2867
G1 X120.045 Y39.812 E32.2924
G1 X119.938 Y39.915 E32.2981
G1 X119.804 Y39.949 E32.30341
G1 X90.197 Y39.949 E33.44078
G1 X90.054 Y39.91 E33.44647
G1 X89.951 Y39.803 E33.45218
G1 X89.917 Y39.669 E33.45749
G1 X89.917 Y20.669 E34.18738
G1 X89.956 Y20.526 E34.19308
M204 S3000
M205 X10 Y10
G1 F2400 E28.19308
;MESH:Retro-clock.stl
G0 F1800 X91.051 Y21.523
G0 X97.559 Y34.951
G0 X98.219 Y34.951
M204 S1800
M205 X8 Y8
;TYPE:WALL-OUTER
G1 F2400 E34.19308
G1 F900 X111.783 Y34.951 E34.71415
G1 X111.783 Y25.386 E35.08159
G1 X98.219 Y25.386 E35.60266
G1 X98.219 Y34.951 E35.9701
M204 S3000
M205 X10 Y10
G0 F1800 X98.419 Y34.951
G0 X98.419 Y35.611
G0 X118.894 Y38.759
G0 X119.244 Y39.389
M204 S1800
M205 X8 Y8
G1 F900 X90.477 Y39.389 E37.0752
G1 X90.476 Y24.563 E37.64475
G1 X90.477 Y20.949 E37.78358
G1 X119.523 Y20.949 E38.89939
G1 X119.524 Y39.109 E39.59702
G1 X119.524 Y39.389 E39.60778
G1 X119.244 Y39.389 E39.61474
M204 S3000
M205 X10 Y10
G0 F1800 X119.044 Y39.389
G0 X118.684 Y38.829
M204 S1800
M205 X8 Y8
;TYPE:WALL-INNER
G1 F900 X91.037 Y38.829 E40.67681
G1 X91.036 Y24.563 E41.22485
G1 X91.037 Y21.509 E41.34217
G1 X118.963 Y21.509 E42.41496
G1 X118.964 Y38.549 E43.06956
G1 X118.964 Y38.829 E43.08031
G1 X118.684 Y38.829 E43.08727
M204 S3000
M205 X10 Y10
G0 F1800 X118.684 Y38.729
G0 X97.589 Y35.581
G0 X97.659 Y35.511
M204 S1800
M205 X8 Y8
G1 F900 X112.343 Y35.511 E43.65137
G1 X112.343 Y24.826 E44.06184
G1 X97.659 Y24.826 E44.62593
G1 X97.659 Y35.511 E45.0364
M204 S3000
M205 X10 Y10
G0 F1800 X97.099 Y36.071
M204 S1800
M205 X8 Y8
G1 F900 X112.903 Y36.071 E45.64352
G1 X112.903 Y24.266 E46.09701
G1 X97.099 Y24.266 E46.70413
G1 X97.099 Y36.071 E47.15762
M204 S3000
M205 X10 Y10
G0 F1800 X118.124 Y38.269
M204 S1800
M205 X8 Y8
G1 F900 X91.597 Y38.269 E48.17667
G1 X91.596 Y24.563 E48.70319
G1 X91.597 Y22.069 E48.799
G1 X118.403 Y22.069 E49.82876
G1 X118.404 Y37.989 E50.44034
G1 X118.404 Y38.269 E50.45109
G1 X118.124 Y38.269 E50.45806
M204 S3000
M205 X10 Y10
G0 F1800 X117.854 Y37.719
M204 S1800
M205 X8 Y8
;TYPE:SKIN
G1 F900 X92.147 Y37.719 E51.4456
G1 X92.146 Y24.563 E51.951
G1 X92.147 Y22.619 E52.02568
G1 X117.853 Y22.619 E53.01318
G1 X117.854 Y37.719 E53.59326
M204 S3000
M205 X10 Y10
G0 F1800 X113.453 Y36.621
M204 S1800
M205 X8 Y8
G1 F900 X113.453 Y23.716 E54.08901
G1 X96.549 Y23.716 E54.73838
G1 X96.549 Y36.621 E55.23414
G1 X113.453 Y36.621 E55.88351
M204 S3000
M205 X10 Y10
G0 F1800 X117.592 Y23.349
M204 S1800
M205 X8 Y8
G1 F900 X117.122 Y22.879 E55.90904
M204 S3000
M205 X10 Y10
G0 F1800 X116.33 Y22.879
M204 S1800
M205 X8 Y8
G1 F900 X117.592 Y24.141 E55.97761
M204 S3000
M205 X10 Y10
G0 F1800 X117.592 Y24.933
M204 S1800
M205 X8 Y8
G1 F900 X115.538 Y22.879 E56.0892
M204 S3000
M205 X10 Y10
G0 F1800 X114.746 Y22.879
M204 S1800
M205 X8 Y8
G1 F900 X117.592 Y25.725 E56.24381
M204 S3000
M205 X10 Y10
G0 F1800 X117.592 Y26.517
M204 S1800
M205 X8 Y8
G1 F900 X113.954 Y22.879 E56.44146
M204 S3000
M205 X10 Y10
G0 F1800 X113.162 Y22.879
M204 S1800
M205 X8 Y8
G1 F900 X117.592 Y27.309 E56.68213
M204 S3000
M205 X10 Y10
G0 F1800 X117.593 Y28.101
M204 S1800
M205 X8 Y8
G1 F900 X113.712 Y24.221 E56.89295
M204 S3000
M205 X10 Y10
G0 F1800 X113.712 Y25.013
M204 S1800
M205 X8 Y8
G1 F900 X117.593 Y28.893 E57.10376
M204 S3000
M205 X10 Y10
G0 F1800 X117.593 Y29.685
M204 S1800
M205 X8 Y8
G1 F900 X113.712 Y25.805 E57.31458
M204 S3000
M205 X10 Y10
G0 F1800 X113.712 Y26.597
M204 S1800
M205 X8 Y8
G1 F900 X117.593 Y30.477 E57.5254
M204 S3000
M205 X10 Y10
G0 F1800 X117.593 Y31.269
M204 S1800
M205 X8 Y8
G1 F900 X113.712 Y27.389 E57.73622
M204 S3000
M205 X10 Y10
G0 F1800 X113.712 Y28.181
M204 S1800
M205 X8 Y8
G1 F900 X117.593 Y32.061 E57.94704
M204 S3000
M205 X10 Y10
G0 F1800 X117.593 Y32.854
M204 S1800
M205 X8 Y8
G1 F900 X113.712 Y28.972 E58.15791
M204 S3000
M205 X10 Y10
G0 F1800 X113.712 Y29.764
M204 S1800
M205 X8 Y8
G1 F900 X117.593 Y33.646 E58.36878
M204 S3000
M205 X10 Y10
G0 F1800 X117.593 Y34.438
M204 S1800
M205 X8 Y8
G1 F900 X113.712 Y30.556 E58.57966
M204 S3000
M205 X10 Y10
G0 F1800 X113.712 Y31.348
M204 S1800
M205 X8 Y8
G1 F900 X117.593 Y35.23 E58.79053
M204 S3000
M205 X10 Y10
G0 F1800 X117.593 Y36.022
M204 S1800
M205 X8 Y8
G1 F900 X113.712 Y32.14 E59.0014
M204 S3000
M205 X10 Y10
G0 F1800 X113.712 Y32.932
M204 S1800
M205 X8 Y8
G1 F900 X117.593 Y36.814 E59.21228
M204 S3000
M205 X10 Y10
G0 F1800 X117.446 Y37.458
M204 S1800
M205 X8 Y8
G1 F900 X113.712 Y33.724 E59.41513
M204 S3000
M205 X10 Y10
G0 F1800 X113.712 Y34.516
M204 S1800
M205 X8 Y8
G1 F900 X116.654 Y37.458 E59.57497
M204 S3000
M205 X10 Y10
G0 F1800 X115.862 Y37.458
M204 S1800
M205 X8 Y8
G1 F900 X113.712 Y35.308 E59.69177
M204 S3000
M205 X10 Y10
G0 F1800 X113.712 Y36.1
M204 S1800
M205 X8 Y8
G1 F900 X115.071 Y37.458 E59.76558
M204 S3000
M205 X10 Y10
G0 F1800 X114.279 Y37.458
M204 S1800
M205 X8 Y8
G1 F900 X113.701 Y36.881 E59.79695
M204 S3000
M205 X10 Y10
G0 F1800 X113.487 Y37.458
M204 S1800
M205 X8 Y8
G1 F900 X112.909 Y36.881 E59.82832
M204 S3000
M205 X10 Y10
G0 F1800 X112.695 Y37.458
M204 S1800
M205 X8 Y8
G1 F900 X112.117 Y36.881 E59.8597
M204 S3000
M205 X10 Y10
G0 F1800 X111.903 Y37.458
M204 S1800
M205 X8 Y8
G1 F900 X111.325 Y36.881 E59.89107
M204 S3000
M205 X10 Y10
G0 F1800 X111.111 Y37.458
M204 S1800
M205 X8 Y8
G1 F900 X110.533 Y36.881 E59.92245
M204 S3000
M205 X10 Y10
G0 F1800 X110.319 Y37.458
M204 S1800
M205 X8 Y8
G1 F900 X109.741 Y36.881 E59.95382
M204 S3000
M205 X10 Y10
G0 F1800 X109.527 Y37.458
M204 S1800
M205 X8 Y8
G1 F900 X108.949 Y36.881 E59.98519
M204 S3000
M205 X10 Y10
G0 F1800 X108.735 Y37.458
M204 S1800
M205 X8 Y8
G1 F900 X108.157 Y36.881 E60.01657
M204 S3000
M205 X10 Y10
G0 F1800 X107.943 Y37.458
M204 S1800
M205 X8 Y8
G1 F900 X107.365 Y36.881 E60.04794
M204 S3000
M205 X10 Y10
G0 F1800 X107.151 Y37.458
M204 S1800
M205 X8 Y8
G1 F900 X106.573 Y36.881 E60.07932
M204 S3000
M205 X10 Y10
G0 F1800 X106.359 Y37.458
M204 S1800
M205 X8 Y8
G1 F900 X105.781 Y36.881 E60.11069
M204 S3000
M205 X10 Y10
G0 F1800 X105.567 Y37.458
M204 S1800
M205 X8 Y8
G1 F900 X104.989 Y36.881 E60.14207
M204 S3000
M205 X10 Y10
G0 F1800 X104.775 Y37.458
M204 S1800
M205 X8 Y8
G1 F900 X104.197 Y36.881 E60.17344
M204 S3000
M205 X10 Y10
G0 F1800 X103.983 Y37.458
M204 S1800
M205 X8 Y8
G1 F900 X103.405 Y36.881 E60.20481
M204 S3000
M205 X10 Y10
G0 F1800 X103.191 Y37.458
M204 S1800
M205 X8 Y8
G1 F900 X102.613 Y36.881 E60.23619
M204 S3000
M205 X10 Y10
G0 F1800 X102.399 Y37.458
M204 S1800
M205 X8 Y8
G1 F900 X101.821 Y36.881 E60.26756
M204 S3000
M205 X10 Y10
G0 F1800 X101.607 Y37.458
M204 S1800
M205 X8 Y8
G1 F900 X101.03 Y36.881 E60.29891
M204 S3000
M205 X10 Y10
G0 F1800 X100.815 Y37.458
M204 S1800
M205 X8 Y8
G1 F900 X100.238 Y36.881 E60.33026
M204 S3000
M205 X10 Y10
G0 F1800 X100.023 Y37.458
M204 S1800
M205 X8 Y8
G1 F900 X99.446 Y36.881 E60.3616
M204 S3000
M205 X10 Y10
G0 F1800 X99.231 Y37.458
M204 S1800
M205 X8 Y8
G1 F900 X98.654 Y36.881 E60.39295
M204 S3000
M205 X10 Y10
G0 F1800 X98.439 Y37.458
M204 S1800
M205 X8 Y8
G1 F900 X97.862 Y36.881 E60.4243
M204 S3000
M205 X10 Y10
G0 F1800 X97.647 Y37.458
M204 S1800
M205 X8 Y8
G1 F900 X97.07 Y36.881 E60.45565
M204 S3000
M205 X10 Y10
G0 F1800 X96.855 Y37.458
M204 S1800
M205 X8 Y8
