;FLAVOR:Marlin
;TIME:2649
;Filament used: 2.37817m
;Layer height: 0.2
;MINX:77.304
;MINY:12.161
;MINZ:0.15
;MAXX:132.698
;MAXY:41.558
;MAXZ:19.55
;Generated with Cura_SteamEngine 4.5.0
M140 S60
M105
M190 S60
M104 S200
M105
M109 S200
M82 ;absolute extrusion mode
G21 ;metric values
G90 ;absolute positioning
M82 ;set extruder to absolute mode
M107 ;start with the fan off
G28 X0 Y0 ;move X/Y to min endstops
G28 Z0 ;move Z to min endstops
G1 Z15.0 F100 ;move the platform down 15mm
G92 E0 ;zero the extruded length
G1 F200 E3 ;extrude 3mm of feed stock
G92 E0 ;zero the extruded length again
G1 F100
G0 Y20 F100
M117 Printing...
G5
G92 E0
G92 E0
G1 F2400 E-6
;LAYER_COUNT:98
;LAYER:0
M106 S255
M204 S3000
M205 X10 Y10
G1 F600 Z0.225
G0 F1800 X77.345 Y15.784 Z0.225
M204 S1800
M205 X8 Y8
;TYPE:SKIRT
G1 F600 Z0.15
G1 F2400 E0
G1 X77.464 Y15.217 E0.02226
G1 X77.66 Y14.672 E0.04451
G1 X77.929 Y14.159 E0.06676
G1 X78.266 Y13.688 E0.08901
G1 X78.665 Y13.268 E0.11126
G1 X79.118 Y12.906 E0.13354
G1 X79.616 Y12.611 E0.15577
G1 X80.15 Y12.386 E0.17803
G1 X80.71 Y12.238 E0.20028
G1 X81.505 Y12.162 E0.23096
G1 X128.022 Y12.161 E2.01793
G1 X128.6 Y12.201 E2.04019
G1 X129.167 Y12.32 E2.06245
G1 X129.712 Y12.516 E2.0847
G1 X130.225 Y12.785 E2.10695
G1 X130.696 Y13.122 E2.1292
G1 X131.116 Y13.521 E2.15145
G1 X131.478 Y13.974 E2.17373
G1 X131.773 Y14.472 E2.19596
G1 X131.997 Y15.006 E2.21821
G1 X132.146 Y15.566 E2.24047
G1 X132.221 Y16.266 E2.26752
G1 X132.698 Y37.262 E3.07429
G1 X132.671 Y37.84 E3.09652
G1 X132.565 Y38.41 E3.11879
G1 X132.381 Y38.959 E3.14104
G1 X132.124 Y39.478 E3.16329
G1 X131.798 Y39.957 E3.18554
G1 X131.408 Y40.386 E3.20782
G1 X130.964 Y40.758 E3.23007
G1 X130.473 Y41.064 E3.25229
G1 X129.944 Y41.301 E3.27456
G1 X129.387 Y41.462 E3.29683
G1 X128.814 Y41.545 E3.31908
G1 X81.504 Y41.558 E5.13651
G1 X80.926 Y41.518 E5.15877
G1 X80.359 Y41.399 E5.18103
G1 X79.814 Y41.203 E5.20327
G1 X79.301 Y40.934 E5.22553
G1 X78.83 Y40.597 E5.24777
G1 X78.41 Y40.198 E5.27003
G1 X78.048 Y39.745 E5.29231
G1 X77.753 Y39.247 E5.31454
G1 X77.529 Y38.713 E5.33679
G1 X77.38 Y38.153 E5.35905
G1 X77.304 Y37.358 E5.38973
G1 X77.305 Y16.437 E6.19342
G1 X77.345 Y15.784 E6.21855
M204 S3000
M205 X10 Y10
G0 F1800 X77.905 Y15.824
M204 S1800
M205 X8 Y8
G1 F2400 X78.024 Y15.298 E6.23927
G1 X78.219 Y14.795 E6.25999
G1 X78.487 Y14.327 E6.28071
G1 X78.821 Y13.904 E6.30141
G1 X79.213 Y13.534 E6.32212
G1 X79.656 Y13.226 E6.34285
G1 X80.14 Y12.988 E6.36357
G1 X80.653 Y12.823 E6.38427
G1 X81.185 Y12.736 E6.40498
G1 X128.022 Y12.721 E8.20424
G1 X128.56 Y12.761 E8.22497
G1 X129.086 Y12.88 E8.24568
G1 X129.588 Y13.075 E8.26637
G1 X130.057 Y13.343 E8.28712
G1 X130.48 Y13.676 E8.3078
G1 X130.85 Y14.069 E8.32854
G1 X131.157 Y14.512 E8.34924
G1 X131.396 Y14.995 E8.36995
G1 X131.561 Y15.509 E8.39068
G1 X131.661 Y16.278 E8.42047
G1 X132.138 Y37.274 E9.22725
G1 X132.11 Y37.813 E9.24799
G1 X132.003 Y38.341 E9.26868
G1 X131.819 Y38.848 E9.2894
G1 X131.563 Y39.323 E9.31013
G1 X131.239 Y39.754 E9.33084
G1 X130.855 Y40.132 E9.35154
G1 X130.419 Y40.45 E9.37227
G1 X129.941 Y40.699 E9.39298
G1 X129.431 Y40.876 E9.41372
G1 X128.901 Y40.975 E9.43443
G1 X81.504 Y40.998 E11.25521
G1 X80.966 Y40.958 E11.27593
G1 X80.44 Y40.839 E11.29665
G1 X79.938 Y40.644 E11.31734
G1 X79.469 Y40.376 E11.33809
G1 X79.046 Y40.043 E11.35877
G1 X78.676 Y39.65 E11.37951
G1 X78.369 Y39.207 E11.40021
G1 X78.13 Y38.724 E11.42091
G1 X77.965 Y38.21 E11.44165
G1 X77.878 Y37.678 E11.46236
G1 X77.865 Y16.437 E12.27834
G1 X77.905 Y15.824 E12.30194
M204 S3000
M205 X10 Y10
G0 F1800 X78.465 Y15.867
M204 S1800
M205 X8 Y8
G1 F2400 X78.584 Y15.386 E12.32098
G1 X78.778 Y14.93 E12.34001
G1 X79.044 Y14.511 E12.35908
G1 X79.373 Y14.14 E12.37813
G1 X79.757 Y13.826 E12.39718
G1 X80.187 Y13.578 E12.41625
G1 X80.651 Y13.403 E12.4353
G1 X81.137 Y13.304 E12.45435
G1 X128.022 Y13.281 E14.25546
G1 X128.998 Y13.44 E14.29345
G1 X129.454 Y13.634 E14.31249
G1 X129.873 Y13.899 E14.33153
G1 X130.244 Y14.228 E14.35058
G1 X130.558 Y14.613 E14.36967
G1 X130.806 Y15.043 E14.38874
G1 X130.981 Y15.506 E14.40775
G1 X131.101 Y16.291 E14.43826
G1 X131.578 Y37.287 E15.24504
G1 X131.55 Y37.782 E15.26408
G1 X131.442 Y38.266 E15.28313
G1 X131.258 Y38.727 E15.3022
G1 X131.002 Y39.152 E15.32126
G1 X130.681 Y39.53 E15.34031
G1 X130.304 Y39.852 E15.35936
G1 X129.88 Y40.11 E15.37842
G1 X129.421 Y40.296 E15.39745
G1 X128.937 Y40.406 E15.41652
G1 X128.499 Y40.437 E15.43338
G1 X81.504 Y40.438 E17.23872
G1 X81.01 Y40.398 E17.25776
G1 X80.528 Y40.279 E17.27683
G1 X80.072 Y40.085 E17.29587
G1 X79.653 Y39.82 E17.31491
G1 X79.282 Y39.491 E17.33396
G1 X78.968 Y39.106 E17.35305
G1 X78.72 Y38.676 E17.37212
G1 X78.545 Y38.213 E17.39113
G1 X78.446 Y37.727 E17.41018
G1 X78.425 Y16.437 E18.22805
G1 X78.465 Y15.867 E18.25
M204 S3000
M205 X10 Y10
G0 F1800 X79.025 Y15.915
M204 S1800
M205 X8 Y8
G1 F2400 X79.143 Y15.482 E18.26724
G1 X79.337 Y15.078 E18.28446
G1 X79.599 Y14.714 E18.30169
G1 X79.921 Y14.402 E18.31891
G1 X80.294 Y14.152 E18.33616
G1 X80.705 Y13.972 E18.3534
G1 X81.141 Y13.868 E18.37061
G1 X81.505 Y13.842 E18.38463
G1 X128.022 Y13.841 E20.17161
G1 X128.901 Y13.999 E20.20591
G1 X129.306 Y14.193 E20.22317
G1 X129.67 Y14.455 E20.24039
G1 X129.982 Y14.777 E20.25762
G1 X130.232 Y15.15 E20.27487
G1 X130.412 Y15.561 E20.2921
G1 X130.516 Y15.997 E20.30932
G1 X131.018 Y37.3 E21.12791
G1 X130.989 Y37.747 E21.14512
G1 X130.88 Y38.183 E21.16239
G1 X130.696 Y38.592 E21.17962
G1 X130.442 Y38.961 E21.19682
G1 X130.127 Y39.281 E21.21407
G1 X129.76 Y39.539 E21.23131
G1 X129.353 Y39.728 E21.24855
G1 X128.919 Y39.842 E21.26578
G1 X128.499 Y39.877 E21.28198
G1 X81.504 Y39.878 E23.08731
G1 X81.057 Y39.838 E23.10455
G1 X80.625 Y39.72 E23.12175
G1 X80.22 Y39.526 E23.139
G1 X79.856 Y39.264 E23.15623
G1 X79.544 Y38.942 E23.17346
G1 X79.294 Y38.569 E23.19071
G1 X79.114 Y38.158 E23.20794
G1 X79.01 Y37.722 E23.22516
G1 X78.984 Y37.358 E23.23918
G1 X78.985 Y16.437 E24.04287
G1 X79.025 Y15.915 E24.06298
M204 S3000
M205 X10 Y10
G0 F1800 X79.585 Y15.968
M204 S1800
M205 X8 Y8
G1 F2400 X79.703 Y15.591 E24.07816
G1 X79.894 Y15.245 E24.09334
G1 X80.151 Y14.944 E24.10855
G1 X80.464 Y14.702 E24.12374
G1 X80.818 Y14.526 E24.13893
G1 X81.201 Y14.426 E24.15414
G1 X128.022 Y14.401 E25.95279
G1 X128.793 Y14.559 E25.98302
G1 X129.139 Y14.75 E25.9982
G1 X129.439 Y15.007 E26.01338
G1 X129.682 Y15.319 E26.02857
G1 X129.858 Y15.674 E26.04379
G1 X129.958 Y16.056 E26.05896
G1 X130.458 Y37.312 E26.87575
G1 X130.428 Y37.707 E26.89096
G1 X130.318 Y38.087 E26.90616
G1 X130.135 Y38.437 E26.92133
G1 X129.884 Y38.743 E26.93654
G1 X129.578 Y38.993 E26.95172
G1 X129.227 Y39.177 E26.96694
G1 X128.847 Y39.286 E26.98213
G1 X128.499 Y39.317 E26.99555
G1 X81.504 Y39.318 E28.80088
G1 X81.111 Y39.278 E28.81606
G1 X80.733 Y39.16 E28.83127
G1 X80.387 Y38.969 E28.84645
G1 X80.087 Y38.712 E28.86163
G1 X79.844 Y38.4 E28.87682
G1 X79.668 Y38.045 E28.89204
G1 X79.568 Y37.663 E28.90721
G1 X79.545 Y16.437 E29.72262
G1 X79.585 Y15.968 E29.7407
M204 S3000
M205 X10 Y10
G0 F1800 X80.145 Y16.03
M204 S1800
M205 X8 Y8
G1 F2400 X80.262 Y15.717 E29.75354
G1 X80.45 Y15.441 E29.76637
G1 X80.698 Y15.218 E29.77918
G1 X80.992 Y15.059 E29.79202
G1 X81.505 Y14.962 E29.81207
G1 X128.022 Y14.961 E31.59905
G1 X128.666 Y15.118 E31.62451
G1 X128.943 Y15.306 E31.63737
G1 X129.166 Y15.554 E31.65018
G1 X129.325 Y15.848 E31.66302
G1 X129.422 Y16.329 E31.68187
G1 X129.899 Y37.325 E32.48865
G1 X129.866 Y37.658 E32.50151
G1 X129.756 Y37.973 E32.51432
G1 X129.574 Y38.253 E32.52715
G1 X129.331 Y38.483 E32.54001
G1 X129.041 Y38.648 E32.55282
G1 X128.72 Y38.739 E32.56564
G1 X81.504 Y38.758 E34.37947
G1 X81.172 Y38.718 E34.39231
G1 X80.86 Y38.601 E34.40511
G1 X80.583 Y38.413 E34.41797
G1 X80.36 Y38.165 E34.43079
G1 X80.201 Y37.871 E34.44363
G1 X80.104 Y37.358 E34.46368
G1 X80.105 Y16.437 E35.26737
G1 X80.145 Y16.03 E35.28308
M204 S3000
M205 X10 Y10
G0 F1800 X80.705 Y16.107
M204 S1800
M205 X8 Y8
G1 F2400 X80.82 Y15.875 E35.29303
G1 X81.001 Y15.69 E35.30297
G1 X81.229 Y15.569 E35.31289
G1 X81.505 Y15.522 E35.32364
G1 X128.022 Y15.521 E37.11061
G1 X128.509 Y15.676 E37.13025
G1 X128.694 Y15.857 E37.14019
G1 X128.815 Y16.085 E37.15011
G1 X128.862 Y16.342 E37.16014
G1 X129.339 Y37.338 E37.96692
G1 X129.305 Y37.594 E37.97684
G1 X129.195 Y37.828 E37.98678
G1 X129.018 Y38.017 E37.99672
G1 X128.793 Y38.144 E38.00665
G1 X128.499 Y38.197 E38.01812
G1 X81.504 Y38.198 E39.82346
G1 X81.249 Y38.158 E39.83337
G1 X81.017 Y38.043 E39.84332
G1 X80.832 Y37.862 E39.85326
G1 X80.711 Y37.634 E39.86318
G1 X80.664 Y37.358 E39.87393
G1 X80.665 Y16.437 E40.67762
G1 X80.705 Y16.107 E40.69039
M204 S3000
M205 X10 Y10
G0 F1800 X81.225 Y16.437
M204 S1800
M205 X8 Y8
G1 F2400 X81.264 Y16.219 E40.6989
G1 X81.371 Y16.116 E40.70461
G1 X81.505 Y16.082 E40.70992
G1 X128.022 Y16.081 E42.49689
G1 X128.268 Y16.227 E42.50788
G1 X128.302 Y16.355 E42.51297
G1 X128.779 Y37.351 E43.31975
G1 X128.743 Y37.495 E43.32545
G1 X128.638 Y37.6 E43.33115
G1 X128.499 Y37.637 E43.33668
G1 X81.504 Y37.638 E45.14201
G1 X81.361 Y37.599 E45.14771
G1 X81.258 Y37.492 E45.15341
G1 X81.224 Y37.358 E45.15872
G1 X81.225 Y16.437 E45.96241
M204 S3000
M205 X10 Y10
G1 F2400 E39.96241
;MESH:nano-holder.stl
G0 F1800 X82.359 Y17.216
G0 X96.164 Y24.204
G0 X97.115 Y25.368
G0 X97.429 Y26.484
G0 X96.774 Y26.407
M204 S1800
M205 X8 Y8
;TYPE:WALL-OUTER
G1 F2400 E45.96241
G1 F900 X96.607 Y25.683 E45.99096
G1 X96.195 Y25.028 E46.02068
G1 X95.824 Y24.703 E46.03963
G1 X95.273 Y24.418 E46.06346
G1 X94.709 Y24.286 E46.08571
G1 X93.983 Y24.34 E46.11368
G1 X93.309 Y24.623 E46.14176
G1 X92.829 Y25.009 E46.16542
G1 X92.39 Y25.703 E46.19697
G1 X92.242 Y26.331 E46.22175
G1 X92.297 Y27.122 E46.25221
G1 X92.56 Y27.76 E46.27872
G1 X92.917 Y28.177 E46.29981
G1 X93.178 Y28.413 E46.31333
G1 X93.731 Y28.698 E46.33723
G1 X94.287 Y28.831 E46.35919
G1 X94.775 Y28.819 E46.37794
G1 X95.372 Y28.659 E46.40169
G1 X95.883 Y28.378 E46.42409
G1 X96.42 Y27.788 E46.45474
G1 X96.681 Y27.199 E46.47948
G1 X96.774 Y26.407 E46.51012
M204 S3000
M205 X10 Y10
G0 F1800 X96.73 Y26.213
G0 X97.373 Y26.065
G0 X112.705 Y27.434
G0 X113.356 Y27.33
M204 S1800
M205 X8 Y8
G1 F900 X113.777 Y28.05 E46.54216
G1 X114.303 Y28.491 E46.56853
G1 X114.856 Y28.745 E46.59191
G1 X115.5 Y28.832 E46.61687
G1 X116.106 Y28.76 E46.64031
G1 X116.742 Y28.464 E46.66726
G1 X117.19 Y28.096 E46.68953
G1 X117.525 Y27.592 E46.71278
G1 X117.739 Y26.997 E46.73707
G1 X117.749 Y26.146 E46.76977
G1 X117.546 Y25.567 E46.79334
G1 X117.192 Y25.025 E46.81821
G1 X116.78 Y24.675 E46.83897
G1 X116.225 Y24.4 E46.86277
G1 X115.508 Y24.285 E46.89066
G1 X114.9 Y24.358 E46.91419
G1 X114.298 Y24.629 E46.93955
G1 X113.692 Y25.181 E46.97104
G1 X113.383 Y25.717 E46.99481
G1 X113.222 Y26.504 E47.02566
G1 X113.356 Y27.33 E47.05781
M204 S3000
M205 X10 Y10
G0 F1800 X113.456 Y27.502
G0 X112.887 Y27.834
G0 X112.614 Y26.492
G0 X112.816 Y25.502
G0 X113.219 Y24.801
G0 X113.891 Y24.19
G0 X127.589 Y17.271
G0 X128.219 Y16.921
M204 S1800
M205 X8 Y8
G1 F900 X128.219 Y37.077 E47.83211
G1 X82.064 Y37.078 E49.60518
G1 X81.784 Y37.078 E49.61593
G1 X81.784 Y36.798 E49.6229
G1 X81.785 Y16.642 E50.3972
G1 X127.939 Y16.641 E52.17023
G1 X128.219 Y16.641 E52.18098
G1 X128.219 Y16.921 E52.18795
M204 S3000
M205 X10 Y10
G0 F1800 X128.219 Y17.121
G0 X127.589 Y17.271
G0 X113.966 Y24.122
G0 X113.219 Y24.801
G0 X112.816 Y25.502
G0 X112.635 Y26.393
G0 X112.726 Y27.556
G0 X112.82 Y27.523
M204 S1800
M205 X8 Y8
;TYPE:WALL-INNER
G1 F900 X113.343 Y28.417 E52.22773
G1 X114.001 Y28.968 E52.2607
G1 X114.698 Y29.289 E52.29018
G1 X115.495 Y29.396 E52.32107
G1 X116.261 Y29.306 E52.3507
G1 X117.043 Y28.942 E52.38384
G1 X117.61 Y28.476 E52.41203
G1 X118.029 Y27.845 E52.44113
G1 X118.298 Y27.098 E52.47163
G1 X118.31 Y26.054 E52.51174
G1 X118.052 Y25.318 E52.5417
G1 X117.616 Y24.651 E52.57231
G1 X117.09 Y24.204 E52.59883
G1 X116.398 Y23.861 E52.6285
G1 X115.519 Y23.72 E52.6627
G1 X114.748 Y23.812 E52.69253
G1 X113.987 Y24.155 E52.72459
G1 X113.25 Y24.826 E52.76288
G1 X112.853 Y25.516 E52.79346
G1 X112.653 Y26.492 E52.83173
G1 X112.82 Y27.523 E52.87186
M204 S3000
M205 X10 Y10
G0 F1800 X112.726 Y27.556
G0 X97.441 Y26.371
G0 X97.342 Y26.376
M204 S1800
M205 X8 Y8
G1 F900 X97.131 Y25.465 E52.90778
G1 X96.625 Y24.661 E52.94427
G1 X96.142 Y24.237 E52.96896
G1 X95.468 Y23.889 E52.9981
G1 X94.753 Y23.721 E53.02632
G1 X93.85 Y23.788 E53.0611
G1 X93.02 Y24.137 E53.09569
G1 X92.406 Y24.631 E53.12596
G1 X91.866 Y25.483 E53.16471
G1 X91.677 Y26.285 E53.19637
G1 X91.745 Y27.251 E53.23357
G1 X92.076 Y28.056 E53.26701
G1 X92.515 Y28.568 E53.29291
G1 X92.857 Y28.877 E53.31062
G1 X93.535 Y29.227 E53.33993
G1 X94.228 Y29.393 E53.36731
G1 X94.855 Y29.377 E53.3914
G1 X95.582 Y29.182 E53.42032
G1 X96.234 Y28.824 E53.44889
G1 X96.895 Y28.098 E53.48661
G1 X97.227 Y27.348 E53.51812
G1 X97.342 Y26.376 E53.55572
M204 S3000
M205 X10 Y10
G0 F1800 X97.441 Y26.371
G0 X97.265 Y27.358
G0 X96.928 Y28.119
G0 X96.325 Y28.781
G0 X82.624 Y36.417
G0 X82.624 Y36.518
M204 S1800
M205 X8 Y8
G1 F900 X82.344 Y36.518 E53.56647
G1 X82.344 Y36.238 E53.57344
G1 X82.345 Y17.202 E54.30471
G1 X127.379 Y17.201 E56.03471
G1 X127.659 Y17.201 E56.04547
G1 X127.659 Y17.481 E56.05243
G1 X127.659 Y36.517 E56.78371
G1 X82.624 Y36.518 E58.51375
M204 S3000
M205 X10 Y10
G0 F1800 X83.184 Y35.958
M204 S1800
M205 X8 Y8
G1 F900 X82.904 Y35.958 E58.52451
G1 X82.904 Y35.678 E58.53147
G1 X82.905 Y17.762 E59.21972
G1 X126.819 Y17.761 E60.9067
G1 X127.099 Y17.761 E60.91745
G1 X127.099 Y18.041 E60.92442
G1 X127.099 Y35.957 E61.61267
G1 X83.184 Y35.958 E63.29968
M204 S3000
M205 X10 Y10
G0 F1800 X96.258 Y28.855
G0 X96.861 Y28.193
G0 X97.91 Y26.345
M204 S1800
M205 X8 Y8
G1 F900 X97.655 Y25.247 E63.34298
G1 X97.056 Y24.294 E63.38623
G1 X96.46 Y23.771 E63.41669
G1 X95.663 Y23.36 E63.45114
G1 X94.797 Y23.156 E63.48531
G1 X93.717 Y23.236 E63.52692
G1 X92.73 Y23.651 E63.56805
G1 X91.983 Y24.253 E63.6049
G1 X91.343 Y25.263 E63.65084
G1 X91.112 Y26.239 E63.68936
G1 X91.193 Y27.38 E63.73331
G1 X91.592 Y28.352 E63.77367
G1 X92.113 Y28.96 E63.80443
G1 X92.536 Y29.341 E63.8263
G1 X93.338 Y29.756 E63.86099
G1 X94.169 Y29.955 E63.89381
G1 X94.936 Y29.935 E63.92329
G1 X95.792 Y29.705 E63.95734
G1 X96.585 Y29.27 E63.99208
G1 X97.37 Y28.408 E64.03687
G1 X97.773 Y27.498 E64.07511
G1 X97.91 Y26.345 E64.11971
M204 S3000
M205 X10 Y10
G0 F1800 X112.284 Y27.716
M204 S1800
M205 X8 Y8
G1 F900 X112.909 Y28.784 E64.16725
G1 X113.699 Y29.445 E64.20682
G1 X114.54 Y29.833 E64.2424
G1 X115.49 Y29.96 E64.27922
G1 X116.416 Y29.852 E64.31503
G1 X117.344 Y29.42 E64.35435
G1 X118.03 Y28.855 E64.38849
G1 X118.533 Y28.098 E64.42341
G1 X118.857 Y27.199 E64.46012
G1 X118.871 Y25.962 E64.50764
G1 X118.558 Y25.069 E64.54399
G1 X118.04 Y24.277 E64.58035
G1 X117.4 Y23.733 E64.61261
G1 X116.571 Y23.322 E64.64816
G1 X115.53 Y23.155 E64.68866
G1 X114.596 Y23.266 E64.72479
G1 X113.676 Y23.681 E64.76357
G1 X112.808 Y24.471 E64.80865
G1 X112.323 Y25.315 E64.84605
G1 X112.084 Y26.48 E64.89173
G1 X112.284 Y27.716 E64.93983
M204 S3000
M205 X10 Y10
G0 F1800 X111.758 Y27.905
M204 S1800
M205 X8 Y8
;TYPE:SKIN
G1 F900 X112.483 Y29.144 E64.99498
G1 X113.402 Y29.914 E65.04104
G1 X114.385 Y30.367 E65.08262
G1 X115.486 Y30.514 E65.12529
G1 X116.567 Y30.388 E65.1671
G1 X117.639 Y29.889 E65.21252
G1 X118.443 Y29.228 E65.2525
G1 X119.028 Y28.347 E65.29313
G1 X119.405 Y27.298 E65.33595
G1 X119.423 Y25.872 E65.39074
G1 X119.055 Y24.824 E65.43341
G1 X118.457 Y23.91 E65.47536
G1 X117.705 Y23.27 E65.5133
G1 X116.74 Y22.792 E65.55467
G1 X115.542 Y22.599 E65.60128
G1 X114.447 Y22.73 E65.64365
G1 X113.37 Y23.215 E65.68902
G1 X112.374 Y24.122 E65.74077
G1 X111.802 Y25.118 E65.7849
G1 X111.525 Y26.468 E65.83784
G1 X111.758 Y27.905 E65.89376
M204 S3000
M205 X10 Y10
G0 F1800 X98.468 Y26.314
M204 S1800
M205 X8 Y8
G1 F900 X98.17 Y25.033 E65.94428
G1 X97.479 Y23.933 E65.99419
G1 X96.772 Y23.313 E66.03031
G1 X95.855 Y22.84 E66.06995
G1 X94.84 Y22.602 E66.11
G1 X93.587 Y22.694 E66.15826
G1 X92.445 Y23.174 E66.20585
G1 X91.567 Y23.882 E66.24918
G1 X90.829 Y25.047 E66.30216
G1 X90.558 Y26.194 E66.34743
