;FLAVOR:Marlin
;TIME:13207
;Filament used: 8.82354m
;Layer height: 0.15
;MINX:65.3
;MINY:16.939
;MINZ:0.15
;MAXX:144.7
;MAXY:153.339
;MAXZ:24
;Generated with Cura_SteamEngine 4.5.0
M140 S60
M105
M190 S60
M104 S200
M105
M109 S200
M82 ;absolute extrusion mode
G21 ;metric values
G90 ;absolute positioning
M82 ;set extruder to absolute mode
M107 ;start with the fan off
G28 X0 Y0 ;move X/Y to min endstops
G28 Z0 ;move Z to min endstops
G1 Z15.0 F100 ;move the platform down 15mm
G92 E0 ;zero the extruded length
G1 F200 E3 ;extrude 3mm of feed stock
G92 E0 ;zero the extruded length again
G1 F100
G0 Y20 F100
M117 Printing...
G5
G92 E0
G92 E0
G1 F2400 E-6
;LAYER_COUNT:160
;LAYER:0
M106 S255
M204 S3000
M205 X10 Y10
G1 F600 Z0.225
G0 F1800 X65.943 Y22.946 Z0.225
M204 S1800
M205 X8 Y8
;TYPE:SKIRT
G1 F600 Z0.15
G1 F2400 E0
G1 X66.307 Y22.111 E0.03499
G1 X66.65 Y21.477 E0.06268
G1 X67.151 Y20.717 E0.09765
G1 X67.48 Y20.283 E0.11857
G1 X68.171 Y19.538 E0.15761
G1 X68.814 Y18.966 E0.19067
G1 X69.25 Y18.627 E0.21188
G1 X70.133 Y18.075 E0.25189
G1 X70.892 Y17.699 E0.28443
G1 X71.436 Y17.476 E0.30701
G1 X72.425 Y17.188 E0.34658
G1 X73.251 Y17.033 E0.37887
G1 X73.847 Y16.965 E0.40191
G1 X74.363 Y16.943 E0.42175
G1 X135.407 Y16.939 E2.76679
G1 X136.429 Y16.995 E2.80611
G1 X136.995 Y17.07 E2.82804
G1 X137.638 Y17.2 E2.85324
G1 X138.307 Y17.394 E2.88
G1 X139.117 Y17.704 E2.91332
G1 X139.795 Y18.037 E2.94233
G1 X140.548 Y18.494 E2.97617
G1 X141.02 Y18.827 E2.99836
G1 X141.786 Y19.497 E3.03746
G1 X142.385 Y20.133 E3.07102
G1 X142.729 Y20.549 E3.09176
G1 X143.294 Y21.387 E3.13058
G1 X143.716 Y22.163 E3.16451
G1 X143.994 Y22.792 E3.19093
G1 X144.294 Y23.656 E3.22607
G1 X144.435 Y24.163 E3.24628
G1 X144.612 Y25.161 E3.28522
G1 X144.686 Y26.058 E3.3198
G1 X144.7 Y76.018 E5.23903
G1 X144.681 Y76.686 E5.2647
G1 X144.626 Y77.243 E5.28621
G1 X144.476 Y78.144 E5.32129
G1 X144.31 Y78.805 E5.34748
G1 X144.015 Y79.673 E5.38269
G1 X143.8 Y80.19 E5.4042
G1 X143.335 Y81.057 E5.442
G1 X142.853 Y81.789 E5.47567
G1 X142.407 Y82.354 E5.50332
G1 X141.794 Y83.007 E5.53772
G1 X141.249 Y83.494 E5.5658
G1 X140.545 Y84.021 E5.59958
G1 X139.906 Y84.416 E5.62844
G1 X139.118 Y84.81 E5.66229
G1 X138.557 Y85.041 E5.68559
G1 X138.248 Y85.143 E5.69809
G1 X138.926 Y85.381 E5.7257
G1 X139.784 Y85.793 E5.76226
G1 X140.317 Y86.106 E5.78601
G1 X140.739 Y86.39 E5.80555
G1 X141.242 Y86.774 E5.82986
G1 X141.732 Y87.213 E5.85513
G1 X142.35 Y87.861 E5.88953
G1 X142.71 Y88.293 E5.91113
G1 X143.009 Y88.705 E5.93069
G1 X143.297 Y89.16 E5.95137
G1 X143.715 Y89.926 E5.9849
G1 X143.997 Y90.564 E6.01169
G1 X144.294 Y91.422 E6.04657
G1 X144.439 Y91.952 E6.06768
G1 X144.542 Y92.454 E6.08737
G1 X144.614 Y92.951 E6.10666
G1 X144.686 Y93.82 E6.14016
G1 X144.7 Y143.873 E8.06297
G1 X144.612 Y145.118 E8.11091
G1 X144.499 Y145.799 E8.13743
G1 X144.285 Y146.65 E8.17114
G1 X144.129 Y147.141 E8.19093
G1 X143.943 Y147.622 E8.21074
G1 X143.719 Y148.107 E8.23127
G1 X143.302 Y148.877 E8.2649
G1 X143.017 Y149.332 E8.28553
G1 X142.421 Y150.108 E8.32312
G1 X141.992 Y150.575 E8.34748
G1 X141.155 Y151.34 E8.39104
G1 X140.588 Y151.758 E8.4181
G1 X139.871 Y152.198 E8.45042
G1 X139.219 Y152.524 E8.47842
G1 X138.377 Y152.857 E8.5132
G1 X137.794 Y153.039 E8.53666
G1 X136.73 Y153.247 E8.57831
G1 X135.911 Y153.321 E8.6099
G1 X74.479 Y153.339 E10.96984
G1 X73.248 Y153.245 E11.01727
G1 X72.615 Y153.139 E11.04192
G1 X71.635 Y152.862 E11.08105
G1 X70.873 Y152.569 E11.11241
G1 X70.197 Y152.237 E11.14134
G1 X69.446 Y151.78 E11.17511
G1 X68.891 Y151.376 E11.20148
G1 X68.384 Y150.94 E11.22717
G1 X67.573 Y150.101 E11.272
G1 X67.169 Y149.584 E11.2972
G1 X66.672 Y148.835 E11.33173
G1 X66.397 Y148.354 E11.35302
G1 X66.004 Y147.491 E11.38945
G1 X65.784 Y146.878 E11.41447
G1 X65.495 Y145.784 E11.45793
G1 X65.391 Y145.142 E11.48292
G1 X65.318 Y144.256 E11.51707
G1 X65.3 Y94.179 E13.4408
G1 X65.384 Y92.956 E13.48789
G1 X65.496 Y92.273 E13.51448
G1 X65.722 Y91.368 E13.55032
G1 X65.89 Y90.844 E13.57146
G1 X66.284 Y89.929 E13.60973
G1 X66.693 Y89.174 E13.64271
G1 X67.079 Y88.586 E13.66973
G1 X67.63 Y87.882 E13.70407
G1 X68.001 Y87.468 E13.72543
G1 X68.786 Y86.753 E13.76622
G1 X69.45 Y86.259 E13.79801
G1 X70.077 Y85.873 E13.8263
G1 X70.868 Y85.477 E13.86028
G1 X71.578 Y85.199 E13.88957
G1 X71.771 Y85.143 E13.89729
G1 X70.869 Y84.803 E13.93432
G1 X70.337 Y84.554 E13.95689
G1 X69.475 Y84.033 E13.99558
G1 X68.782 Y83.519 E14.02873
G1 X68.239 Y83.039 E14.05657
G1 X67.628 Y82.396 E14.09064
G1 X67.174 Y81.826 E14.11863
G1 X66.67 Y81.067 E14.15363
G1 X66.398 Y80.594 E14.1746
G1 X65.987 Y79.678 E14.21316
G1 X65.7 Y78.837 E14.2473
G1 X65.535 Y78.187 E14.27306
G1 X65.381 Y77.284 E14.30825
G1 X65.324 Y76.749 E14.32892
G1 X65.303 Y76.233 E14.34876
G1 X65.3 Y26.511 E16.25885
G1 X65.384 Y25.202 E16.30924
G1 X65.498 Y24.49 E16.33694
G1 X65.718 Y23.608 E16.37186
G1 X65.943 Y22.946 E16.39872
M204 S3000
M205 X10 Y10
G0 F1800 X66.456 Y23.169
M204 S1800
M205 X8 Y8
G1 F2400 X66.82 Y22.334 E16.43372
G1 X67.118 Y21.786 E16.45768
G1 X67.619 Y21.026 E16.49265
G1 X68.209 Y20.296 E16.5287
G1 X69.187 Y19.384 E16.58008
G1 X69.955 Y18.826 E16.61654
G1 X71.14 Y18.201 E16.66801
G1 X71.612 Y18.007 E16.68761
G1 X72.529 Y17.738 E16.72432
G1 X73.355 Y17.583 E16.75661
G1 X73.871 Y17.524 E16.77656
G1 X74.387 Y17.502 E16.7964
G1 X135.407 Y17.499 E19.14051
G1 X136.394 Y17.554 E19.17849
G1 X137.527 Y17.749 E19.22265
G1 X138.107 Y17.917 E19.24585
G1 X138.917 Y18.227 E19.27917
G1 X139.505 Y18.515 E19.30432
G1 X140.258 Y18.972 E19.33816
G1 X140.667 Y19.261 E19.35739
G1 X141.379 Y19.881 E19.39366
G1 X141.978 Y20.517 E19.42723
G1 X142.552 Y21.259 E19.46326
G1 X143.224 Y22.431 E19.51516
G1 X143.465 Y22.976 E19.53805
G1 X143.765 Y23.84 E19.57319
G1 X143.987 Y24.752 E19.60925
G1 X144.128 Y26.104 E19.66147
G1 X144.14 Y76.018 E21.57894
G1 X144.121 Y76.669 E21.60395
G1 X143.924 Y78.052 E21.65762
G1 X143.779 Y78.625 E21.68033
G1 X143.484 Y79.493 E21.71554
G1 X143.087 Y80.366 E21.75238
G1 X142.385 Y81.481 E21.803
G1 X141.999 Y81.97 E21.82693
G1 X141.386 Y82.623 E21.86134
G1 X140.913 Y83.046 E21.88572
G1 X140.209 Y83.573 E21.9195
G1 X139.656 Y83.915 E21.94448
G1 X138.868 Y84.309 E21.97832
G1 X138.382 Y84.509 E21.99851
G1 X137.528 Y84.764 E22.03275
G1 X136.912 Y84.889 E22.05689
G1 X135.827 Y85.002 E22.0988
G1 X74.599 Y85.014 E24.4509
G1 X73.33 Y84.925 E24.49977
G1 X72.783 Y84.839 E24.52104
G1 X71.864 Y84.587 E24.55765
G1 X71.071 Y84.281 E24.5903
G1 X70.61 Y84.065 E24.60986
G1 X69.809 Y83.584 E24.64575
G1 X69.116 Y83.07 E24.6789
G1 X68.645 Y82.653 E24.70306
G1 X68.034 Y82.01 E24.73714
G1 X67.641 Y81.517 E24.76136
G1 X67.137 Y80.758 E24.79636
G1 X66.694 Y79.925 E24.8326
G1 X66.23 Y78.657 E24.88447
G1 X66.087 Y78.093 E24.90682
G1 X65.933 Y77.19 E24.94201
G1 X65.863 Y76.21 E24.97976
G1 X65.86 Y26.511 E26.88897
G1 X65.943 Y25.242 E26.93782
G1 X66.041 Y24.625 E26.96182
G1 X66.261 Y23.743 E26.99674
G1 X66.456 Y23.169 E27.02003
M204 S3000
M205 X10 Y10
G0 F1800 X66.97 Y23.393
M204 S1800
M205 X8 Y8
G1 F2400 X67.334 Y22.558 E27.05502
G1 X67.585 Y22.094 E27.07529
G1 X68.086 Y21.334 E27.11025
G1 X68.632 Y20.662 E27.14352
G1 X69.559 Y19.803 E27.19207
G1 X70.269 Y19.289 E27.22574
G1 X71.389 Y18.703 E27.2743
G1 X72.232 Y18.392 E27.30881
G1 X73.458 Y18.134 E27.35694
G1 X74.411 Y18.062 E27.39366
G1 X135.407 Y18.059 E29.73685
G1 X136.358 Y18.113 E29.77344
G1 X137.416 Y18.298 E29.8147
G1 X137.907 Y18.44 E29.83433
G1 X138.717 Y18.75 E29.86765
G1 X139.214 Y18.994 E29.88892
G1 X139.967 Y19.451 E29.92276
G1 X140.673 Y19.988 E29.95683
G1 X141.57 Y20.901 E30.006
G1 X142.098 Y21.587 E30.03926
G1 X142.732 Y22.699 E30.08843
G1 X142.936 Y23.16 E30.1078
G1 X143.236 Y24.024 E30.14293
G1 X143.439 Y24.868 E30.17628
G1 X143.57 Y26.15 E30.22578
G1 X143.58 Y76.018 E32.14149
G1 X143.561 Y76.651 E32.16581
G1 X143.371 Y77.96 E32.21663
G1 X143.249 Y78.445 E32.23584
G1 X142.954 Y79.313 E32.27106
G1 X142.586 Y80.117 E32.30502
G1 X141.917 Y81.173 E32.35305
G1 X141.591 Y81.587 E32.37329
G1 X140.978 Y82.24 E32.4077
G1 X140.578 Y82.598 E32.42832
G1 X139.874 Y83.125 E32.4621
G1 X139.405 Y83.414 E32.48326
G1 X138.617 Y83.808 E32.51711
G1 X137.77 Y84.122 E32.55181
G1 X136.801 Y84.34 E32.58996
G1 X135.782 Y84.444 E32.62931
G1 X74.599 Y84.454 E34.97969
G1 X73.375 Y84.366 E35.02683
G1 X72.467 Y84.189 E35.06236
G1 X71.272 Y83.758 E35.11117
G1 X70.478 Y83.351 E35.14544
G1 X69.449 Y82.62 E35.19393
G1 X69.051 Y82.268 E35.21434
G1 X68.44 Y81.625 E35.24842
G1 X68.107 Y81.207 E35.26895
G1 X67.603 Y80.448 E35.30395
G1 X67.197 Y79.678 E35.33739
G1 X66.76 Y78.476 E35.38652
G1 X66.639 Y77.999 E35.40542
G1 X66.485 Y77.096 E35.44061
G1 X66.423 Y76.187 E35.47561
G1 X66.42 Y26.511 E37.38394
G1 X66.501 Y25.283 E37.43122
G1 X66.585 Y24.761 E37.45153
G1 X66.805 Y23.879 E37.48645
G1 X66.97 Y23.393 E37.50616
M204 S3000
M205 X10 Y10
G0 F1800 X67.348 Y24.014
M204 S1800
M205 X8 Y8
G1 F2400 X67.847 Y22.782 E37.55723
G1 X68.053 Y22.402 E37.57383
G1 X68.554 Y21.642 E37.6088
G1 X69.056 Y21.028 E37.63927
G1 X69.931 Y20.221 E37.68499
G1 X70.583 Y19.753 E37.71583
G1 X71.637 Y19.205 E37.76146
G1 X72.408 Y18.924 E37.79299
G1 X73.561 Y18.684 E37.83823
G1 X74.435 Y18.621 E37.87189
G1 X135.407 Y18.619 E40.21416
G1 X136.323 Y18.672 E40.24941
G1 X137.305 Y18.847 E40.28772
G1 X138.517 Y19.273 E40.33708
G1 X138.923 Y19.473 E40.35446
G1 X139.676 Y19.93 E40.3883
G1 X140.32 Y20.423 E40.41946
G1 X141.162 Y21.285 E40.46575
G1 X141.645 Y21.916 E40.49627
G1 X142.24 Y22.966 E40.54263
G1 X142.707 Y24.207 E40.59357
G1 X142.891 Y24.984 E40.62425
G1 X143.011 Y26.196 E40.67103
G1 X143.02 Y76.018 E42.58497
G1 X143.002 Y76.633 E42.6086
G1 X142.819 Y77.868 E42.65657
G1 X142.424 Y79.133 E42.70747
G1 X142.084 Y79.868 E42.73858
G1 X141.45 Y80.865 E42.78397
G1 X140.569 Y81.857 E42.83494
G1 X140.242 Y82.149 E42.85178
G1 X139.538 Y82.676 E42.88556
G1 X139.155 Y82.913 E42.90287
G1 X138.367 Y83.307 E42.93671
G1 X137.594 Y83.59 E42.96833
G1 X136.689 Y83.792 E43.00395
G1 X135.738 Y83.886 E43.04067
G1 X74.599 Y83.894 E45.38935
G1 X73.419 Y83.808 E45.4348
G1 X72.595 Y83.644 E45.46707
G1 X71.474 Y83.236 E45.5129
G1 X70.751 Y82.862 E45.54417
G1 X69.783 Y82.17 E45.58988
G1 X69.457 Y81.882 E45.60659
G1 X68.846 Y81.239 E45.64067
G1 X68.574 Y80.897 E45.65745
G1 X68.07 Y80.138 E45.69245
G1 X67.7 Y79.432 E45.72307
G1 X67.29 Y78.295 E45.76951
G1 X67.037 Y77.002 E45.82012
G1 X66.982 Y76.164 E45.85238
G1 X66.98 Y26.511 E47.75982
G1 X67.06 Y25.323 E47.80556
G1 X67.128 Y24.896 E47.82217
G1 X67.348 Y24.014 E47.85709
M204 S3000
M205 X10 Y10
G0 F1800 X67.891 Y24.15
M204 S1800
M205 X8 Y8
G1 F2400 X68.36 Y23.006 E47.90459
G1 X69.022 Y21.95 E47.95247
G1 X69.48 Y21.395 E47.98011
G1 X70.303 Y20.64 E48.02302
G1 X70.897 Y20.217 E48.05103
G1 X71.886 Y19.707 E48.09378
G1 X72.584 Y19.455 E48.12229
G1 X73.665 Y19.235 E48.16466
G1 X74.459 Y19.181 E48.19524
G1 X135.407 Y19.179 E50.53658
G1 X136.287 Y19.231 E50.57045
G1 X137.194 Y19.396 E50.60586
G1 X138.317 Y19.796 E50.65166
G1 X139.386 Y20.408 E50.69898
G1 X139.966 Y20.857 E50.72715
G1 X140.755 Y21.669 E50.77065
G1 X141.191 Y22.244 E50.79837
G1 X141.748 Y23.234 E50.84201
G1 X142.178 Y24.391 E50.88942
G1 X142.343 Y25.1 E50.91739
G1 X142.453 Y26.242 E50.96146
G1 X142.46 Y76.018 E52.87363
G1 X142.442 Y76.615 E52.89657
G1 X142.266 Y77.776 E52.94168
G1 X141.894 Y78.953 E52.9891
G1 X141.583 Y79.619 E53.01734
G1 X140.982 Y80.557 E53.06014
G1 X140.161 Y81.473 E53.10739
G1 X139.203 Y82.228 E53.15425
G1 X138.117 Y82.806 E53.20151
G1 X137.419 Y83.058 E53.23001
G1 X136.578 Y83.243 E53.26309
G1 X135.693 Y83.328 E53.29725
G1 X74.599 Y83.334 E55.6442
G1 X73.463 Y83.25 E55.68796
G1 X72.724 Y83.099 E55.71694
G1 X71.675 Y82.714 E55.75986
G1 X71.023 Y82.372 E55.78815
G1 X70.116 Y81.72 E55.83106
G1 X69.252 Y80.853 E55.87808
G1 X68.536 Y79.828 E55.92611
G1 X68.202 Y79.185 E55.95394
G1 X67.82 Y78.114 E55.99763
G1 X67.589 Y76.908 E56.0448
G1 X67.542 Y76.142 E56.07428
G1 X67.54 Y26.511 E57.98088
G1 X67.618 Y25.364 E58.02504
G1 X67.891 Y24.15 E58.07284
M204 S3000
M205 X10 Y10
G0 F1800 X68.435 Y24.285
M204 S1800
M205 X8 Y8
G1 F2400 X68.874 Y23.23 E58.11674
G1 X69.489 Y22.258 E58.16093
G1 X69.904 Y21.761 E58.1858
G1 X70.675 Y21.058 E58.22588
G1 X71.212 Y20.68 E58.25111
G1 X72.135 Y20.208 E58.29093
G1 X72.76 Y19.987 E58.3164
G1 X73.768 Y19.785 E58.35589
G1 X74.482 Y19.74 E58.38337
G1 X135.407 Y19.739 E60.72384
G1 X136.252 Y19.79 E60.75636
G1 X137.083 Y19.945 E60.78883
G1 X138.116 Y20.319 E60.83103
G1 X139.095 Y20.887 E60.87451
G1 X139.613 Y21.291 E60.89975
G1 X140.347 Y22.053 E60.94039
G1 X140.738 Y22.573 E60.96539
G1 X141.256 Y23.501 E61.00622
G1 X141.649 Y24.575 E61.05015
G1 X141.796 Y25.216 E61.07541
G1 X141.895 Y26.288 E61.11677
G1 X141.9 Y76.018 E63.02717
G1 X141.882 Y76.597 E63.04942
G1 X141.714 Y77.684 E63.09168
G1 X141.364 Y78.772 E63.13558
G1 X141.081 Y79.37 E63.161
G1 X140.514 Y80.249 E63.20118
G1 X139.753 Y81.09 E63.24475
G1 X138.867 Y81.78 E63.28789
G1 X137.866 Y82.305 E63.33131
G1 X137.243 Y82.526 E63.35671
G1 X136.466 Y82.694 E63.38724
G1 X135.648 Y82.77 E63.4188
G1 X74.599 Y82.774 E65.76403
G1 X73.508 Y82.692 E65.80606
G1 X72.852 Y82.554 E65.83181
G1 X71.877 Y82.191 E65.87178
G1 X71.296 Y81.883 E65.89704
G1 X70.45 Y81.27 E65.93717
G1 X69.658 Y80.467 E65.9805
G1 X69.003 Y79.518 E66.0248
G1 X68.705 Y78.939 E66.04981
G1 X68.35 Y77.933 E66.09079
G1 X68.141 Y76.813 E66.13456
G1 X68.101 Y76.119 E66.16127
G1 X68.1 Y26.511 E68.06698
G1 X68.177 Y25.405 E68.10957
G1 X68.435 Y24.285 E68.15372
M204 S3000
M205 X10 Y10
G0 F1800 X68.978 Y24.421
M204 S1800
M205 X8 Y8
G1 F2400 X69.387 Y23.453 E68.19409
G1 X69.957 Y22.567 E68.23456
G1 X70.327 Y22.127 E68.25665
G1 X71.048 Y21.476 E68.29397
G1 X71.526 Y21.144 E68.31632
G1 X72.383 Y20.71 E68.35323
G1 X72.936 Y20.519 E68.3757
G1 X73.871 Y20.335 E68.41231
G1 X74.506 Y20.3 E68.43674
G1 X135.407 Y20.299 E70.77628
G1 X136.216 Y20.349 E70.80742
G1 X136.972 Y20.494 E70.83699
G1 X137.916 Y20.842 E70.87564
G1 X138.805 Y21.366 E70.91528
G1 X139.259 Y21.726 E70.93754
G1 X139.939 Y22.437 E70.97533
G1 X140.284 Y22.901 E70.99754
G1 X140.764 Y23.769 E71.03565
G1 X141.12 Y24.758 E71.07603
G1 X141.248 Y25.332 E71.09862
G1 X141.337 Y26.334 E71.13726
G1 X141.34 Y76.045 E73.04693
G1 X141.323 Y76.58 E73.0675
G1 X141.162 Y77.592 E73.10686
G1 X140.833 Y78.592 E73.1473
G1 X140.579 Y79.121 E73.16985
G1 X140.047 Y79.941 E73.2074
G1 X139.344 Y80.707 E73.24734
G1 X138.531 Y81.331 E73.28671
G1 X137.616 Y81.804 E73.32628
G1 X137.067 Y81.995 E73.34861
G1 X136.355 Y82.145 E73.37656
G1 X135.604 Y82.211 E73.40552
G1 X74.599 Y82.214 E75.74905
G1 X73.552 Y82.133 E75.7894
G1 X72.981 Y82.009 E75.81184
G1 X72.079 Y81.669 E75.84887
G1 X71.568 Y81.394 E75.87116
G1 X70.784 Y80.821 E75.90847
G1 X70.064 Y80.082 E75.9481
G1 X69.469 Y79.209 E75.98869
G1 X69.208 Y78.692 E76.01094
G1 X68.88 Y77.752 E76.04918
G1 X68.693 Y76.719 E76.08951
G1 X68.661 Y76.096 E76.11348
G1 X68.66 Y26.511 E78.01831
G1 X68.735 Y25.445 E78.05936
G1 X68.978 Y24.421 E78.09979
M204 S3000
M205 X10 Y10
G0 F1800 X69.521 Y24.556
M204 S1800
M205 X8 Y8
G1 F2400 X69.9 Y23.677 E78.13656
G1 X70.424 Y22.875 E78.17336
G1 X70.751 Y22.493 E78.19268
G1 X71.42 Y21.895 E78.22715
G1 X71.84 Y21.607 E78.24671
G1 X72.632 Y21.212 E78.28071
G1 X73.112 Y21.05 E78.30017
G1 X73.974 Y20.886 E78.33388
G1 X74.53 Y20.859 E78.35527
G1 X135.407 Y20.859 E80.69388
G1 X136.181 Y20.908 E80.72368
G1 X136.861 Y21.043 E80.75031
G1 X137.716 Y21.365 E80.78541
G1 X138.514 Y21.845 E80.82118
G1 X138.906 Y22.16 E80.8405
G1 X139.532 Y22.821 E80.87547
G1 X139.831 Y23.23 E80.89493
G1 X140.272 Y24.036 E80.93023
G1 X140.591 Y24.942 E80.96713
G1 X140.7 Y25.448 E80.98701
G1 X140.779 Y26.38 E81.02294
G1 X140.78 Y76.027 E82.93016
G1 X140.763 Y76.562 E82.95072
G1 X140.609 Y77.5 E82.98723
G1 X140.303 Y78.412 E83.02419
G1 X140.078 Y78.872 E83.04386
G1 X139.579 Y79.633 E83.07882
G1 X138.936 Y80.324 E83.11508
G1 X138.196 Y80.883 E83.15071
G1 X137.365 Y81.303 E83.18647
G1 X136.86 Y81.471 E83.20692
G1 X136.244 Y81.596 E83.23107
G1 X135.559 Y81.653 E83.25747
G1 X74.599 Y81.654 E85.59928
G1 X73.597 Y81.575 E85.63789
G1 X73.073 Y81.452 E85.65857
G1 X72.28 Y81.146 E85.69122
