;FLAVOR:Marlin
;TIME:8902
;Filament used: 4.02061m
;Layer height: 0.1
;MINX:97.8
;MINY:8.925
;MINZ:0.15
;MAXX:112.2
;MAXY:117.325
;MAXZ:99.95
;Generated with Cura_SteamEngine 4.5.0
M140 S60
M105
M190 S60
M104 S200
M105
M109 S200
M82 ;absolute extrusion mode
G21 ;metric values
G90 ;absolute positioning
M82 ;set extruder to absolute mode
M107 ;start with the fan off
G28 X0 Y0 ;move X/Y to min endstops
G28 Z0 ;move Z to min endstops
G1 Z15.0 F100 ;move the platform down 15mm
G92 E0 ;zero the extruded length
G1 F200 E3 ;extrude 3mm of feed stock
G92 E0 ;zero the extruded length again
G1 F100
G0 Y20 F100
M117 Printing...
G5
G92 E0
G92 E0
G1 F2400 E-6
;LAYER_COUNT:999
;LAYER:0
M106 S255
M204 S3000
M205 X10 Y10
G1 F600 Z0.225
G0 F1800 X97.84 Y12.547 Z0.225
M204 S1800
M205 X8 Y8
;TYPE:SKIRT
G1 F600 Z0.15
G1 F2400 E0
G1 X97.959 Y11.98 E0.02226
G1 X98.155 Y11.435 E0.04451
G1 X98.424 Y10.922 E0.06676
G1 X98.761 Y10.451 E0.08901
G1 X99.16 Y10.031 E0.11126
G1 X99.613 Y9.669 E0.13354
G1 X100.111 Y9.374 E0.15577
G1 X100.645 Y9.149 E0.17803
G1 X101.205 Y9.001 E0.20028
G1 X102 Y8.925 E0.23096
G1 X108 Y8.925 E0.46146
G1 X108.578 Y8.965 E0.48371
G1 X109.145 Y9.084 E0.50597
G1 X109.69 Y9.28 E0.52822
G1 X110.203 Y9.549 E0.55047
G1 X110.674 Y9.886 E0.57272
G1 X111.094 Y10.285 E0.59497
G1 X111.456 Y10.738 E0.61725
G1 X111.751 Y11.236 E0.63948
G1 X111.976 Y11.77 E0.66175
G1 X112.124 Y12.33 E0.684
G1 X112.2 Y13.125 E0.71468
G1 X112.2 Y112.708 E4.5402
G1 X112.149 Y113.748 E4.5802
G1 X112.023 Y114.314 E4.60248
G1 X111.821 Y114.857 E4.62473
G1 X111.547 Y115.367 E4.64697
G1 X111.205 Y115.834 E4.66921
G1 X110.801 Y116.25 E4.69149
G1 X110.345 Y116.606 E4.71371
G1 X109.843 Y116.896 E4.73598
G1 X109.307 Y117.115 E4.75823
G1 X108.745 Y117.257 E4.78049
G1 X107.995 Y117.325 E4.80942
G1 X102 Y117.325 E5.03972
G1 X101.422 Y117.285 E5.06198
G1 X100.855 Y117.166 E5.08424
G1 X100.31 Y116.97 E5.10649
G1 X99.797 Y116.701 E5.12874
G1 X99.326 Y116.364 E5.15099
G1 X98.906 Y115.965 E5.17324
G1 X98.544 Y115.512 E5.19552
G1 X98.249 Y115.014 E5.21775
G1 X98.024 Y114.48 E5.24001
G1 X97.876 Y113.92 E5.26226
G1 X97.8 Y113.125 E5.29294
G1 X97.8 Y13.125 E9.13449
G1 X97.84 Y12.547 E9.15675
M204 S3000
M205 X10 Y10
G0 F1800 X98.4 Y12.587
M204 S1800
M205 X8 Y8
G1 F2400 X98.519 Y12.061 E9.17746
G1 X98.714 Y11.559 E9.19815
G1 X98.982 Y11.09 E9.2189
G1 X99.315 Y10.667 E9.23958
G1 X99.708 Y10.297 E9.26032
G1 X100.151 Y9.99 E9.28102
G1 X100.635 Y9.751 E9.30176
G1 X101.148 Y9.586 E9.32246
G1 X101.68 Y9.499 E9.34317
G1 X108 Y9.485 E9.58596
G1 X108.538 Y9.525 E9.60668
G1 X109.064 Y9.644 E9.6274
G1 X109.566 Y9.839 E9.64809
G1 X110.035 Y10.107 E9.66884
G1 X110.458 Y10.44 E9.68952
G1 X110.828 Y10.833 E9.71025
G1 X111.135 Y11.276 E9.73096
G1 X111.374 Y11.76 E9.7517
G1 X111.539 Y12.273 E9.7724
G1 X111.626 Y12.805 E9.79311
G1 X111.64 Y112.702 E13.63069
G1 X111.589 Y113.702 E13.66916
G1 X111.464 Y114.226 E13.68985
G1 X111.264 Y114.727 E13.71058
G1 X110.991 Y115.192 E13.73129
G1 X110.653 Y115.612 E13.752
G1 X110.256 Y115.977 E13.77272
G1 X109.81 Y116.28 E13.79343
G1 X109.324 Y116.514 E13.81415
G1 X108.809 Y116.673 E13.83486
G1 X108.275 Y116.754 E13.85561
G1 X102 Y116.765 E14.09667
G1 X101.462 Y116.725 E14.11739
G1 X100.936 Y116.606 E14.13811
G1 X100.434 Y116.411 E14.1588
G1 X99.965 Y116.143 E14.17955
G1 X99.542 Y115.81 E14.20023
G1 X99.172 Y115.417 E14.22096
G1 X98.865 Y114.974 E14.24167
G1 X98.626 Y114.49 E14.2624
G1 X98.461 Y113.977 E14.28311
G1 X98.374 Y113.445 E14.30381
G1 X98.36 Y13.125 E18.15765
G1 X98.4 Y12.587 E18.17838
M204 S3000
M205 X10 Y10
G0 F1800 X98.96 Y12.631
M204 S1800
M205 X8 Y8
G1 F2400 X99.079 Y12.149 E18.19745
G1 X99.273 Y11.693 E18.21649
G1 X99.538 Y11.274 E18.23553
G1 X99.868 Y10.903 E18.25461
G1 X100.252 Y10.589 E18.27366
G1 X100.682 Y10.341 E18.29273
G1 X101.145 Y10.166 E18.31174
G1 X101.632 Y10.067 E18.33084
G1 X108 Y10.045 E18.57547
G1 X108.976 Y10.204 E18.61345
G1 X109.432 Y10.398 E18.63249
G1 X109.851 Y10.663 E18.65154
G1 X110.222 Y10.993 E18.67061
G1 X110.536 Y11.377 E18.68967
G1 X110.784 Y11.807 E18.70874
G1 X110.959 Y12.27 E18.72775
G1 X111.058 Y12.757 E18.74684
G1 X111.08 Y112.696 E22.58604
G1 X111.03 Y113.652 E22.62282
G1 X110.906 Y114.132 E22.64186
G1 X110.706 Y114.587 E22.66096
G1 X110.436 Y115.003 E22.68001
G1 X110.103 Y115.37 E22.69905
G1 X109.716 Y115.68 E22.71809
G1 X109.283 Y115.923 E22.73717
G1 X108.817 Y116.093 E22.75622
G1 X108.33 Y116.187 E22.77528
G1 X102 Y116.205 E23.01845
G1 X101.506 Y116.165 E23.03749
G1 X101.024 Y116.046 E23.05656
G1 X100.568 Y115.852 E23.0756
G1 X100.149 Y115.587 E23.09464
G1 X99.778 Y115.257 E23.11372
G1 X99.464 Y114.873 E23.13277
G1 X99.216 Y114.443 E23.15184
G1 X99.041 Y113.98 E23.17085
G1 X98.942 Y113.493 E23.18995
G1 X98.92 Y13.125 E27.04563
G1 X98.96 Y12.631 E27.06467
M204 S3000
M205 X10 Y10
G0 F1800 X99.52 Y12.678
M204 S1800
M205 X8 Y8
G1 F2400 X99.638 Y12.246 E27.08187
G1 X99.832 Y11.841 E27.09912
G1 X100.094 Y11.477 E27.11635
G1 X100.416 Y11.165 E27.13358
G1 X100.789 Y10.915 E27.15082
G1 X101.2 Y10.735 E27.16806
G1 X101.636 Y10.631 E27.18528
G1 X108 Y10.605 E27.42976
G1 X108.879 Y10.763 E27.46407
G1 X109.284 Y10.957 E27.48132
G1 X109.648 Y11.219 E27.49855
G1 X109.96 Y11.541 E27.51577
G1 X110.21 Y11.914 E27.53302
G1 X110.39 Y12.325 E27.55026
G1 X110.494 Y12.761 E27.56748
G1 X110.52 Y13.125 E27.58149
G1 X110.52 Y112.69 E31.40633
G1 X110.47 Y113.599 E31.4413
G1 X110.347 Y114.03 E31.45852
G1 X110.149 Y114.433 E31.47577
G1 X109.883 Y114.794 E31.493
G1 X109.558 Y115.102 E31.5102
G1 X109.182 Y115.348 E31.52746
G1 X108.769 Y115.523 E31.54469
G1 X108.332 Y115.622 E31.5619
G1 X102 Y115.645 E31.80515
G1 X101.553 Y115.605 E31.82239
G1 X101.121 Y115.487 E31.83959
G1 X100.716 Y115.293 E31.85684
G1 X100.352 Y115.031 E31.87407
G1 X100.04 Y114.709 E31.8913
G1 X99.79 Y114.336 E31.90855
G1 X99.61 Y113.925 E31.92578
G1 X99.506 Y113.489 E31.943
G1 X99.48 Y113.125 E31.95702
G1 X99.48 Y13.125 E35.79857
G1 X99.52 Y12.678 E35.81581
M204 S3000
M205 X10 Y10
G0 F1800 X100.08 Y12.732
M204 S1800
M205 X8 Y8
G1 F2400 X100.198 Y12.354 E35.83102
G1 X100.389 Y12.008 E35.8462
G1 X100.646 Y11.707 E35.86141
G1 X100.959 Y11.465 E35.87661
G1 X101.313 Y11.289 E35.89179
G1 X101.696 Y11.189 E35.907
G1 X108 Y11.165 E36.14917
G1 X108.771 Y11.323 E36.17941
G1 X109.117 Y11.514 E36.19459
G1 X109.418 Y11.771 E36.20979
G1 X109.66 Y12.084 E36.22499
G1 X109.836 Y12.438 E36.24018
G1 X109.936 Y12.821 E36.25538
G1 X109.96 Y112.684 E40.09167
G1 X109.911 Y113.539 E40.12457
G1 X109.789 Y113.915 E40.13975
G1 X109.593 Y114.259 E40.15496
G1 X109.333 Y114.557 E40.17015
G1 X109.018 Y114.797 E40.18537
G1 X108.662 Y114.968 E40.20054
G1 X108.279 Y115.064 E40.21571
G1 X102 Y115.085 E40.45692
G1 X101.607 Y115.045 E40.47209
G1 X101.229 Y114.927 E40.48731
G1 X100.883 Y114.736 E40.50249
G1 X100.582 Y114.479 E40.51769
G1 X100.34 Y114.166 E40.53289
G1 X100.164 Y113.812 E40.54808
G1 X100.064 Y113.429 E40.56329
G1 X100.04 Y13.125 E44.41651
G1 X100.08 Y12.732 E44.43168
M204 S3000
M205 X10 Y10
G0 F1800 X100.64 Y12.793
M204 S1800
M205 X8 Y8
G1 F2400 X100.757 Y12.481 E44.44449
G1 X100.945 Y12.204 E44.45735
G1 X101.193 Y11.981 E44.47016
G1 X101.487 Y11.822 E44.483
G1 X102 Y11.725 E44.50305
G1 X108 Y11.725 E44.73355
G1 X108.644 Y11.882 E44.75901
G1 X108.921 Y12.07 E44.77187
G1 X109.144 Y12.318 E44.78468
G1 X109.303 Y12.612 E44.79752
G1 X109.4 Y13.125 E44.81758
G1 X109.4 Y112.678 E48.64195
G1 X109.351 Y113.471 E48.67248
G1 X109.231 Y113.783 E48.68532
G1 X109.04 Y114.057 E48.69815
G1 X108.789 Y114.278 E48.711
G1 X108.493 Y114.433 E48.72383
G1 X107.995 Y114.525 E48.74329
G1 X102 Y114.525 E48.97359
G1 X101.668 Y114.485 E48.98643
G1 X101.356 Y114.368 E48.99923
G1 X101.079 Y114.18 E49.01209
G1 X100.856 Y113.932 E49.02491
G1 X100.697 Y113.638 E49.03775
G1 X100.6 Y113.125 E49.0578
G1 X100.6 Y13.125 E52.89935
G1 X100.64 Y12.793 E52.91219
M204 S3000
M205 X10 Y10
G0 F1800 X101.16 Y13.125
M204 S1800
M205 X8 Y8
G1 F2400 X101.2 Y12.87 E52.92211
G1 X101.315 Y12.638 E52.93206
G1 X101.496 Y12.453 E52.942
G1 X101.724 Y12.332 E52.95192
G1 X102 Y12.285 E52.96267
G1 X108 Y12.285 E53.19316
G1 X108.487 Y12.44 E53.2128
G1 X108.672 Y12.621 E53.22274
G1 X108.793 Y12.849 E53.23265
G1 X108.84 Y13.125 E53.24341
G1 X108.84 Y112.672 E57.06755
G1 X108.835 Y113.134 E57.0853
G1 X108.792 Y113.389 E57.09524
G1 X108.674 Y113.619 E57.10517
G1 X108.492 Y113.802 E57.11508
G1 X108.263 Y113.921 E57.125
G1 X107.995 Y113.965 E57.13543
G1 X102 Y113.965 E57.36573
G1 X101.745 Y113.925 E57.37565
G1 X101.513 Y113.81 E57.38559
G1 X101.328 Y113.629 E57.39554
G1 X101.207 Y113.401 E57.40545
G1 X101.16 Y113.125 E57.41621
G1 X101.16 Y13.125 E61.25775
M204 S3000
M205 X10 Y10
G0 F1800 X101.72 Y13.125
M204 S1800
M205 X8 Y8
G1 F2400 X101.759 Y12.982 E61.26345
G1 X101.866 Y12.879 E61.26915
G1 X102 Y12.845 E61.27446
G1 X108 Y12.845 E61.50495
G1 X108.246 Y12.991 E61.51594
G1 X108.28 Y13.125 E61.52125
G1 X108.28 Y112.666 E65.34517
G1 X108.275 Y113.128 E65.36292
G1 X108.234 Y113.271 E65.36863
G1 X108.126 Y113.372 E65.37431
G1 X107.995 Y113.405 E65.3795
G1 X102 Y113.405 E65.6098
G1 X101.857 Y113.366 E65.6155
G1 X101.754 Y113.259 E65.6212
G1 X101.72 Y113.125 E65.62651
G1 X101.72 Y13.125 E69.46806
M204 S3000
M205 X10 Y10
G1 F2400 E63.46806
;MESH:puerta-impresora-triangulo.stl
G0 F1800 X102.854 Y13.979
G0 X107.09 Y112.215
G0 X107.718 Y112.845
M204 S1800
M205 X8 Y8
;TYPE:WALL-OUTER
G1 F2400 E69.46806
G1 F900 X102.28 Y112.845 E69.67696
G1 X102.28 Y13.405 E73.49699
G1 X107.72 Y13.405 E73.70597
G1 X107.72 Y112.66 E77.5189
G1 X107.718 Y112.845 E77.52601
M204 S3000
M205 X10 Y10
G0 F1800 X107.518 Y112.845
G0 X107.09 Y112.215
G0 X102.91 Y112.215
G0 X102.84 Y112.285
M204 S1800
M205 X8 Y8
;TYPE:WALL-INNER
G1 F900 X102.84 Y13.965 E81.30302
G1 X107.16 Y13.965 E81.46897
G1 X107.16 Y112.285 E85.24598
G1 X102.84 Y112.285 E85.41193
M204 S3000
M205 X10 Y10
G0 F1800 X103.4 Y111.725
M204 S1800
M205 X8 Y8
G1 F900 X103.4 Y14.525 E89.14591
G1 X106.6 Y14.525 E89.26884
G1 X106.6 Y111.725 E93.00283
G1 X103.4 Y111.725 E93.12576
M204 S3000
M205 X10 Y10
G0 F1800 X103.95 Y111.175
M204 S1800
M205 X8 Y8
;TYPE:SKIN
G1 F900 X103.95 Y15.075 E96.81748
G1 X106.05 Y15.075 E96.89815
G1 X106.05 Y111.175 E100.58988
G1 X103.95 Y111.175 E100.67055
M204 S3000
M205 X10 Y10
G0 F1800 X104.578 Y110.913
M204 S1800
M205 X8 Y8
G1 F900 X104.209 Y110.545 E100.69057
M204 S3000
M205 X10 Y10
G0 F1800 X104.209 Y109.753
M204 S1800
M205 X8 Y8
G1 F900 X105.37 Y110.913 E100.75362
M204 S3000
M205 X10 Y10
G0 F1800 X105.79 Y110.542
M204 S1800
M205 X8 Y8
G1 F900 X104.209 Y108.961 E100.83951
M204 S3000
M205 X10 Y10
G0 F1800 X104.209 Y108.169
M204 S1800
M205 X8 Y8
G1 F900 X105.79 Y109.75 E100.9254
M204 S3000
M205 X10 Y10
G0 F1800 X105.79 Y108.958
M204 S1800
M205 X8 Y8
G1 F900 X104.209 Y107.377 E101.01129
M204 S3000
M205 X10 Y10
G0 F1800 X104.209 Y106.585
M204 S1800
M205 X8 Y8
G1 F900 X105.79 Y108.166 E101.09719
M204 S3000
M205 X10 Y10
G0 F1800 X105.79 Y107.374
M204 S1800
M205 X8 Y8
G1 F900 X104.209 Y105.793 E101.18308
M204 S3000
M205 X10 Y10
G0 F1800 X104.209 Y105.001
M204 S1800
M205 X8 Y8
G1 F900 X105.79 Y106.582 E101.26897
M204 S3000
M205 X10 Y10
G0 F1800 X105.79 Y105.79
M204 S1800
M205 X8 Y8
G1 F900 X104.209 Y104.209 E101.35486
M204 S3000
M205 X10 Y10
G0 F1800 X104.209 Y103.417
M204 S1800
M205 X8 Y8
G1 F900 X105.79 Y104.998 E101.44075
M204 S3000
M205 X10 Y10
G0 F1800 X105.79 Y104.206
M204 S1800
M205 X8 Y8
G1 F900 X104.209 Y102.625 E101.52665
M204 S3000
M205 X10 Y10
G0 F1800 X104.209 Y101.833
M204 S1800
M205 X8 Y8
G1 F900 X105.79 Y103.414 E101.61254
M204 S3000
M205 X10 Y10
G0 F1800 X105.79 Y102.622
M204 S1800
M205 X8 Y8
G1 F900 X104.209 Y101.042 E101.6984
M204 S3000
M205 X10 Y10
G0 F1800 X104.209 Y100.25
M204 S1800
M205 X8 Y8
G1 F900 X105.79 Y101.83 E101.78427
M204 S3000
M205 X10 Y10
G0 F1800 X105.79 Y101.038
M204 S1800
M205 X8 Y8
G1 F900 X104.209 Y99.458 E101.87013
M204 S3000
M205 X10 Y10
G0 F1800 X104.209 Y98.666
M204 S1800
M205 X8 Y8
G1 F900 X105.79 Y100.246 E101.956
M204 S3000
M205 X10 Y10
G0 F1800 X105.79 Y99.454
M204 S1800
M205 X8 Y8
G1 F900 X104.209 Y97.874 E102.04186
M204 S3000
M205 X10 Y10
G0 F1800 X104.209 Y97.082
M204 S1800
M205 X8 Y8
G1 F900 X105.79 Y98.662 E102.12773
M204 S3000
M205 X10 Y10
G0 F1800 X105.79 Y97.87
M204 S1800
M205 X8 Y8
G1 F900 X104.209 Y96.29 E102.21359
M204 S3000
M205 X10 Y10
G0 F1800 X104.209 Y95.498
M204 S1800
M205 X8 Y8
G1 F900 X105.79 Y97.078 E102.29946
M204 S3000
M205 X10 Y10
G0 F1800 X105.79 Y96.286
M204 S1800
M205 X8 Y8
G1 F900 X104.209 Y94.706 E102.38532
M204 S3000
M205 X10 Y10
G0 F1800 X104.209 Y93.914
M204 S1800
M205 X8 Y8
G1 F900 X105.79 Y95.494 E102.47119
M204 S3000
M205 X10 Y10
G0 F1800 X105.79 Y94.702
M204 S1800
M205 X8 Y8
G1 F900 X104.209 Y93.122 E102.55705
M204 S3000
M205 X10 Y10
G0 F1800 X104.209 Y92.33
M204 S1800
M205 X8 Y8
G1 F900 X105.79 Y93.91 E102.64292
M204 S3000
M205 X10 Y10
G0 F1800 X105.79 Y93.118
M204 S1800
M205 X8 Y8
G1 F900 X104.209 Y91.538 E102.72878
M204 S3000
M205 X10 Y10
G0 F1800 X104.209 Y90.746
M204 S1800
M205 X8 Y8
G1 F900 X105.79 Y92.326 E102.81465
M204 S3000
M205 X10 Y10
G0 F1800 X105.79 Y91.534
M204 S1800
M205 X8 Y8
G1 F900 X104.209 Y89.954 E102.90051
M204 S3000
M205 X10 Y10
G0 F1800 X104.209 Y89.162
M204 S1800
M205 X8 Y8
G1 F900 X105.79 Y90.743 E102.9864
M204 S3000
M205 X10 Y10
G0 F1800 X105.79 Y89.951
M204 S1800
M205 X8 Y8
G1 F900 X104.209 Y88.37 E103.0723
M204 S3000
M205 X10 Y10
G0 F1800 X104.209 Y87.578
M204 S1800
M205 X8 Y8
G1 F900 X105.79 Y89.159 E103.15819
M204 S3000
M205 X10 Y10
G0 F1800 X105.79 Y88.367
M204 S1800
M205 X8 Y8
G1 F900 X104.209 Y86.786 E103.24408
M204 S3000
M205 X10 Y10
G0 F1800 X104.209 Y85.994
M204 S1800
M205 X8 Y8
G1 F900 X105.79 Y87.575 E103.32997
M204 S3000
M205 X10 Y10
G0 F1800 X105.79 Y86.783
M204 S1800
M205 X8 Y8
G1 F900 X104.209 Y85.202 E103.41586
M204 S3000
M205 X10 Y10
G0 F1800 X104.209 Y84.41
M204 S1800
M205 X8 Y8
G1 F900 X105.79 Y85.991 E103.50176
M204 S3000
M205 X10 Y10
G0 F1800 X105.79 Y85.199
M204 S1800
M205 X8 Y8
G1 F900 X104.209 Y83.618 E103.58765
M204 S3000
M205 X10 Y10
G0 F1800 X104.209 Y82.826
M204 S1800
M205 X8 Y8
G1 F900 X105.79 Y84.407 E103.67354
M204 S3000
M205 X10 Y10
G0 F1800 X105.79 Y83.615
M204 S1800
M205 X8 Y8
G1 F900 X104.209 Y82.034 E103.75943
M204 S3000
M205 X10 Y10
G0 F1800 X104.209 Y81.243
M204 S1800
M205 X8 Y8
G1 F900 X105.79 Y82.823 E103.8453
M204 S3000
M205 X10 Y10
G0 F1800 X105.79 Y82.031
M204 S1800
M205 X8 Y8
G1 F900 X104.209 Y80.451 E103.93116
M204 S3000
M205 X10 Y10
G0 F1800 X104.209 Y79.659
M204 S1800
M205 X8 Y8
G1 F900 X105.79 Y81.239 E104.01703
M204 S3000
M205 X10 Y10
G0 F1800 X105.79 Y80.447
M204 S1800
M205 X8 Y8
G1 F900 X104.209 Y78.867 E104.10289
M204 S3000
M205 X10 Y10
G0 F1800 X104.209 Y78.075
M204 S1800
M205 X8 Y8
G1 F900 X105.79 Y79.655 E104.18876
M204 S3000
M205 X10 Y10
G0 F1800 X105.79 Y78.863
M204 S1800
M205 X8 Y8
G1 F900 X104.209 Y77.283 E104.27462
M204 S3000
M205 X10 Y10
G0 F1800 X104.209 Y76.491
M204 S1800
M205 X8 Y8
G1 F900 X105.79 Y78.071 E104.36049
M204 S3000
M205 X10 Y10
G0 F1800 X105.79 Y77.279
M204 S1800
M205 X8 Y8
G1 F900 X104.209 Y75.699 E104.44635
M204 S3000
M205 X10 Y10
G0 F1800 X104.209 Y74.907
M204 S1800
M205 X8 Y8
G1 F900 X105.79 Y76.487 E104.53222
M204 S3000
M205 X10 Y10
G0 F1800 X105.79 Y75.695
M204 S1800
M205 X8 Y8
G1 F900 X104.209 Y74.115 E104.61808
M204 S3000
M205 X10 Y10
G0 F1800 X104.209 Y73.323
M204 S1800
M205 X8 Y8
G1 F900 X105.79 Y74.903 E104.70395
M204 S3000
M205 X10 Y10
G0 F1800 X105.79 Y74.111
M204 S1800
M205 X8 Y8
G1 F900 X104.209 Y72.531 E104.78981
M204 S3000
M205 X10 Y10
G0 F1800 X104.209 Y71.739
M204 S1800
M205 X8 Y8
G1 F900 X105.79 Y73.319 E104.87568
M204 S3000
M205 X10 Y10
G0 F1800 X105.79 Y72.527
M204 S1800
M205 X8 Y8
G1 F900 X104.209 Y70.947 E104.96154
M204 S3000
M205 X10 Y10
G0 F1800 X104.209 Y70.155
M204 S1800
M205 X8 Y8
G1 F900 X105.79 Y71.735 E105.04741
M204 S3000
M205 X10 Y10
G0 F1800 X105.79 Y70.944
M204 S1800
M205 X8 Y8
G1 F900 X104.209 Y69.363 E105.1333
M204 S3000
M205 X10 Y10
G0 F1800 X104.209 Y68.571
M204 S1800
M205 X8 Y8
G1 F900 X105.79 Y70.152 E105.21919
M204 S3000
M205 X10 Y10
G0 F1800 X105.79 Y69.36
