;FLAVOR:Marlin
;TIME:2760
;Filament used: 3.66323m
;Layer height: 0.2
;MINX:90.8
;MINY:15.414
;MINZ:0.15
;MAXX:119.2
;MAXY:43.814
;MAXZ:19.95
;Generated with Cura_SteamEngine 4.5.0
M140 S65
M105
M190 S65
M104 S205
M105
M109 S205
M82 ;absolute extrusion mode
G21 ;metric values
G90 ;absolute positioning
M82 ;set extruder to absolute mode
M107 ;start with the fan off
G28 X0 Y0 ;move X/Y to min endstops
G28 Z0 ;move Z to min endstops
G1 Z15.0 F100 ;move the platform down 15mm
G92 E0 ;zero the extruded length
G1 F200 E3 ;extrude 3mm of feed stock
G92 E0 ;zero the extruded length again
G1 F100
G0 Y20 F100
M117 Printing...
G5
G92 E0
G92 E0
G1 F2400 E-6
;LAYER_COUNT:100
;LAYER:0
M106 S255
M204 S3000
M205 X10 Y10
G1 F600 Z0.225
G0 F2000 X90.84 Y19.036 Z0.225
M204 S1800
M205 X8 Y8
;TYPE:SKIRT
G1 F600 Z0.15
G1 F2400 E0
G1 X90.959 Y18.469 E0.02529
G1 X91.155 Y17.924 E0.05057
G1 X91.424 Y17.411 E0.07586
G1 X91.761 Y16.94 E0.10114
G1 X92.16 Y16.52 E0.12643
G1 X92.613 Y16.158 E0.15175
G1 X93.111 Y15.863 E0.17701
G1 X93.645 Y15.638 E0.20231
G1 X94.205 Y15.49 E0.22759
G1 X95 Y15.414 E0.26246
G1 X115 Y15.414 E1.13554
G1 X115.578 Y15.454 E1.16083
G1 X116.145 Y15.573 E1.18612
G1 X116.69 Y15.769 E1.2114
G1 X117.203 Y16.038 E1.23669
G1 X117.674 Y16.375 E1.26197
G1 X118.094 Y16.774 E1.28726
G1 X118.456 Y17.227 E1.31257
G1 X118.751 Y17.725 E1.33784
G1 X118.976 Y18.259 E1.36314
G1 X119.124 Y18.819 E1.38842
G1 X119.2 Y19.614 E1.42329
G1 X119.2 Y39.614 E2.29637
G1 X119.16 Y40.192 E2.32166
G1 X119.041 Y40.759 E2.34695
G1 X118.845 Y41.304 E2.37223
G1 X118.576 Y41.817 E2.39752
G1 X118.239 Y42.288 E2.4228
G1 X117.84 Y42.708 E2.44809
G1 X117.387 Y43.07 E2.4734
G1 X116.889 Y43.365 E2.49867
G1 X116.355 Y43.59 E2.52397
G1 X115.795 Y43.738 E2.54925
G1 X115 Y43.814 E2.58412
G1 X95 Y43.814 E3.45719
G1 X94.422 Y43.774 E3.48249
G1 X93.855 Y43.655 E3.50778
G1 X93.31 Y43.459 E3.53306
G1 X92.797 Y43.19 E3.55835
G1 X92.326 Y42.853 E3.58363
G1 X91.906 Y42.454 E3.60892
G1 X91.544 Y42.001 E3.63423
G1 X91.249 Y41.503 E3.6595
G1 X91.024 Y40.969 E3.6848
G1 X90.876 Y40.409 E3.71008
G1 X90.8 Y39.614 E3.74494
G1 X90.8 Y19.614 E4.61802
G1 X90.84 Y19.036 E4.64331
M204 S3000
M205 X10 Y10
G0 F2000 X91.4 Y19.076
M204 S1800
M205 X8 Y8
G1 F2400 X91.519 Y18.55 E4.66686
G1 X91.714 Y18.048 E4.69037
G1 X91.982 Y17.579 E4.71395
G1 X92.315 Y17.156 E4.73745
G1 X92.708 Y16.786 E4.76101
G1 X93.151 Y16.479 E4.78454
G1 X93.635 Y16.24 E4.8081
G1 X94.148 Y16.075 E4.83163
G1 X94.68 Y15.988 E4.85516
G1 X115 Y15.974 E5.74221
G1 X115.538 Y16.014 E5.76576
G1 X116.064 Y16.133 E5.7893
G1 X116.566 Y16.328 E5.81281
G1 X117.035 Y16.596 E5.83639
G1 X117.458 Y16.929 E5.85989
G1 X117.828 Y17.322 E5.88346
G1 X118.135 Y17.765 E5.90698
G1 X118.374 Y18.249 E5.93055
G1 X118.539 Y18.762 E5.95407
G1 X118.626 Y19.294 E5.97761
G1 X118.64 Y39.614 E6.86465
G1 X118.6 Y40.152 E6.8882
G1 X118.481 Y40.678 E6.91175
G1 X118.286 Y41.18 E6.93526
G1 X118.018 Y41.649 E6.95884
G1 X117.685 Y42.072 E6.98234
G1 X117.292 Y42.442 E7.0059
G1 X116.849 Y42.749 E7.02943
G1 X116.365 Y42.988 E7.05299
G1 X115.852 Y43.153 E7.07652
G1 X115.32 Y43.24 E7.10005
G1 X95 Y43.254 E7.9871
G1 X94.462 Y43.214 E8.01065
G1 X93.936 Y43.095 E8.03419
G1 X93.434 Y42.9 E8.0577
G1 X92.965 Y42.632 E8.08128
G1 X92.542 Y42.299 E8.10478
G1 X92.172 Y41.906 E8.12834
G1 X91.865 Y41.463 E8.15187
G1 X91.626 Y40.979 E8.17544
G1 X91.461 Y40.466 E8.19896
G1 X91.374 Y39.934 E8.22249
G1 X91.36 Y19.614 E9.10954
G1 X91.4 Y19.076 E9.13309
M204 S3000
M205 X10 Y10
G0 F2000 X91.96 Y19.12
M204 S1800
M205 X8 Y8
G1 F2400 X92.079 Y18.638 E9.15477
G1 X92.273 Y18.182 E9.1764
G1 X92.538 Y17.763 E9.19804
G1 X92.868 Y17.392 E9.21972
G1 X93.252 Y17.078 E9.24137
G1 X93.682 Y16.83 E9.26304
G1 X94.145 Y16.655 E9.28465
G1 X94.632 Y16.556 E9.30634
G1 X115 Y16.534 E10.19548
G1 X115.976 Y16.693 E10.23865
G1 X116.432 Y16.887 E10.26029
G1 X116.851 Y17.152 E10.28193
G1 X117.222 Y17.482 E10.3036
G1 X117.536 Y17.866 E10.32526
G1 X117.784 Y18.296 E10.34693
G1 X117.959 Y18.759 E10.36853
G1 X118.058 Y19.246 E10.39023
G1 X118.08 Y39.614 E11.27937
G1 X118.04 Y40.108 E11.30101
G1 X117.921 Y40.59 E11.32268
G1 X117.727 Y41.046 E11.34431
G1 X117.462 Y41.465 E11.36596
G1 X117.132 Y41.836 E11.38763
G1 X116.748 Y42.15 E11.40928
G1 X116.318 Y42.398 E11.43095
G1 X115.855 Y42.573 E11.45256
G1 X115.368 Y42.672 E11.47426
G1 X95 Y42.694 E12.3634
G1 X94.506 Y42.654 E12.38503
G1 X94.024 Y42.535 E12.40671
G1 X93.568 Y42.341 E12.42834
G1 X93.149 Y42.076 E12.44998
G1 X92.778 Y41.746 E12.47166
G1 X92.464 Y41.362 E12.49331
G1 X92.216 Y40.932 E12.51498
G1 X92.041 Y40.469 E12.53659
G1 X91.942 Y39.982 E12.55828
G1 X91.92 Y19.614 E13.44743
G1 X91.96 Y19.12 E13.46906
M204 S3000
M205 X10 Y10
G0 F2000 X92.52 Y19.167
M204 S1800
M205 X8 Y8
G1 F2400 X92.638 Y18.735 E13.48861
G1 X92.832 Y18.33 E13.50822
G1 X93.094 Y17.966 E13.52779
G1 X93.416 Y17.654 E13.54737
G1 X93.789 Y17.404 E13.56697
G1 X94.2 Y17.224 E13.58656
G1 X94.636 Y17.12 E13.60612
G1 X95 Y17.094 E13.62205
G1 X115 Y17.094 E14.49513
G1 X115.879 Y17.252 E14.53412
G1 X116.284 Y17.446 E14.55372
G1 X116.648 Y17.708 E14.5733
G1 X116.96 Y18.03 E14.59287
G1 X117.21 Y18.403 E14.61247
G1 X117.39 Y18.814 E14.63206
G1 X117.494 Y19.25 E14.65163
G1 X117.52 Y19.614 E14.66756
G1 X117.52 Y39.614 E15.54064
G1 X117.48 Y40.061 E15.56023
G1 X117.362 Y40.493 E15.57978
G1 X117.168 Y40.898 E15.59938
G1 X116.906 Y41.262 E15.61896
G1 X116.584 Y41.574 E15.63853
G1 X116.211 Y41.824 E15.65813
G1 X115.8 Y42.004 E15.67772
G1 X115.364 Y42.108 E15.69729
G1 X115 Y42.134 E15.71322
G1 X95 Y42.134 E16.5863
G1 X94.553 Y42.094 E16.60589
G1 X94.121 Y41.976 E16.62544
G1 X93.716 Y41.782 E16.64504
G1 X93.352 Y41.52 E16.66462
G1 X93.04 Y41.198 E16.68419
G1 X92.79 Y40.825 E16.7038
G1 X92.61 Y40.414 E16.72338
G1 X92.506 Y39.978 E16.74295
G1 X92.48 Y39.614 E16.75888
G1 X92.48 Y19.614 E17.63196
G1 X92.52 Y19.167 E17.65155
M204 S3000
M205 X10 Y10
G0 F2000 X93.08 Y19.221
M204 S1800
M205 X8 Y8
G1 F2400 X93.198 Y18.843 E17.66884
G1 X93.389 Y18.497 E17.68609
G1 X93.646 Y18.196 E17.70337
G1 X93.959 Y17.954 E17.72064
G1 X94.313 Y17.778 E17.7379
G1 X94.696 Y17.678 E17.75518
G1 X115 Y17.654 E18.64153
G1 X115.771 Y17.812 E18.67588
G1 X116.117 Y18.003 E18.69314
G1 X116.418 Y18.26 E18.71041
G1 X116.66 Y18.573 E18.72768
G1 X116.836 Y18.927 E18.74494
G1 X116.936 Y19.31 E18.76222
G1 X116.96 Y39.614 E19.64857
G1 X116.92 Y40.007 E19.66582
G1 X116.802 Y40.385 E19.6831
G1 X116.611 Y40.731 E19.70036
G1 X116.354 Y41.032 E19.71763
G1 X116.041 Y41.274 E19.73491
G1 X115.687 Y41.45 E19.75216
G1 X115.304 Y41.55 E19.76944
G1 X95 Y41.574 E20.65579
G1 X94.607 Y41.534 E20.67304
G1 X94.229 Y41.416 E20.69032
G1 X93.883 Y41.225 E20.70758
G1 X93.582 Y40.968 E20.72486
G1 X93.34 Y40.655 E20.74213
G1 X93.164 Y40.301 E20.75938
G1 X93.064 Y39.918 E20.77666
G1 X93.04 Y19.614 E21.66301
G1 X93.08 Y19.221 E21.68026
M204 S3000
M205 X10 Y10
G0 F2000 X93.64 Y19.282
M204 S1800
M205 X8 Y8
G1 F2400 X93.757 Y18.97 E21.69481
G1 X93.945 Y18.693 E21.70942
G1 X94.193 Y18.47 E21.72398
G1 X94.487 Y18.311 E21.73857
G1 X95 Y18.214 E21.76136
G1 X115 Y18.214 E22.63444
G1 X115.644 Y18.371 E22.66338
G1 X115.921 Y18.559 E22.67799
G1 X116.144 Y18.807 E22.69255
G1 X116.303 Y19.101 E22.70714
G1 X116.4 Y19.614 E22.72993
G1 X116.4 Y39.614 E23.60301
G1 X116.36 Y39.946 E23.61761
G1 X116.243 Y40.258 E23.63215
G1 X116.055 Y40.535 E23.64677
G1 X115.807 Y40.758 E23.66133
G1 X115.513 Y40.917 E23.67592
G1 X115 Y41.014 E23.69871
G1 X95 Y41.014 E24.57179
G1 X94.668 Y40.974 E24.58639
G1 X94.356 Y40.857 E24.60093
G1 X94.079 Y40.669 E24.61555
G1 X93.856 Y40.421 E24.63011
G1 X93.697 Y40.127 E24.6447
G1 X93.6 Y39.614 E24.66749
G1 X93.6 Y19.614 E25.54057
G1 X93.64 Y19.282 E25.55516
M204 S3000
M205 X10 Y10
G0 F2000 X94.16 Y19.614
M204 S1800
M205 X8 Y8
G1 F2400 X94.2 Y19.359 E25.56643
G1 X94.315 Y19.127 E25.57774
G1 X94.496 Y18.942 E25.58903
G1 X94.724 Y18.821 E25.6003
G1 X95 Y18.774 E25.61252
G1 X115 Y18.774 E26.4856
G1 X115.487 Y18.929 E26.50791
G1 X115.672 Y19.11 E26.51921
G1 X115.793 Y19.338 E26.53048
G1 X115.84 Y19.614 E26.5427
G1 X115.84 Y39.614 E27.41578
G1 X115.8 Y39.869 E27.42705
G1 X115.685 Y40.101 E27.43835
G1 X115.504 Y40.286 E27.44965
G1 X115.276 Y40.407 E27.46092
G1 X115 Y40.454 E27.47314
G1 X95 Y40.454 E28.34622
G1 X94.745 Y40.414 E28.35749
G1 X94.513 Y40.299 E28.36879
G1 X94.328 Y40.118 E28.38009
G1 X94.207 Y39.89 E28.39136
G1 X94.16 Y39.614 E28.40358
G1 X94.16 Y19.614 E29.27666
M204 S3000
M205 X10 Y10
G0 F2000 X94.72 Y19.614
M204 S1800
M205 X8 Y8
G1 F2400 X94.759 Y19.471 E29.28313
G1 X94.866 Y19.368 E29.28961
G1 X95 Y19.334 E29.29565
G1 X115 Y19.334 E30.16872
G1 X115.246 Y19.48 E30.18121
G1 X115.28 Y19.614 E30.18725
G1 X115.28 Y39.614 E31.06033
G1 X115.241 Y39.757 E31.0668
G1 X115.134 Y39.86 E31.07328
G1 X115 Y39.894 E31.07931
G1 X95 Y39.894 E31.95239
G1 X94.857 Y39.855 E31.95886
G1 X94.754 Y39.748 E31.96535
G1 X94.72 Y39.614 E31.97138
G1 X94.72 Y19.614 E32.84446
M204 S3000
M205 X10 Y10
G1 F2400 E26.84446
;MESH:cuadrado.stl
G0 F2000 X95.854 Y20.468
G0 X95.91 Y38.704
G0 X95.28 Y39.334
M204 S1800
M205 X8 Y8
;TYPE:WALL-OUTER
G1 F2400 E32.84446
G1 F900 X95.28 Y19.894 E33.69309
G1 X114.72 Y19.894 E34.54173
G1 X114.72 Y39.334 E35.39036
G1 X95.28 Y39.334 E36.23899
M204 S3000
M205 X10 Y10
G0 F2000 X95.28 Y39.134
G0 X95.84 Y38.774
M204 S1800
M205 X8 Y8
;TYPE:WALL-INNER
G1 F900 X95.84 Y20.454 E37.03873
G1 X114.16 Y20.454 E37.83847
G1 X114.16 Y38.774 E38.63821
G1 X95.84 Y38.774 E39.43795
M204 S3000
M205 X10 Y10
G0 F2000 X96.4 Y38.214
M204 S1800
M205 X8 Y8
G1 F900 X96.4 Y21.014 E40.1888
G1 X113.6 Y21.014 E40.93964
G1 X113.6 Y38.214 E41.69049
G1 X96.4 Y38.214 E42.44134
M204 S3000
M205 X10 Y10
G0 F2000 X96.95 Y37.664
M204 S1800
M205 X8 Y8
;TYPE:SKIN
G1 F900 X96.95 Y21.564 E43.14417
G1 X113.05 Y21.564 E43.847
G1 X113.05 Y37.664 E44.54982
G1 X96.95 Y37.664 E45.25265
M204 S3000
M205 X10 Y10
G0 F2000 X97.592 Y37.403
M204 S1800
M205 X8 Y8
G1 F900 X97.208 Y37.019 E45.27636
M204 S3000
M205 X10 Y10
G0 F2000 X97.208 Y36.227
M204 S1800
M205 X8 Y8
G1 F900 X98.384 Y37.403 E45.34896
M204 S3000
M205 X10 Y10
G0 F2000 X99.176 Y37.403
M204 S1800
M205 X8 Y8
G1 F900 X97.208 Y35.435 E45.47046
M204 S3000
M205 X10 Y10
G0 F2000 X97.208 Y34.643
M204 S1800
M205 X8 Y8
G1 F900 X99.968 Y37.403 E45.64085
M204 S3000
M205 X10 Y10
G0 F2000 X100.76 Y37.403
M204 S1800
M205 X8 Y8
G1 F900 X97.208 Y33.852 E45.8601
M204 S3000
M205 X10 Y10
G0 F2000 X97.208 Y33.06
M204 S1800
M205 X8 Y8
G1 F900 X101.552 Y37.403 E46.12825
M204 S3000
M205 X10 Y10
G0 F2000 X102.344 Y37.403
M204 S1800
M205 X8 Y8
G1 F900 X97.208 Y32.268 E46.4453
M204 S3000
M205 X10 Y10
G0 F2000 X97.208 Y31.476
M204 S1800
M205 X8 Y8
G1 F900 X103.136 Y37.403 E46.81124
M204 S3000
M205 X10 Y10
G0 F2000 X103.928 Y37.403
M204 S1800
M205 X8 Y8
G1 F900 X97.208 Y30.684 E47.22607
M204 S3000
M205 X10 Y10
G0 F2000 X97.208 Y29.892
M204 S1800
M205 X8 Y8
G1 F900 X104.72 Y37.403 E47.6898
M204 S3000
M205 X10 Y10
G0 F2000 X105.512 Y37.403
M204 S1800
M205 X8 Y8
G1 F900 X97.208 Y29.1 E48.20243
M204 S3000
M205 X10 Y10
G0 F2000 X97.208 Y28.308
M204 S1800
M205 X8 Y8
G1 F900 X106.304 Y37.403 E48.76395
M204 S3000
M205 X10 Y10
G0 F2000 X107.096 Y37.403
M204 S1800
M205 X8 Y8
G1 F900 X97.208 Y27.516 E49.37436
M204 S3000
M205 X10 Y10
G0 F2000 X97.208 Y26.724
M204 S1800
M205 X8 Y8
G1 F900 X107.888 Y37.403 E50.03367
M204 S3000
M205 X10 Y10
G0 F2000 X108.68 Y37.403
M204 S1800
M205 X8 Y8
G1 F900 X97.208 Y25.932 E50.74188
M204 S3000
M205 X10 Y10
G0 F2000 X97.208 Y25.14
M204 S1800
M205 X8 Y8
G1 F900 X109.472 Y37.403 E51.49898
M204 S3000
M205 X10 Y10
G0 F2000 X110.264 Y37.403
M204 S1800
M205 X8 Y8
G1 F900 X97.208 Y24.348 E52.30497
M204 S3000
M205 X10 Y10
G0 F2000 X97.208 Y23.556
M204 S1800
M205 X8 Y8
G1 F900 X111.056 Y37.403 E53.15986
M204 S3000
M205 X10 Y10
G0 F2000 X111.848 Y37.403
M204 S1800
M205 X8 Y8
G1 F900 X97.208 Y22.764 E54.06364
M204 S3000
M205 X10 Y10
G0 F2000 X97.208 Y21.972
M204 S1800
M205 X8 Y8
G1 F900 X112.639 Y37.403 E55.01629
M204 S3000
M205 X10 Y10
G0 F2000 X112.789 Y36.761
M204 S1800
M205 X8 Y8
G1 F900 X97.852 Y21.824 E55.93844
M204 S3000
M205 X10 Y10
G0 F2000 X98.644 Y21.824
M204 S1800
M205 X8 Y8
G1 F900 X112.789 Y35.969 E56.8117
M204 S3000
M205 X10 Y10
G0 F2000 X112.789 Y35.177
M204 S1800
M205 X8 Y8
G1 F900 X99.436 Y21.824 E57.63606
M204 S3000
M205 X10 Y10
G0 F2000 X100.228 Y21.824
M204 S1800
M205 X8 Y8
G1 F900 X112.789 Y34.385 E58.41152
M204 S3000
M205 X10 Y10
G0 F2000 X112.789 Y33.593
M204 S1800
M205 X8 Y8
G1 F900 X101.02 Y21.824 E59.13809
M204 S3000
M205 X10 Y10
G0 F2000 X101.812 Y21.824
M204 S1800
M205 X8 Y8
G1 F900 X112.789 Y32.801 E59.81577
M204 S3000
M205 X10 Y10
G0 F2000 X112.789 Y32.009
M204 S1800
M205 X8 Y8
G1 F900 X102.604 Y21.824 E60.44455
M204 S3000
M205 X10 Y10
G0 F2000 X103.395 Y21.824
M204 S1800
M205 X8 Y8
G1 F900 X112.789 Y31.217 E61.02447
M204 S3000
M205 X10 Y10
G0 F2000 X112.789 Y30.425
M204 S1800
M205 X8 Y8
G1 F900 X104.187 Y21.824 E61.55549
M204 S3000
M205 X10 Y10
G0 F2000 X104.979 Y21.824
M204 S1800
M205 X8 Y8
G1 F900 X112.789 Y29.633 E62.03762
M204 S3000
M205 X10 Y10
G0 F2000 X112.789 Y28.841
M204 S1800
M205 X8 Y8
G1 F900 X105.771 Y21.824 E62.47085
M204 S3000
M205 X10 Y10
G0 F2000 X106.563 Y21.824
M204 S1800
M205 X8 Y8
G1 F900 X112.789 Y28.049 E62.85518
M204 S3000
M205 X10 Y10
G0 F2000 X112.789 Y27.257
M204 S1800
M205 X8 Y8
G1 F900 X107.355 Y21.824 E63.19063
M204 S3000
M205 X10 Y10
G0 F2000 X108.147 Y21.824
M204 S1800
M205 X8 Y8
G1 F900 X112.789 Y26.465 E63.47717
M204 S3000
M205 X10 Y10
G0 F2000 X112.789 Y25.673
M204 S1800
M205 X8 Y8
G1 F900 X108.939 Y21.824 E63.71483
M204 S3000
M205 X10 Y10
G0 F2000 X109.731 Y21.824
M204 S1800
M205 X8 Y8
G1 F900 X112.789 Y24.881 E63.90358
M204 S3000
M205 X10 Y10
G0 F2000 X112.789 Y24.089
M204 S1800
M205 X8 Y8
G1 F900 X110.523 Y21.824 E64.04345
M204 S3000
M205 X10 Y10
G0 F2000 X111.315 Y21.824
M204 S1800
M205 X8 Y8
G1 F900 X112.789 Y23.297 E64.13442
M204 S3000
M205 X10 Y10
G0 F2000 X112.789 Y22.505
M204 S1800
M205 X8 Y8
G1 F900 X112.107 Y21.824 E64.17649
M204 S3000
M205 X10 Y10
G1 F2400 E58.17649
;MESH:NONMESH
G0 F600 X112.107 Y21.824 Z0.35
G0 F2000 X96 Y38.614
;TIME_ELAPSED:74.436811
;LAYER:1
M140 S65
M204 S1800
M205 X8 Y8
;TYPE:WALL-INNER
;MESH:cuadrado.stl
G1 F2400 E64.17649
G1 F1800 X96 Y20.614 E64.92484
G1 X114 Y20.614 E65.67319
G1 X114 Y38.614 E66.42155
G1 X96 Y38.614 E67.1699
M204 S3000
M205 X10 Y10
G0 F4000 X95.6 Y39.014
M204 S1800
M205 X8 Y8
G1 F1800 X95.6 Y20.214 E67.95151
G1 X114.4 Y20.214 E68.73313
G1 X114.4 Y39.014 E69.51474
G1 X95.6 Y39.014 E70.29635
M204 S3000
M205 X10 Y10
G0 F4000 X95.2 Y39.414
M204 S1800
M205 X8 Y8
;TYPE:WALL-OUTER
G1 F1350 X95.2 Y19.814 E71.11123
G1 X114.8 Y19.814 E71.9261
G1 X114.8 Y39.414 E72.74097
G1 X95.2 Y39.414 E73.55585
M204 S3000
M205 X10 Y10
G0 F4000 X95.2 Y39.214
G0 X95.67 Y38.944
G0 X96.39 Y38.224
M204 S1800
M205 X8 Y8
;TYPE:SKIN
G1 F990 X96.39 Y21.004 E74.27177
G1 X113.61 Y21.004 E74.9877
G1 X113.61 Y38.224 E75.70362
G1 X96.39 Y38.224 E76.41954
M204 S3000
M205 X10 Y10
G0 F4000 X97.044 Y21.184
M204 S1800
M205 X8 Y8
G1 F990 X96.569 Y21.658 E76.44744
M204 S3000
M205 X10 Y10
G0 F4000 X96.569 Y22.224
M204 S1800
M205 X8 Y8
G1 F990 X97.609 Y21.184 E76.50859
M204 S3000
M205 X10 Y10
G0 F4000 X98.175 Y21.184
M204 S1800
M205 X8 Y8
G1 F990 X96.569 Y22.79 E76.60302
M204 S3000
M205 X10 Y10
G0 F4000 X96.569 Y23.355
M204 S1800
M205 X8 Y8
G1 F990 X98.741 Y21.184 E76.73069
M204 S3000
M205 X10 Y10
G0 F4000 X99.306 Y21.184
M204 S1800
M205 X8 Y8
G1 F990 X96.569 Y23.921 E76.89162
M204 S3000
M205 X10 Y10
G0 F4000 X96.569 Y24.487
M204 S1800
M205 X8 Y8
G1 F990 X99.872 Y21.184 E77.08582
M204 S3000
M205 X10 Y10
G0 F4000 X100.438 Y21.184
M204 S1800
M205 X8 Y8
G1 F990 X96.569 Y25.052 E77.31328
M204 S3000
M205 X10 Y10
G0 F4000 X96.569 Y25.618
M204 S1800
M205 X8 Y8
G1 F990 X101.003 Y21.184 E77.57398
M204 S3000
M205 X10 Y10
G0 F4000 X101.569 Y21.184
M204 S1800
M205 X8 Y8
G1 F990 X96.569 Y26.184 E77.86796
M204 S3000
M205 X10 Y10
G0 F4000 X96.569 Y26.749
M204 S1800
M205 X8 Y8
G1 F990 X102.135 Y21.184 E78.19519
M204 S3000
M205 X10 Y10
G0 F4000 X102.7 Y21.184
M204 S1800
M205 X8 Y8
