;FLAVOR:Marlin
;TIME:11020
;Filament used: 6.79358m
;Layer height: 0.15
;MINX:48.3
;MINY:15.311
;MINZ:0.15
;MAXX:161.7
;MAXY:98.711
;MAXZ:4.95
;Generated with Cura_SteamEngine 4.5.0
M140 S60
M105
M190 S60
M104 S200
M105
M109 S200
M82 ;absolute extrusion mode
G21 ;metric values
G90 ;absolute positioning
M82 ;set extruder to absolute mode
M107 ;start with the fan off
G28 X0 Y0 ;move X/Y to min endstops
G28 Z0 ;move Z to min endstops
G1 Z15.0 F100 ;move the platform down 15mm
G92 E0 ;zero the extruded length
G1 F200 E3 ;extrude 3mm of feed stock
G92 E0 ;zero the extruded length again
G1 F100
G0 Y20 F100
M117 Printing...
G5
G92 E0
G92 E0
G1 F2400 E-6
;LAYER_COUNT:33
;LAYER:0
M106 S255
M204 S3000
M205 X10 Y10
G1 F600 Z0.225
G0 F1800 X106.276 Y59.711 Z0.225
M204 S1800
M205 X8 Y8
;TYPE:SKIRT
G1 F600 Z0.15
G1 F2400 E0
G1 X106.703 Y59.935 E0.01852
G1 X107.174 Y60.272 E0.04077
G1 X107.594 Y60.671 E0.06303
G1 X107.956 Y61.124 E0.0853
G1 X108.251 Y61.622 E0.10754
G1 X108.476 Y62.156 E0.1298
G1 X108.624 Y62.716 E0.15205
G1 X108.7 Y63.511 E0.18273
G1 X108.7 Y79.311 E0.78969
G1 X123.3 Y79.311 E1.35056
G1 X123.3 Y63.511 E1.95752
G1 X123.34 Y62.933 E1.97978
G1 X123.459 Y62.366 E2.00204
G1 X123.655 Y61.821 E2.02429
G1 X123.924 Y61.308 E2.04654
G1 X124.261 Y60.837 E2.06879
G1 X124.66 Y60.417 E2.09104
G1 X125.113 Y60.055 E2.11332
G1 X125.611 Y59.76 E2.13555
G1 X126.145 Y59.535 E2.15781
G1 X126.239 Y59.51 E2.16155
G1 X126.002 Y59.425 E2.17122
G1 X125.295 Y59.635 E2.19955
G1 X124.5 Y59.711 E2.23023
G1 X106.276 Y59.711 E2.93032
M204 S3000
M205 X10 Y10
G0 F1800 X106.066 Y60.225
M204 S1800
M205 X8 Y8
G1 F2400 X106.535 Y60.493 E2.95107
G1 X106.958 Y60.826 E2.97175
G1 X107.328 Y61.219 E2.99248
G1 X107.635 Y61.662 E3.01319
G1 X107.874 Y62.146 E3.03393
G1 X108.039 Y62.659 E3.05463
G1 X108.126 Y63.191 E3.07534
G1 X108.14 Y79.871 E3.71611
G1 X123.86 Y79.871 E4.32
G1 X123.86 Y63.511 E4.94847
G1 X123.9 Y62.973 E4.9692
G1 X124.019 Y62.447 E4.98991
G1 X124.214 Y61.945 E5.0106
G1 X124.482 Y61.476 E5.03135
G1 X124.815 Y61.053 E5.05204
G1 X125.208 Y60.683 E5.07277
G1 X125.651 Y60.376 E5.09348
G1 X126.135 Y60.137 E5.11421
G1 X126.648 Y59.972 E5.13491
G1 X127.18 Y59.885 E5.15562
G1 X137.5 Y59.871 E5.55207
G1 X138.038 Y59.911 E5.57279
G1 X138.564 Y60.03 E5.59351
G1 X139.066 Y60.225 E5.6142
G1 X139.535 Y60.493 E5.63495
G1 X139.958 Y60.826 E5.65563
G1 X140.328 Y61.219 E5.67637
G1 X140.635 Y61.662 E5.69707
G1 X140.874 Y62.146 E5.71781
G1 X141.039 Y62.659 E5.73851
G1 X141.126 Y63.191 E5.75922
G1 X141.14 Y79.871 E6.39999
G1 X157.5 Y79.871 E7.02847
G1 X158.038 Y79.911 E7.04919
G1 X158.564 Y80.03 E7.06991
G1 X159.066 Y80.225 E7.0906
G1 X159.535 Y80.493 E7.11135
G1 X159.958 Y80.826 E7.13203
G1 X160.328 Y81.219 E7.15276
G1 X160.635 Y81.662 E7.17347
G1 X160.874 Y82.146 E7.1942
G1 X161.039 Y82.659 E7.21491
G1 X161.126 Y83.191 E7.23561
G1 X161.14 Y93.511 E7.63206
G1 X161.1 Y94.049 E7.65279
G1 X160.981 Y94.575 E7.6735
G1 X160.786 Y95.077 E7.69419
G1 X160.518 Y95.546 E7.71494
G1 X160.185 Y95.969 E7.73562
G1 X159.792 Y96.339 E7.75636
G1 X159.349 Y96.646 E7.77706
G1 X158.865 Y96.885 E7.7978
G1 X158.352 Y97.05 E7.8185
G1 X157.82 Y97.137 E7.83921
G1 X127.5 Y97.151 E9.00397
G1 X126.962 Y97.111 E9.02469
G1 X126.436 Y96.992 E9.04541
G1 X125.995 Y96.821 E9.06358
G1 X125.352 Y97.05 E9.0898
G1 X124.82 Y97.137 E9.11051
G1 X94.5 Y97.151 E10.27527
G1 X93.962 Y97.111 E10.29599
G1 X93.436 Y96.992 E10.31671
G1 X93.23 Y96.912 E10.3252
G1 X92.792 Y97.339 E10.3487
G1 X92.349 Y97.646 E10.3694
G1 X91.865 Y97.885 E10.39014
G1 X91.352 Y98.05 E10.41084
G1 X90.82 Y98.137 E10.43155
G1 X80.5 Y98.151 E10.82799
G1 X79.962 Y98.111 E10.84872
G1 X79.436 Y97.992 E10.86944
G1 X78.934 Y97.797 E10.89012
G1 X78.494 Y97.546 E10.90958
G1 X77.865 Y97.885 E10.93703
G1 X77.352 Y98.05 E10.95774
G1 X76.82 Y98.137 E10.97844
G1 X66.5 Y98.151 E11.37489
G1 X65.962 Y98.111 E11.39562
G1 X65.436 Y97.992 E11.41633
G1 X64.934 Y97.797 E11.43702
G1 X64.494 Y97.546 E11.45648
G1 X63.865 Y97.885 E11.48393
G1 X63.352 Y98.05 E11.50463
G1 X62.82 Y98.137 E11.52534
G1 X52.5 Y98.151 E11.92179
G1 X51.962 Y98.111 E11.94251
G1 X51.436 Y97.992 E11.96323
G1 X50.934 Y97.797 E11.98392
G1 X50.465 Y97.529 E12.00467
G1 X50.042 Y97.196 E12.02535
G1 X49.672 Y96.803 E12.04609
G1 X49.365 Y96.36 E12.06679
G1 X49.126 Y95.876 E12.08753
G1 X48.961 Y95.363 E12.10823
G1 X48.874 Y94.831 E12.12894
G1 X48.86 Y74.511 E12.90954
G1 X48.9 Y73.973 E12.93026
G1 X49.019 Y73.447 E12.95098
G1 X49.214 Y72.945 E12.97167
G1 X49.482 Y72.476 E12.99242
G1 X49.815 Y72.053 E13.0131
G1 X50.208 Y71.683 E13.03384
G1 X50.651 Y71.376 E13.05454
G1 X51.135 Y71.137 E13.07528
G1 X51.648 Y70.972 E13.09598
G1 X52.18 Y70.885 E13.11669
G1 X62.5 Y70.871 E13.51314
G1 X63.038 Y70.911 E13.53386
G1 X63.564 Y71.03 E13.55458
G1 X64.066 Y71.225 E13.57527
G1 X64.506 Y71.476 E13.59473
G1 X65.135 Y71.137 E13.62218
G1 X65.648 Y70.972 E13.64288
G1 X66.18 Y70.885 E13.66358
G1 X76.5 Y70.871 E14.06003
G1 X77.038 Y70.911 E14.08076
G1 X77.564 Y71.03 E14.10147
G1 X78.066 Y71.225 E14.12216
G1 X78.506 Y71.476 E14.14162
G1 X79.135 Y71.137 E14.16907
G1 X79.648 Y70.972 E14.18977
G1 X80.18 Y70.885 E14.21048
G1 X90.5 Y70.871 E14.60693
G1 X90.86 Y70.898 E14.6208
G1 X90.86 Y70.13 E14.6503
G1 X80.5 Y70.151 E15.04829
G1 X79.962 Y70.111 E15.06901
G1 X79.436 Y69.992 E15.08973
G1 X78.934 Y69.797 E15.11042
G1 X78.494 Y69.546 E15.12988
G1 X77.865 Y69.885 E15.15733
G1 X77.352 Y70.05 E15.17803
G1 X76.82 Y70.137 E15.19873
G1 X66.5 Y70.151 E15.59518
G1 X65.962 Y70.111 E15.61591
G1 X65.436 Y69.992 E15.63662
G1 X64.934 Y69.797 E15.65731
G1 X64.494 Y69.546 E15.67677
G1 X63.865 Y69.885 E15.70422
G1 X63.352 Y70.05 E15.72492
G1 X62.82 Y70.137 E15.74563
G1 X52.5 Y70.151 E16.14208
G1 X51.962 Y70.111 E16.1628
G1 X51.436 Y69.992 E16.18352
G1 X50.934 Y69.797 E16.20421
G1 X50.465 Y69.529 E16.22496
G1 X50.042 Y69.196 E16.24564
G1 X49.672 Y68.803 E16.26638
G1 X49.365 Y68.36 E16.28708
G1 X49.126 Y67.876 E16.30782
G1 X48.961 Y67.363 E16.32852
G1 X48.874 Y66.831 E16.34923
G1 X48.86 Y46.511 E17.12983
G1 X48.9 Y45.973 E17.15056
G1 X49.019 Y45.447 E17.17127
G1 X49.214 Y44.945 E17.19196
G1 X49.482 Y44.476 E17.21271
G1 X49.815 Y44.053 E17.23339
G1 X50.208 Y43.683 E17.25413
G1 X50.651 Y43.376 E17.27483
G1 X51.135 Y43.137 E17.29557
G1 X51.524 Y43.012 E17.31127
G1 X50.934 Y42.797 E17.33539
G1 X50.465 Y42.529 E17.35614
G1 X50.042 Y42.196 E17.37682
G1 X49.672 Y41.803 E17.39756
G1 X49.365 Y41.36 E17.41826
G1 X49.126 Y40.876 E17.439
G1 X48.961 Y40.363 E17.4597
G1 X48.874 Y39.831 E17.48041
G1 X48.86 Y19.511 E18.26101
G1 X48.9 Y18.973 E18.28173
G1 X49.019 Y18.447 E18.30245
G1 X49.214 Y17.945 E18.32314
G1 X49.482 Y17.476 E18.34389
G1 X49.815 Y17.053 E18.36457
G1 X50.208 Y16.683 E18.38531
G1 X50.651 Y16.376 E18.40601
G1 X51.135 Y16.137 E18.42675
G1 X51.648 Y15.972 E18.44745
G1 X52.18 Y15.885 E18.46816
G1 X62.5 Y15.871 E18.86461
G1 X63.038 Y15.911 E18.88533
G1 X63.564 Y16.03 E18.90605
G1 X64.066 Y16.225 E18.92674
G1 X64.506 Y16.476 E18.9462
G1 X65.135 Y16.137 E18.97365
G1 X65.648 Y15.972 E18.99435
G1 X66.18 Y15.885 E19.01506
G1 X76.5 Y15.871 E19.4115
G1 X77.038 Y15.911 E19.43223
G1 X77.564 Y16.03 E19.45294
G1 X78.066 Y16.225 E19.47363
G1 X78.506 Y16.476 E19.49309
G1 X79.135 Y16.137 E19.52054
G1 X79.648 Y15.972 E19.54124
G1 X80.18 Y15.885 E19.56195
G1 X90.5 Y15.871 E19.9584
G1 X91.038 Y15.911 E19.97912
G1 X91.564 Y16.03 E19.99984
G1 X92.066 Y16.225 E20.02053
G1 X92.535 Y16.493 E20.04128
G1 X92.958 Y16.826 E20.06196
G1 X93.328 Y17.219 E20.0827
G1 X93.635 Y17.662 E20.1034
G1 X93.874 Y18.146 E20.12414
G1 X94.039 Y18.659 E20.14484
G1 X94.126 Y19.191 E20.16555
G1 X94.14 Y21.892 E20.26931
G1 X104.5 Y21.871 E20.6673
G1 X105.038 Y21.911 E20.68802
G1 X105.564 Y22.03 E20.70874
G1 X106.066 Y22.225 E20.72943
G1 X106.535 Y22.493 E20.75018
G1 X106.958 Y22.826 E20.77086
G1 X107.328 Y23.219 E20.79159
G1 X107.635 Y23.662 E20.8123
G1 X107.874 Y24.146 E20.83303
G1 X108.039 Y24.659 E20.85374
G1 X108.126 Y25.191 E20.87444
G1 X108.14 Y41.871 E21.51521
G1 X123.86 Y41.871 E22.1191
G1 X123.86 Y25.511 E22.74758
G1 X123.9 Y24.973 E22.76831
G1 X124.019 Y24.447 E22.78902
G1 X124.214 Y23.945 E22.80971
G1 X124.482 Y23.476 E22.83046
G1 X124.815 Y23.053 E22.85114
G1 X125.208 Y22.683 E22.87188
G1 X125.651 Y22.376 E22.89258
G1 X126.135 Y22.137 E22.91332
G1 X126.648 Y21.972 E22.93402
G1 X127.18 Y21.885 E22.95473
G1 X137.5 Y21.871 E23.35118
G1 X138.038 Y21.911 E23.3719
G1 X138.564 Y22.03 E23.39262
G1 X139.066 Y22.225 E23.41331
G1 X139.535 Y22.493 E23.43406
G1 X139.958 Y22.826 E23.45474
G1 X140.328 Y23.219 E23.47548
G1 X140.635 Y23.662 E23.49618
G1 X140.874 Y24.146 E23.51692
G1 X141.039 Y24.659 E23.53762
G1 X141.126 Y25.191 E23.55833
G1 X141.14 Y41.871 E24.1991
G1 X157.5 Y41.871 E24.82757
G1 X158.038 Y41.911 E24.8483
G1 X158.564 Y42.03 E24.86902
G1 X159.066 Y42.225 E24.8897
G1 X159.535 Y42.493 E24.91046
G1 X159.958 Y42.826 E24.93114
G1 X160.328 Y43.219 E24.95187
G1 X160.635 Y43.662 E24.97258
G1 X160.874 Y44.146 E24.99331
G1 X161.039 Y44.659 E25.01401
G1 X161.126 Y45.191 E25.03472
G1 X161.14 Y55.511 E25.43117
G1 X161.1 Y56.049 E25.4519
G1 X160.981 Y56.575 E25.47261
G1 X160.786 Y57.077 E25.4933
G1 X160.518 Y57.546 E25.51405
G1 X160.185 Y57.969 E25.53473
G1 X159.792 Y58.339 E25.55547
G1 X159.349 Y58.646 E25.57617
G1 X158.865 Y58.885 E25.59691
G1 X158.352 Y59.05 E25.61761
G1 X157.82 Y59.137 E25.63832
G1 X127.5 Y59.151 E26.80308
G1 X126.962 Y59.111 E26.8238
G1 X126.436 Y58.992 E26.84452
G1 X125.995 Y58.821 E26.86269
G1 X125.352 Y59.05 E26.88891
G1 X124.82 Y59.137 E26.90962
G1 X94.5 Y59.151 E28.07437
G1 X94.14 Y59.124 E28.08824
G1 X94.14 Y59.892 E28.11775
G1 X104.5 Y59.871 E28.51573
G1 X105.038 Y59.911 E28.53646
G1 X105.564 Y60.03 E28.55717
G1 X106.066 Y60.225 E28.57786
M204 S3000
M205 X10 Y10
G0 F1800 X105.932 Y60.784
M204 S1800
M205 X8 Y8
G1 F2400 X106.351 Y61.049 E28.59691
G1 X106.722 Y61.379 E28.61598
G1 X107.036 Y61.763 E28.63504
G1 X107.284 Y62.193 E28.65411
G1 X107.459 Y62.656 E28.67312
G1 X107.558 Y63.143 E28.69221
G1 X107.58 Y80.431 E29.35634
G1 X124.42 Y80.431 E30.00325
G1 X124.42 Y63.511 E30.65324
G1 X124.46 Y63.017 E30.67228
G1 X124.579 Y62.535 E30.69135
G1 X124.773 Y62.079 E30.71039
G1 X125.038 Y61.66 E30.72944
G1 X125.368 Y61.289 E30.74851
G1 X125.752 Y60.975 E30.76757
G1 X126.182 Y60.727 E30.78664
G1 X126.645 Y60.552 E30.80565
G1 X127.132 Y60.453 E30.82474
G1 X137.5 Y60.431 E31.22303
G1 X137.994 Y60.471 E31.24207
G1 X138.476 Y60.59 E31.26115
G1 X138.932 Y60.784 E31.28018
G1 X139.351 Y61.049 E31.29923
G1 X139.722 Y61.379 E31.3183
G1 X140.036 Y61.763 E31.33736
G1 X140.284 Y62.193 E31.35643
G1 X140.459 Y62.656 E31.37544
G1 X140.558 Y63.143 E31.39453
G1 X140.58 Y80.431 E32.05866
G1 X157.5 Y80.431 E32.70865
G1 X157.994 Y80.471 E32.72769
G1 X158.476 Y80.59 E32.74676
G1 X158.932 Y80.784 E32.7658
G1 X159.351 Y81.049 E32.78484
G1 X159.722 Y81.379 E32.80392
G1 X160.036 Y81.763 E32.82297
G1 X160.284 Y82.193 E32.84204
G1 X160.459 Y82.656 E32.86105
G1 X160.558 Y83.143 E32.88015
G1 X160.58 Y93.511 E33.27844
G1 X160.54 Y94.005 E33.29748
G1 X160.421 Y94.487 E33.31655
G1 X160.227 Y94.943 E33.33559
G1 X159.962 Y95.362 E33.35463
G1 X159.632 Y95.733 E33.37371
G1 X159.248 Y96.047 E33.39276
G1 X158.818 Y96.295 E33.41183
G1 X158.355 Y96.47 E33.43085
G1 X157.868 Y96.569 E33.44994
G1 X127.5 Y96.591 E34.61654
G1 X127.006 Y96.551 E34.63558
G1 X126.524 Y96.432 E34.65465
G1 X125.996 Y96.192 E34.67693
G1 X125.355 Y96.47 E34.70377
G1 X124.868 Y96.569 E34.72286
G1 X94.5 Y96.591 E35.88946
G1 X94.006 Y96.551 E35.9085
G1 X93.524 Y96.432 E35.92757
G1 X93.048 Y96.226 E35.9475
G1 X92.632 Y96.733 E35.97269
G1 X92.248 Y97.047 E35.99175
G1 X91.818 Y97.295 E36.01082
G1 X91.355 Y97.47 E36.02983
G1 X90.868 Y97.569 E36.04892
G1 X80.5 Y97.591 E36.44721
G1 X80.006 Y97.551 E36.46625
G1 X79.524 Y97.432 E36.48533
G1 X79.068 Y97.238 E36.50436
G1 X78.5 Y96.841 E36.53098
G1 X78.248 Y97.047 E36.54349
G1 X77.818 Y97.295 E36.56256
G1 X77.355 Y97.47 E36.58157
G1 X76.868 Y97.569 E36.60066
G1 X66.5 Y97.591 E36.99895
G1 X66.006 Y97.551 E37.01799
G1 X65.524 Y97.432 E37.03707
G1 X65.068 Y97.238 E37.0561
G1 X64.5 Y96.841 E37.08272
G1 X64.248 Y97.047 E37.09523
G1 X63.818 Y97.295 E37.1143
G1 X63.355 Y97.47 E37.13331
G1 X62.868 Y97.569 E37.1524
G1 X52.5 Y97.591 E37.55069
G1 X52.006 Y97.551 E37.56973
G1 X51.524 Y97.432 E37.58881
G1 X51.068 Y97.238 E37.60784
G1 X50.649 Y96.973 E37.62689
G1 X50.278 Y96.643 E37.64596
G1 X49.964 Y96.259 E37.66502
G1 X49.716 Y95.829 E37.68409
G1 X49.541 Y95.366 E37.7031
G1 X49.442 Y94.879 E37.72219
G1 X49.42 Y74.511 E38.50464
G1 X49.46 Y74.017 E38.52368
G1 X49.579 Y73.535 E38.54275
G1 X49.773 Y73.079 E38.56179
G1 X50.038 Y72.66 E38.58083
G1 X50.368 Y72.289 E38.59991
G1 X50.752 Y71.975 E38.61896
G1 X51.182 Y71.727 E38.63803
G1 X51.645 Y71.552 E38.65705
G1 X52.132 Y71.453 E38.67614
G1 X62.5 Y71.431 E39.07443
G1 X62.994 Y71.471 E39.09347
G1 X63.476 Y71.59 E39.11254
G1 X63.932 Y71.784 E39.13158
G1 X64.5 Y72.181 E39.1582
G1 X64.752 Y71.975 E39.1707
G1 X65.182 Y71.727 E39.18977
G1 X65.645 Y71.552 E39.20879
G1 X66.132 Y71.453 E39.22788
G1 X76.5 Y71.431 E39.62617
G1 X76.994 Y71.471 E39.64521
G1 X77.476 Y71.59 E39.66428
G1 X77.932 Y71.784 E39.68332
G1 X78.5 Y72.181 E39.70994
G1 X78.752 Y71.975 E39.72244
G1 X79.182 Y71.727 E39.74151
G1 X79.645 Y71.552 E39.76053
G1 X80.132 Y71.453 E39.77962
G1 X90.5 Y71.431 E40.17791
G1 X90.994 Y71.471 E40.19695
G1 X91.42 Y71.576 E40.2138
G1 X91.42 Y69.445 E40.29567
G1 X90.868 Y69.569 E40.3174
G1 X80.5 Y69.591 E40.71569
G1 X80.006 Y69.551 E40.73473
G1 X79.524 Y69.432 E40.7538
G1 X79.068 Y69.238 E40.77284
G1 X78.5 Y68.841 E40.79946
G1 X78.248 Y69.047 E40.81197
G1 X77.818 Y69.295 E40.83104
G1 X77.355 Y69.47 E40.85005
G1 X76.868 Y69.569 E40.86914
G1 X66.5 Y69.591 E41.26743
G1 X66.006 Y69.551 E41.28647
G1 X65.524 Y69.432 E41.30555
G1 X65.068 Y69.238 E41.32458
G1 X64.5 Y68.841 E41.3512
G1 X64.248 Y69.047 E41.36371
G1 X63.818 Y69.295 E41.38278
G1 X63.355 Y69.47 E41.40179
G1 X62.868 Y69.569 E41.42088
G1 X52.5 Y69.591 E41.81917
G1 X52.006 Y69.551 E41.83821
G1 X51.524 Y69.432 E41.85729
G1 X51.068 Y69.238 E41.87632
G1 X50.649 Y68.973 E41.89537
G1 X50.278 Y68.643 E41.91444
G1 X49.964 Y68.259 E41.9335
G1 X49.716 Y67.829 E41.95257
G1 X49.541 Y67.366 E41.97158
G1 X49.442 Y66.879 E41.99067
G1 X49.42 Y46.511 E42.77312
G1 X49.46 Y46.017 E42.79216
G1 X49.579 Y45.535 E42.81123
G1 X49.773 Y45.079 E42.83027
G1 X50.038 Y44.66 E42.84931
G1 X50.368 Y44.289 E42.86839
G1 X50.752 Y43.975 E42.88744
G1 X51.182 Y43.727 E42.90651
G1 X51.645 Y43.552 E42.92553
G1 X52.132 Y43.453 E42.94462
G1 X62.5 Y43.431 E43.34291
G1 X62.994 Y43.471 E43.36195
G1 X63.476 Y43.59 E43.38102
G1 X63.932 Y43.784 E43.40006
G1 X64.5 Y44.181 E43.42668
G1 X64.752 Y43.975 E43.43918
G1 X65.182 Y43.727 E43.45825
G1 X65.645 Y43.552 E43.47727
G1 X66.132 Y43.453 E43.49636
G1 X76.5 Y43.431 E43.89465
G1 X76.994 Y43.471 E43.91369
G1 X77.476 Y43.59 E43.93276
G1 X77.932 Y43.784 E43.9518
G1 X78.5 Y44.181 E43.97842
G1 X78.752 Y43.975 E43.99092
G1 X79.182 Y43.727 E44.00999
G1 X79.645 Y43.552 E44.02901
G1 X80.132 Y43.453 E44.0481
G1 X90.5 Y43.431 E44.44639
G1 X90.994 Y43.471 E44.46543
G1 X91.42 Y43.576 E44.48228
G1 X91.42 Y42.445 E44.52573
G1 X90.868 Y42.569 E44.54747
G1 X80.5 Y42.591 E44.94576
G1 X80.006 Y42.551 E44.9648
G1 X79.524 Y42.432 E44.98387
G1 X79.068 Y42.238 E45.00291
G1 X78.5 Y41.841 E45.02953
G1 X78.248 Y42.047 E45.04203
G1 X77.818 Y42.295 E45.0611
G1 X77.355 Y42.47 E45.08011
G1 X76.868 Y42.569 E45.09921
G1 X66.5 Y42.591 E45.4975
G1 X66.006 Y42.551 E45.51654
G1 X65.524 Y42.432 E45.53561
G1 X65.068 Y42.238 E45.55465
G1 X64.5 Y41.841 E45.58127
G1 X64.248 Y42.047 E45.59377
G1 X63.818 Y42.295 E45.61284
G1 X63.355 Y42.47 E45.63186
G1 X62.868 Y42.569 E45.65095
G1 X52.5 Y42.591 E46.04924
G1 X52.006 Y42.551 E46.06828
G1 X51.524 Y42.432 E46.08735
G1 X51.068 Y42.238 E46.10639
G1 X50.649 Y41.973 E46.12543
G1 X50.278 Y41.643 E46.14451
G1 X49.964 Y41.259 E46.16356
G1 X49.716 Y40.829 E46.18263
G1 X49.541 Y40.366 E46.20165
G1 X49.442 Y39.879 E46.22074
G1 X49.42 Y19.511 E47.00318
G1 X49.46 Y19.017 E47.02222
G1 X49.579 Y18.535 E47.04129
