;FLAVOR:Marlin
;TIME:996
;Filament used: 0.507467m
;Layer height: 0.1
;MINX:34.806
;MINY:15.488
;MINZ:0.1
;MAXX:91.57
;MAXY:72.243
;MAXZ:5
;Generated with Cura_SteamEngine 4.5.0
M140 S60
M105
M190 S60
M104 S200
M105
M109 S200
M82 ;absolute extrusion mode
G21 ;metric values
G90 ;absolute positioning
M82 ;set extruder to absolute mode
M107 ;start with the fan off
G28 X0 Y0 ;move X/Y to min endstops
G28 Z0 ;move Z to min endstops
G1 Z15.0 F50 ;move the platform down 15mm
G92 E0 ;zero the extruded length
G1 F200 E3 ;extrude 3mm of feed stock
G92 E0 ;zero the extruded length again
G1 F50
G0 Y20 F50
M117 Printing...
G5
G92 E0
G92 E0
G1 F2400 E-6
;LAYER_COUNT:50
;LAYER:0
M106 S255
M204 S3000
M205 X10 Y10
G1 F600 Z0.175
G0 F1500 X40.257 Y27.164 Z0.175
M204 S1800
M205 X8 Y8
;TYPE:SKIRT
G1 F600 Z0.1
G1 F2400 E0
G1 X40.591 Y26.708 E0.01316
G1 X40.955 Y26.229 E0.02717
G1 X41.999 Y25.002 E0.06468
G1 X42.394 Y24.563 E0.07842
G1 X42.812 Y24.113 E0.09272
G1 X43.913 Y23.05 E0.12836
G1 X44.375 Y22.626 E0.14295
G1 X44.807 Y22.243 E0.1564
G1 X46.121 Y21.204 E0.1954
G1 X46.528 Y20.9 E0.20722
G1 X47.027 Y20.538 E0.22158
G1 X48.405 Y19.653 E0.25971
G1 X48.89 Y19.358 E0.27292
G1 X49.618 Y18.933 E0.29255
G1 X50.175 Y18.637 E0.30724
G1 X51.39 Y18.06 E0.33855
G1 X51.95 Y17.803 E0.3529
G1 X53.46 Y17.213 E0.39064
G1 X54.012 Y17.014 E0.4043
G1 X54.546 Y16.832 E0.41744
G1 X56.03 Y16.413 E0.45334
G1 X56.542 Y16.282 E0.46564
G1 X57.195 Y16.125 E0.48128
G1 X58.776 Y15.84 E0.51868
G1 X59.367 Y15.75 E0.5326
G1 X59.936 Y15.672 E0.54597
G1 X61.553 Y15.542 E0.58374
G1 X62.125 Y15.511 E0.59708
G1 X62.74 Y15.488 E0.6114
G1 X64.294 Y15.515 E0.64759
G1 X64.904 Y15.542 E0.66181
G1 X65.655 Y15.587 E0.67932
G1 X66.33 Y15.653 E0.69511
G1 X67.662 Y15.844 E0.72644
G1 X68.263 Y15.94 E0.74061
G1 X69.844 Y16.284 E0.77828
G1 X70.393 Y16.419 E0.79145
G1 X70.974 Y16.572 E0.80543
G1 X72.528 Y17.074 E0.84345
G1 X73.045 Y17.256 E0.85622
G1 X73.611 Y17.465 E0.87026
G1 X75.092 Y18.11 E0.90787
G1 X75.627 Y18.36 E0.92162
G1 X76.369 Y18.722 E0.94084
G1 X76.965 Y19.044 E0.95661
G1 X78.125 Y19.735 E0.98805
G1 X78.595 Y20.024 E1.0009
G1 X79.987 Y20.997 E1.04044
G1 X80.434 Y21.328 E1.05339
G1 X80.874 Y21.663 E1.06626
G1 X82.119 Y22.728 E1.10441
G1 X82.537 Y23.106 E1.11753
G1 X82.971 Y23.51 E1.13133
G1 X84.084 Y24.667 E1.16871
G1 X84.447 Y25.066 E1.18127
G1 X84.845 Y25.518 E1.19529
G1 X85.807 Y26.735 E1.23141
G1 X86.173 Y27.223 E1.24561
G1 X86.654 Y27.887 E1.2647
G1 X87.018 Y28.435 E1.28002
G1 X87.664 Y29.504 E1.3091
G1 X88.019 Y30.115 E1.32555
G1 X88.708 Y31.466 E1.36086
G1 X88.97 Y32.012 E1.37496
G1 X89.326 Y32.786 E1.39479
G1 X89.583 Y33.416 E1.41063
G1 X90.024 Y34.634 E1.44079
G1 X90.224 Y35.219 E1.45519
G1 X90.678 Y36.832 E1.4942
G1 X90.818 Y37.386 E1.5075
G1 X90.943 Y37.911 E1.52007
G1 X91.228 Y39.513 E1.55795
G1 X91.313 Y40.081 E1.57132
G1 X91.393 Y40.665 E1.58505
G1 X91.521 Y42.301 E1.62325
G1 X91.549 Y42.866 E1.63642
G1 X91.57 Y43.463 E1.65033
G1 X91.538 Y45.093 E1.68829
G1 X91.512 Y45.626 E1.70071
G1 X91.477 Y46.197 E1.71403
G1 X91.293 Y47.763 E1.75074
G1 X91.218 Y48.29 E1.76313
G1 X91.113 Y48.944 E1.77856
G1 X90.783 Y50.467 E1.81484
G1 X90.614 Y51.156 E1.83135
G1 X90.432 Y51.848 E1.84801
G1 X90.226 Y52.517 E1.86431
G1 X89.766 Y53.814 E1.89635
G1 X89.567 Y54.349 E1.90964
G1 X88.935 Y55.792 E1.94632
G1 X88.688 Y56.318 E1.95985
G1 X88.431 Y56.843 E1.97346
G1 X87.658 Y58.224 E2.0103
G1 X87.36 Y58.727 E2.02391
G1 X86.927 Y59.434 E2.04322
G1 X86.549 Y59.994 E2.05895
G1 X85.779 Y61.038 E2.08915
G1 X85.387 Y61.553 E2.10422
G1 X84.343 Y62.774 E2.14162
G1 X83.98 Y63.177 E2.15425
G1 X83.551 Y63.637 E2.16889
G1 X82.474 Y64.674 E2.2037
G1 X82.006 Y65.102 E2.21847
G1 X81.564 Y65.494 E2.23222
G1 X80.284 Y66.507 E2.27023
G1 X79.809 Y66.863 E2.28405
G1 X79.166 Y67.329 E2.30254
G1 X78.616 Y67.694 E2.3179
G1 X77.452 Y68.396 E2.34955
G1 X76.921 Y68.704 E2.36384
G1 X75.5 Y69.427 E2.40096
G1 X75.015 Y69.658 E2.41347
G1 X74.427 Y69.926 E2.42851
G1 X73.067 Y70.46 E2.46253
G1 X72.396 Y70.703 E2.47915
G1 X71.661 Y70.958 E2.49726
G1 X71.072 Y71.136 E2.51159
G1 X69.724 Y71.478 E2.54396
G1 X69.142 Y71.617 E2.5579
G1 X67.522 Y71.905 E2.5962
G1 X66.963 Y71.988 E2.60936
G1 X66.385 Y72.067 E2.62294
G1 X64.755 Y72.193 E2.66101
G1 X64.249 Y72.219 E2.6728
G1 X63.599 Y72.243 E2.68795
G1 X61.951 Y72.209 E2.72632
G1 X61.374 Y72.181 E2.73977
G1 X60.816 Y72.146 E2.75279
G1 X59.204 Y71.955 E2.79058
G1 X58.628 Y71.871 E2.80414
G1 X58.052 Y71.778 E2.81772
G1 X56.487 Y71.433 E2.85503
G1 X55.913 Y71.291 E2.8688
G1 X55.347 Y71.141 E2.88243
G1 X53.814 Y70.643 E2.91996
G1 X53.241 Y70.439 E2.93412
G1 X52.713 Y70.242 E2.94724
G1 X51.218 Y69.586 E2.98525
G1 X50.751 Y69.367 E2.99726
G1 X50.162 Y69.08 E3.01251
G1 X48.774 Y68.301 E3.04957
G1 X48.252 Y67.99 E3.06372
G1 X47.787 Y67.704 E3.07643
G1 X46.395 Y66.731 E3.11597
G1 X45.946 Y66.399 E3.12897
G1 X45.505 Y66.063 E3.14188
G1 X44.263 Y65 E3.17994
G1 X43.835 Y64.613 E3.19337
G1 X43.396 Y64.203 E3.20736
G1 X42.3 Y63.061 E3.24421
G1 X41.904 Y62.628 E3.25787
G1 X41.515 Y62.187 E3.27156
G1 X40.508 Y60.907 E3.30948
G1 X40.19 Y60.481 E3.32186
G1 X39.83 Y59.981 E3.3362
G1 X39.014 Y58.707 E3.37143
G1 X38.69 Y58.174 E3.38595
G1 X38.259 Y57.434 E3.40589
G1 X37.971 Y56.893 E3.42015
G1 X37.399 Y55.692 E3.45113
G1 X37.127 Y55.097 E3.46636
G1 X36.593 Y53.736 E3.5004
G1 X36.352 Y53.069 E3.51691
G1 X36.097 Y52.334 E3.53502
G1 X35.919 Y51.745 E3.54935
G1 X35.577 Y50.397 E3.58173
G1 X35.44 Y49.821 E3.59551
G1 X35.146 Y48.158 E3.63483
G1 X35.068 Y47.637 E3.64709
G1 X34.99 Y47.051 E3.66086
G1 X34.872 Y45.558 E3.69573
G1 X34.835 Y44.863 E3.71193
G1 X34.806 Y44.108 E3.72952
G1 X34.807 Y43.461 E3.74458
G1 X34.867 Y42.142 E3.77532
G1 X34.906 Y41.524 E3.78974
G1 X35.087 Y39.98 E3.82594
G1 X35.18 Y39.336 E3.84108
G1 X35.303 Y38.574 E3.85906
G1 X35.437 Y37.911 E3.8748
G1 X35.764 Y36.586 E3.90658
G1 X35.913 Y36.022 E3.92016
G1 X36.413 Y34.485 E3.95779
G1 X36.616 Y33.914 E3.9719
G1 X36.815 Y33.38 E3.98517
G1 X37.447 Y31.935 E4.02189
G1 X37.706 Y31.386 E4.03602
G1 X37.952 Y30.882 E4.04908
G1 X38.708 Y29.528 E4.08518
G1 X39.025 Y28.996 E4.0996
G1 X39.326 Y28.504 E4.11303
G1 X40.257 Y27.164 E4.15102
M204 S3000
M205 X10 Y10
G0 F1500 X40.714 Y27.487
M204 S1800
M205 X8 Y8
G1 F2400 X41.042 Y27.041 E4.16391
G1 X41.401 Y26.568 E4.17773
G1 X42.423 Y25.369 E4.21441
G1 X42.81 Y24.938 E4.2279
G1 X43.222 Y24.495 E4.24198
G1 X44.299 Y23.456 E4.27682
G1 X44.753 Y23.039 E4.29118
G1 X45.178 Y22.663 E4.30439
G1 X46.465 Y21.646 E4.34258
G1 X46.925 Y21.303 E4.35594
G1 X47.356 Y20.991 E4.36833
G1 X48.704 Y20.126 E4.40562
G1 X49.18 Y19.837 E4.41858
G1 X49.9 Y19.417 E4.43799
G1 X50.431 Y19.135 E4.45199
G1 X51.629 Y18.566 E4.48286
G1 X52.183 Y18.312 E4.49705
G1 X53.66 Y17.736 E4.53396
G1 X54.193 Y17.544 E4.54715
G1 X54.727 Y17.362 E4.56029
G1 X56.178 Y16.953 E4.59539
G1 X56.679 Y16.825 E4.60743
G1 X57.325 Y16.669 E4.6229
G1 X58.871 Y16.392 E4.65947
G1 X59.451 Y16.303 E4.67313
G1 X60.011 Y16.227 E4.68628
G1 X61.594 Y16.101 E4.72326
G1 X62.153 Y16.071 E4.73629
G1 X62.761 Y16.048 E4.75046
G1 X64.28 Y16.075 E4.78583
G1 X64.877 Y16.101 E4.79974
G1 X65.621 Y16.146 E4.81709
G1 X66.268 Y16.21 E4.83223
G1 X67.581 Y16.398 E4.86311
G1 X68.174 Y16.493 E4.87709
G1 X69.72 Y16.831 E4.91394
G1 X70.259 Y16.962 E4.92685
G1 X70.83 Y17.113 E4.9406
G1 X72.352 Y17.605 E4.97784
G1 X72.857 Y17.784 E4.99032
G1 X73.416 Y17.99 E5.00419
G1 X74.865 Y18.622 E5.04099
G1 X75.388 Y18.867 E5.05444
G1 X76.124 Y19.225 E5.07349
G1 X76.692 Y19.533 E5.08854
G1 X77.837 Y20.216 E5.11958
G1 X78.301 Y20.501 E5.13226
G1 X79.662 Y21.454 E5.17094
G1 X80.095 Y21.773 E5.18346
G1 X80.535 Y22.108 E5.19634
G1 X81.752 Y23.151 E5.23365
G1 X82.16 Y23.521 E5.24648
G1 X82.589 Y23.92 E5.26012
G1 X83.677 Y25.052 E5.29667
G1 X84.032 Y25.442 E5.30895
G1 X84.425 Y25.888 E5.32279
G1 X85.364 Y27.079 E5.3581
G1 X85.724 Y27.559 E5.37207
G1 X86.2 Y28.215 E5.39094
G1 X86.547 Y28.738 E5.40555
G1 X87.184 Y29.793 E5.43425
G1 X87.534 Y30.396 E5.45048
G1 X88.207 Y31.716 E5.48497
G1 X88.465 Y32.253 E5.49884
G1 X88.817 Y33.019 E5.51847
G1 X89.062 Y33.62 E5.53358
G1 X89.496 Y34.824 E5.56338
G1 X89.695 Y35.401 E5.57759
G1 X90.138 Y36.98 E5.61577
G1 X90.273 Y37.515 E5.62862
G1 X90.398 Y38.04 E5.64118
G1 X90.676 Y39.606 E5.67821
G1 X90.76 Y40.163 E5.69133
G1 X90.838 Y40.74 E5.70488
G1 X90.962 Y42.339 E5.74222
G1 X90.989 Y42.886 E5.75497
G1 X91.01 Y43.483 E5.76888
G1 X90.978 Y45.078 E5.80602
G1 X90.953 Y45.591 E5.81798
G1 X90.918 Y46.162 E5.8313
G1 X90.737 Y47.693 E5.86719
G1 X90.663 Y48.211 E5.87938
G1 X90.56 Y48.855 E5.89456
G1 X90.236 Y50.344 E5.93004
G1 X90.07 Y51.021 E5.94627
G1 X89.89 Y51.705 E5.96274
G1 X89.693 Y52.346 E5.97835
G1 X89.238 Y53.625 E6.00995
G1 X89.042 Y54.154 E6.02309
G1 X88.424 Y55.563 E6.05891
G1 X88.182 Y56.079 E6.07218
G1 X87.928 Y56.597 E6.08561
G1 X87.172 Y57.947 E6.12163
G1 X86.879 Y58.441 E6.13501
G1 X86.45 Y59.141 E6.15412
G1 X86.09 Y59.673 E6.16908
G1 X85.329 Y60.705 E6.19893
G1 X84.942 Y61.214 E6.21382
G1 X83.92 Y62.407 E6.25039
G1 X83.565 Y62.801 E6.26274
G1 X83.142 Y63.254 E6.27717
G1 X82.088 Y64.268 E6.31122
G1 X81.629 Y64.689 E6.32572
G1 X81.193 Y65.074 E6.33926
G1 X79.939 Y66.065 E6.37647
G1 X79.474 Y66.414 E6.39001
G1 X78.838 Y66.875 E6.4083
G1 X78.313 Y67.223 E6.42296
G1 X77.164 Y67.916 E6.4542
G1 X76.641 Y68.219 E6.46828
G1 X75.25 Y68.926 E6.5046
G1 X74.776 Y69.151 E6.51682
G1 X74.196 Y69.416 E6.53167
G1 X72.866 Y69.937 E6.56492
G1 X72.206 Y70.177 E6.58127
G1 X71.478 Y70.429 E6.59921
G1 X70.918 Y70.597 E6.61282
G1 X69.588 Y70.934 E6.64477
G1 X69.012 Y71.072 E6.65856
G1 X67.428 Y71.352 E6.69601
G1 X66.882 Y71.434 E6.70886
G1 X66.31 Y71.512 E6.7223
G1 X64.716 Y71.635 E6.75952
G1 X64.145 Y71.663 E6.77283
G1 X63.579 Y71.683 E6.78602
G1 X61.966 Y71.65 E6.82358
G1 X61.409 Y71.623 E6.83656
G1 X60.851 Y71.588 E6.84958
G1 X59.275 Y71.4 E6.88653
G1 X58.711 Y71.317 E6.89981
G1 X58.142 Y71.225 E6.91323
G1 X56.612 Y70.887 E6.94971
G1 X56.049 Y70.748 E6.96321
G1 X55.491 Y70.6 E6.97665
G1 X53.991 Y70.111 E7.01338
G1 X53.43 Y69.912 E7.02724
G1 X52.909 Y69.718 E7.04018
G1 X51.447 Y69.075 E7.07737
G1 X50.99 Y68.861 E7.08912
G1 X50.409 Y68.577 E7.10417
G1 X49.051 Y67.815 E7.14043
G1 X48.54 Y67.51 E7.15428
G1 X48.081 Y67.227 E7.16684
G1 X46.72 Y66.274 E7.20552
G1 X46.286 Y65.953 E7.21809
G1 X45.845 Y65.617 E7.231
G1 X44.631 Y64.578 E7.2682
G1 X44.211 Y64.199 E7.28137
G1 X43.779 Y63.795 E7.29514
G1 X42.706 Y62.676 E7.33124
G1 X42.319 Y62.251 E7.34462
G1 X41.936 Y61.817 E7.35809
G1 X40.951 Y60.564 E7.3952
G1 X40.639 Y60.147 E7.40733
G1 X40.285 Y59.654 E7.42146
G1 X39.488 Y58.409 E7.45587
G1 X39.169 Y57.884 E7.47018
G1 X38.743 Y57.153 E7.48988
G1 X38.468 Y56.636 E7.50351
G1 X37.905 Y55.452 E7.53403
G1 X37.637 Y54.865 E7.54906
G1 X37.116 Y53.536 E7.58229
G1 X36.878 Y52.879 E7.59856
G1 X36.626 Y52.151 E7.6165
G1 X36.458 Y51.591 E7.63011
G1 X36.121 Y50.261 E7.66205
G1 X35.985 Y49.692 E7.67567
G1 X35.698 Y48.065 E7.71414
G1 X35.623 Y47.564 E7.72593
G1 X35.545 Y46.978 E7.7397
G1 X35.431 Y45.519 E7.77377
G1 X35.394 Y44.834 E7.78974
G1 X35.365 Y44.087 E7.80714
G1 X35.367 Y43.47 E7.82151
G1 X35.427 Y42.169 E7.85183
G1 X35.464 Y41.559 E7.86606
G1 X35.643 Y40.05 E7.90144
G1 X35.734 Y39.418 E7.9163
G1 X35.856 Y38.663 E7.93411
G1 X35.984 Y38.028 E7.94919
G1 X36.307 Y36.722 E7.98051
G1 X36.454 Y36.166 E7.9939
G1 X36.944 Y34.663 E8.03071
G1 X37.143 Y34.103 E8.04455
G1 X37.339 Y33.575 E8.05766
G1 X37.958 Y32.164 E8.09353
G1 X38.212 Y31.627 E8.10736
G1 X38.455 Y31.128 E8.12028
G1 X39.194 Y29.805 E8.15557
G1 X39.505 Y29.284 E8.16969
G1 X39.803 Y28.798 E8.18297
G1 X40.714 Y27.487 E8.22013
M204 S3000
M205 X10 Y10
G0 F1500 X41.172 Y27.81
M204 S1800
M205 X8 Y8
G1 F2400 X41.492 Y27.373 E8.23275
G1 X41.846 Y26.907 E8.24637
G1 X42.846 Y25.735 E8.28224
G1 X43.226 Y25.313 E8.29546
G1 X43.632 Y24.876 E8.30935
G1 X44.685 Y23.862 E8.34338
G1 X45.131 Y23.453 E8.35747
G1 X45.549 Y23.082 E8.37048
G1 X46.809 Y22.088 E8.40785
G1 X47.253 Y21.757 E8.42074
G1 X47.684 Y21.445 E8.43313
G1 X49.003 Y20.6 E8.4696
G1 X49.469 Y20.317 E8.4823
G1 X50.182 Y19.901 E8.50151
G1 X50.687 Y19.633 E8.51482
G1 X51.868 Y19.072 E8.54527
G1 X52.415 Y18.822 E8.55927
G1 X53.859 Y18.259 E8.59535
G1 X54.374 Y18.074 E8.60809
G1 X54.908 Y17.892 E8.62123
G1 X56.326 Y17.493 E8.65552
G1 X56.816 Y17.368 E8.6673
G1 X57.456 Y17.214 E8.68262
G1 X58.965 Y16.944 E8.71831
G1 X59.535 Y16.857 E8.73174
G1 X60.085 Y16.782 E8.74466
G1 X61.635 Y16.659 E8.78086
G1 X62.182 Y16.63 E8.79362
G1 X62.781 Y16.607 E8.80757
G1 X64.266 Y16.635 E8.84215
G1 X65.588 Y16.704 E8.87297
G1 X66.206 Y16.766 E8.88743
G1 X67.5 Y16.952 E8.91787
G1 X68.085 Y17.046 E8.93166
G1 X69.597 Y17.377 E8.9677
G1 X70.124 Y17.506 E8.98033
G1 X70.687 Y17.655 E8.99389
G1 X72.176 Y18.137 E9.03033
G1 X72.669 Y18.311 E9.0425
G1 X73.221 Y18.516 E9.05621
G1 X74.637 Y19.134 E9.09218
G1 X75.15 Y19.374 E9.10537
G1 X75.878 Y19.729 E9.12422
G1 X76.418 Y20.021 E9.13852
G1 X77.55 Y20.696 E9.1692
G1 X78.007 Y20.978 E9.18171
G1 X79.338 Y21.91 E9.21954
G1 X79.755 Y22.219 E9.23162
G1 X80.195 Y22.554 E9.24449
G1 X81.384 Y23.573 E9.28095
G1 X81.784 Y23.935 E9.29351
G1 X82.208 Y24.329 E9.30699
G1 X83.27 Y25.437 E9.34272
G1 X83.617 Y25.818 E9.35472
G1 X84.005 Y26.258 E9.36838
G1 X84.922 Y27.422 E9.40288
G1 X85.275 Y27.894 E9.4166
G1 X85.747 Y28.544 E9.4353
G1 X86.076 Y29.041 E9.44918
G1 X86.704 Y30.081 E9.47746
G1 X87.05 Y30.676 E9.49349
G1 X87.707 Y31.967 E9.52721
G1 X87.959 Y32.494 E9.54081
G1 X88.308 Y33.253 E9.56026
G1 X88.54 Y33.824 E9.57461
G1 X88.969 Y35.013 E9.60404
G1 X89.165 Y35.582 E9.61805
G1 X89.598 Y37.127 E9.65541
G1 X89.728 Y37.645 E9.66785
G1 X89.853 Y38.17 E9.68041
G1 X90.123 Y39.699 E9.71656
G1 X90.206 Y40.246 E9.72944
G1 X90.283 Y40.815 E9.74281
G1 X90.403 Y42.378 E9.77931
G1 X90.43 Y42.905 E9.79159
G1 X90.451 Y43.502 E9.8055
G1 X90.418 Y45.062 E9.84183
G1 X90.359 Y46.128 E9.86668
G1 X90.181 Y47.623 E9.90174
G1 X90.109 Y48.131 E9.91368
G1 X90.007 Y48.766 E9.92866
G1 X89.69 Y50.221 E9.96333
G1 X89.527 Y50.887 E9.97929
G1 X89.349 Y51.562 E9.99554
G1 X89.16 Y52.176 E10.0105
G1 X88.711 Y53.436 E10.04164
G1 X88.517 Y53.958 E10.05461
G1 X87.913 Y55.334 E10.08959
G1 X87.675 Y55.839 E10.10259
G1 X87.425 Y56.35 E10.11584
G1 X86.685 Y57.67 E10.15107
G1 X86.398 Y58.154 E10.16417
G1 X85.972 Y58.848 E10.18313
G1 X85.632 Y59.351 E10.19726
G1 X84.879 Y60.372 E10.2268
G1 X84.496 Y60.875 E10.24152
G1 X83.498 Y62.039 E10.27722
G1 X83.15 Y62.425 E10.28932
G1 X82.733 Y62.871 E10.30353
G1 X81.703 Y63.862 E10.33681
G1 X81.251 Y64.275 E10.35107
G1 X80.823 Y64.654 E10.36438
G1 X79.595 Y65.624 E10.40081
G1 X79.139 Y65.965 E10.41407
G1 X78.51 Y66.422 E10.43217
G1 X78.011 Y66.752 E10.4461
G1 X76.876 Y67.436 E10.47695
G1 X76.36 Y67.735 E10.49083
G1 X75 Y68.425 E10.52634
G1 X74.537 Y68.645 E10.53827
G1 X73.964 Y68.906 E10.55293
G1 X72.665 Y69.415 E10.58542
G1 X72.016 Y69.65 E10.60149
G1 X71.295 Y69.899 E10.61925
G1 X70.764 Y70.059 E10.63216
G1 X69.452 Y70.391 E10.66367
G1 X68.883 Y70.527 E10.67729
G1 X67.335 Y70.8 E10.71388
G1 X66.8 Y70.88 E10.72648
G1 X66.235 Y70.957 E10.73975
G1 X64.677 Y71.076 E10.77613
G1 X64.125 Y71.104 E10.789
G1 X63.559 Y71.124 E10.80219
G1 X61.982 Y71.09 E10.83891
G1 X61.444 Y71.064 E10.85145
G1 X60.886 Y71.029 E10.86447
G1 X59.345 Y70.844 E10.9006
G1 X58.793 Y70.763 E10.91359
G1 X58.232 Y70.672 E10.92683
G1 X56.736 Y70.341 E10.9625
G1 X56.184 Y70.204 E10.97574
G1 X55.635 Y70.059 E10.98896
G1 X54.169 Y69.58 E11.02487
G1 X53.619 Y69.385 E11.03845
G1 X53.105 Y69.193 E11.05123
G1 X51.676 Y68.564 E11.08758
G1 X51.166 Y68.324 E11.1007
G1 X50.655 Y68.074 E11.11395
G1 X49.329 Y67.329 E11.14936
G1 X48.828 Y67.03 E11.16294
G1 X48.375 Y66.75 E11.17534
G1 X47.044 Y65.818 E11.21317
G1 X46.625 Y65.508 E11.2253
G1 X46.184 Y65.172 E11.23821
G1 X44.998 Y64.155 E11.27459
G1 X44.588 Y63.784 E11.28746
G1 X44.162 Y63.386 E11.30103
G1 X43.113 Y62.291 E11.33634
G1 X42.734 Y61.875 E11.34944
G1 X42.356 Y61.447 E11.36274
G1 X41.393 Y60.221 E11.39903
G1 X41.089 Y59.813 E11.41088
G1 X40.74 Y59.328 E11.42479
G1 X39.962 Y58.11 E11.45844
G1 X39.649 Y57.594 E11.47249
G1 X39.227 Y56.871 E11.49198
