;FLAVOR:Marlin
;TIME:3238
;Filament used: 5.78415m
;Layer height: 0.3
;MINX:50.6
;MINY:12.118
;MINZ:0.15
;MAXX:159.4
;MAXY:88.573
;MAXZ:19.95
;Generated with Cura_SteamEngine 4.5.0
M140 S60
M105
M190 S60
M104 S205
M105
M109 S205
M82 ;absolute extrusion mode
G21 ;metric values
G90 ;absolute positioning
M82 ;set extruder to absolute mode
M107 ;start with the fan off
G28 X0 Y0 ;move X/Y to min endstops
G28 Z0 ;move Z to min endstops
G1 Z15.0 F100 ;move the platform down 15mm
G92 E0 ;zero the extruded length
G1 F200 E3 ;extrude 3mm of feed stock
G92 E0 ;zero the extruded length again
G1 F100
G0 Y20 F100
M117 Printing...
G5
G92 E0
G92 E0
G1 F4200 E-8
;LAYER_COUNT:67
;LAYER:0
M107
M204 S3000
M205 X10 Y10
G1 F600 Z0.225
G0 F6000 X51.287 Y18.03 Z0.225
M204 S1800
M205 X8 Y8
;TYPE:SKIRT
G1 F600 Z0.15
G1 F4200 E0
G1 F1200 X51.647 Y17.241 E0.03029
G1 X52.078 Y16.489 E0.06056
G1 X52.577 Y15.78 E0.09084
G1 X53.139 Y15.12 E0.12111
G1 X53.759 Y14.514 E0.15139
G1 X54.432 Y13.968 E0.18165
G1 X55.153 Y13.486 E0.21194
G1 X55.915 Y13.073 E0.24221
G1 X56.712 Y12.732 E0.27248
G1 X57.537 Y12.466 E0.30275
G1 X58.383 Y12.277 E0.33303
G1 X59.243 Y12.166 E0.36331
G1 X59.746 Y12.139 E0.3809
G1 X60.33 Y12.126 E0.4013
G1 X149.294 Y12.118 E3.5082
G1 X150.126 Y12.129 E3.53726
G1 X150.991 Y12.181 E3.56753
G1 X151.848 Y12.313 E3.59781
G1 X152.689 Y12.524 E3.62809
G1 X153.507 Y12.81 E3.65835
G1 X154.296 Y13.172 E3.68867
G1 X155.047 Y13.604 E3.71893
G1 X155.756 Y14.103 E3.7492
G1 X156.415 Y14.666 E3.77947
G1 X157.02 Y15.287 E3.80975
G1 X157.565 Y15.961 E3.84002
G1 X158.046 Y16.683 E3.87032
G1 X158.458 Y17.445 E3.90057
G1 X158.798 Y18.243 E3.93086
G1 X159.063 Y19.068 E3.96113
G1 X159.251 Y19.914 E3.99139
G1 X159.361 Y20.774 E4.02167
G1 X159.396 Y21.584 E4.04998
G1 X159.4 Y41.811 E4.75637
G1 X159.389 Y42.646 E4.78554
G1 X159.367 Y43.175 E4.80403
G1 X159.316 Y43.898 E4.82934
G1 X159.168 Y46.51 E4.92071
G1 X159.096 Y49.052 E5.00952
G1 X159.096 Y51.63 E5.09955
G1 X159.168 Y54.173 E5.18839
G1 X159.316 Y56.786 E5.27979
G1 X159.357 Y57.324 E5.29864
G1 X159.387 Y57.918 E5.31941
G1 X159.4 Y58.502 E5.33981
G1 X159.4 Y78.437 E6.036
G1 X159.389 Y79.293 E6.0659
G1 X159.337 Y80.159 E6.09619
G1 X159.206 Y81.016 E6.12647
G1 X158.996 Y81.857 E6.15674
G1 X158.71 Y82.675 E6.18701
G1 X158.349 Y83.463 E6.21728
G1 X157.917 Y84.215 E6.24756
G1 X157.418 Y84.924 E6.27784
G1 X156.856 Y85.584 E6.30812
G1 X156.235 Y86.189 E6.33839
G1 X155.562 Y86.735 E6.36866
G1 X154.84 Y87.216 E6.39896
G1 X154.078 Y87.629 E6.42922
G1 X153.281 Y87.969 E6.45949
G1 X152.455 Y88.235 E6.48979
G1 X151.609 Y88.423 E6.52006
G1 X150.749 Y88.533 E6.55034
G1 X149.934 Y88.569 E6.57883
G1 X98.707 Y88.573 E8.36783
G1 X97.87 Y88.562 E8.39707
G1 X97.005 Y88.51 E8.42733
G1 X96.148 Y88.378 E8.45761
G1 X95.307 Y88.168 E8.48788
G1 X94.489 Y87.881 E8.51816
G1 X93.701 Y87.52 E8.54843
G1 X92.949 Y87.088 E8.57872
G1 X92.207 Y86.563 E8.61046
G1 X91.191 Y85.767 E8.65553
G1 X89.134 Y84.203 E8.74578
G1 X87.04 Y82.701 E8.83577
G1 X84.916 Y81.267 E8.92527
G1 X82.76 Y79.898 E9.01446
G1 X80.566 Y78.592 E9.10363
G1 X78.299 Y77.327 E9.19429
G1 X76.043 Y76.15 E9.28316
G1 X73.727 Y75.023 E9.37311
G1 X71.409 Y73.977 E9.46192
G1 X69.013 Y72.975 E9.55262
G1 X66.648 Y72.067 E9.64109
G1 X64.253 Y71.221 E9.7298
G1 X61.781 Y70.427 E9.82047
G1 X59.316 Y69.71 E9.91012
G1 X58.527 Y69.505 E9.93859
G1 X57.526 Y69.232 E9.97483
G1 X56.702 Y68.965 E10.00508
G1 X55.905 Y68.622 E10.03538
G1 X55.143 Y68.208 E10.06566
G1 X54.423 Y67.726 E10.09592
G1 X53.751 Y67.179 E10.12618
G1 X53.131 Y66.572 E10.15649
G1 X52.57 Y65.911 E10.18676
G1 X52.072 Y65.201 E10.21705
G1 X51.642 Y64.449 E10.2473
G1 X51.283 Y63.66 E10.27758
G1 X50.999 Y62.841 E10.30785
G1 X50.79 Y61.999 E10.33815
G1 X50.661 Y61.142 E10.36841
G1 X50.614 Y60.444 E10.39284
G1 X50.6 Y59.828 E10.41436
G1 X50.6 Y58.872 E10.44775
G1 X50.611 Y58.053 E10.47635
G1 X50.664 Y57.188 E10.50662
G1 X50.874 Y55.763 E10.55692
G1 X51.031 Y54.843 E10.58951
G1 X51.395 Y52.276 E10.68006
G1 X51.681 Y49.745 E10.76901
G1 X51.897 Y47.197 E10.85832
G1 X52.041 Y44.635 E10.94793
G1 X52.112 Y42.086 E11.03698
G1 X52.11 Y39.507 E11.12705
G1 X52.037 Y36.964 E11.2159
G1 X51.891 Y34.401 E11.30555
G1 X51.671 Y31.839 E11.39535
G1 X51.381 Y29.293 E11.48484
G1 X51.015 Y26.728 E11.57533
G1 X50.737 Y25.058 E11.63445
G1 X50.614 Y23.802 E11.67852
G1 X50.6 Y23.188 E11.69997
G1 X50.6 Y22.224 E11.73364
G1 X50.61 Y21.412 E11.762
G1 X50.661 Y20.547 E11.79226
G1 X50.792 Y19.69 E11.82254
G1 X51.001 Y18.848 E11.85283
G1 X51.287 Y18.03 E11.8831
M204 S3000
M205 X10 Y10
G0 F6000 X51.845 Y18.145
M204 S1800
M205 X8 Y8
G1 F1200 X52.204 Y17.384 E11.91248
G1 X52.634 Y16.662 E11.94183
G1 X53.13 Y15.983 E11.97119
G1 X53.688 Y15.355 E12.00053
G1 X54.304 Y14.782 E12.02991
G1 X54.971 Y14.271 E12.05926
G1 X55.684 Y13.825 E12.08863
G1 X56.436 Y13.449 E12.11799
G1 X57.22 Y13.146 E12.14734
G1 X58.03 Y12.919 E12.17672
G1 X58.857 Y12.77 E12.20607
G1 X59.762 Y12.698 E12.23777
G1 X60.33 Y12.686 E12.25761
G1 X149.294 Y12.678 E15.36452
G1 X150.118 Y12.689 E15.3933
G1 X150.957 Y12.741 E15.42265
G1 X151.787 Y12.872 E15.452
G1 X152.602 Y13.082 E15.48139
G1 X153.392 Y13.368 E15.51073
G1 X154.152 Y13.728 E15.5401
G1 X154.874 Y14.159 E15.56947
G1 X155.552 Y14.656 E15.59882
G1 X156.18 Y15.215 E15.62819
G1 X156.751 Y15.832 E15.65754
G1 X157.262 Y16.5 E15.68692
G1 X157.707 Y17.213 E15.71627
G1 X158.081 Y17.966 E15.74563
G1 X158.383 Y18.75 E15.77497
G1 X158.609 Y19.56 E15.80434
G1 X158.757 Y20.388 E15.83371
G1 X158.828 Y21.279 E15.86493
G1 X158.84 Y21.848 E15.8848
G1 X158.84 Y41.811 E16.58198
G1 X158.829 Y42.638 E16.61086
G1 X158.759 Y43.825 E16.65238
G1 X158.608 Y46.497 E16.74585
G1 X158.536 Y49.036 E16.83455
G1 X158.536 Y51.646 E16.9257
G1 X158.608 Y54.186 E17.01444
G1 X158.757 Y56.815 E17.1064
G1 X158.798 Y57.357 E17.12539
G1 X158.827 Y57.934 E17.14556
G1 X158.84 Y58.502 E17.1654
G1 X158.84 Y78.437 E17.8616
G1 X158.829 Y79.286 E17.89125
G1 X158.778 Y80.125 E17.9206
G1 X158.647 Y80.955 E17.94995
G1 X158.437 Y81.769 E17.97931
G1 X158.152 Y82.56 E18.00867
G1 X157.792 Y83.32 E18.03804
G1 X157.362 Y84.042 E18.06739
G1 X156.865 Y84.721 E18.09677
G1 X156.306 Y85.349 E18.12613
G1 X155.69 Y85.921 E18.15549
G1 X155.023 Y86.432 E18.18483
G1 X154.309 Y86.877 E18.21422
G1 X153.557 Y87.252 E18.24356
G1 X152.773 Y87.555 E18.27292
G1 X151.963 Y87.781 E18.30228
G1 X151.136 Y87.929 E18.33162
G1 X150.239 Y88.001 E18.36305
G1 X149.67 Y88.013 E18.38293
G1 X98.707 Y88.013 E20.16272
G1 X97.878 Y88.002 E20.19167
G1 X97.039 Y87.95 E20.22103
G1 X96.209 Y87.819 E20.25037
G1 X95.395 Y87.609 E20.27973
G1 X94.604 Y87.323 E20.3091
G1 X93.844 Y86.963 E20.33847
G1 X93.122 Y86.533 E20.36782
G1 X92.553 Y86.122 E20.39233
G1 X91.552 Y85.338 E20.43674
G1 X89.481 Y83.763 E20.5276
G1 X87.345 Y82.231 E20.6194
G1 X85.228 Y80.801 E20.70862
G1 X83.043 Y79.414 E20.799
G1 X80.832 Y78.098 E20.88886
G1 X78.58 Y76.842 E20.97891
G1 X76.297 Y75.65 E21.06885
G1 X73.994 Y74.53 E21.15829
G1 X71.605 Y73.451 E21.24984
G1 X69.222 Y72.455 E21.34003
G1 X66.848 Y71.543 E21.42885
G1 X64.403 Y70.68 E21.5194
G1 X61.974 Y69.899 E21.6085
G1 X59.493 Y69.179 E21.69872
G1 X58.669 Y68.964 E21.72846
G1 X57.674 Y68.692 E21.76449
G1 X56.875 Y68.431 E21.79384
G1 X56.104 Y68.096 E21.8232
G1 X55.368 Y67.689 E21.85257
G1 X54.675 Y67.214 E21.88191
G1 X54.029 Y66.676 E21.91127
G1 X53.438 Y66.078 E21.94063
G1 X52.906 Y65.427 E21.96999
G1 X52.438 Y64.728 E21.99937
G1 X52.039 Y63.988 E22.02873
G1 X51.712 Y63.214 E22.05808
G1 X51.46 Y62.412 E22.08743
G1 X51.285 Y61.589 E22.11682
G1 X51.174 Y60.427 E22.15758
G1 X51.16 Y59.828 E22.17851
G1 X51.16 Y58.872 E22.2119
G1 X51.171 Y58.061 E22.24022
G1 X51.275 Y56.834 E22.28323
G1 X51.428 Y55.849 E22.31804
G1 X51.588 Y54.907 E22.35141
G1 X51.946 Y52.384 E22.4404
G1 X52.24 Y49.786 E22.53171
G1 X52.456 Y47.24 E22.62094
G1 X52.599 Y44.681 E22.71045
G1 X52.672 Y42.067 E22.80178
G1 X52.67 Y39.49 E22.89177
G1 X52.597 Y36.951 E22.98048
G1 X52.449 Y34.356 E23.07125
G1 X52.227 Y31.762 E23.16217
G1 X51.938 Y29.224 E23.25138
G1 X51.569 Y26.642 E23.34247
G1 X51.29 Y24.966 E23.40181
G1 X51.174 Y23.785 E23.44325
G1 X51.16 Y23.188 E23.4641
G1 X51.16 Y22.224 E23.49777
G1 X51.17 Y21.42 E23.52585
G1 X51.221 Y20.58 E23.55524
G1 X51.351 Y19.75 E23.58458
G1 X51.56 Y18.935 E23.61396
G1 X51.845 Y18.145 E23.64329
M204 S3000
M205 X10 Y10
G0 F6000 X52.403 Y18.263
M204 S1800
M205 X8 Y8
G1 F1200 X52.761 Y17.532 E23.67172
G1 X53.189 Y16.84 E23.70013
G1 X53.682 Y16.193 E23.72854
G1 X54.237 Y15.598 E23.75696
G1 X54.848 Y15.06 E23.78539
G1 X55.508 Y14.585 E23.81378
G1 X56.212 Y14.177 E23.8422
G1 X56.953 Y13.84 E23.87063
G1 X57.723 Y13.577 E23.89905
G1 X58.515 Y13.391 E23.92746
G1 X59.321 Y13.284 E23.95585
G1 X60.1 Y13.249 E23.98309
G1 X149.294 Y13.238 E27.09802
G1 X150.11 Y13.249 E27.12652
G1 X150.922 Y13.301 E27.15494
G1 X151.725 Y13.432 E27.18335
G1 X152.511 Y13.641 E27.21175
G1 X153.273 Y13.926 E27.24016
G1 X154.003 Y14.285 E27.26857
G1 X154.695 Y14.714 E27.29701
G1 X155.341 Y15.208 E27.32541
G1 X155.935 Y15.764 E27.35382
G1 X156.472 Y16.375 E27.38223
G1 X156.947 Y17.036 E27.41066
G1 X157.354 Y17.741 E27.43909
G1 X157.69 Y18.482 E27.4675
G1 X157.952 Y19.252 E27.49591
G1 X158.137 Y20.044 E27.52431
G1 X158.243 Y20.851 E27.55273
G1 X158.277 Y21.615 E27.57944
G1 X158.28 Y41.811 E28.28475
G1 X158.269 Y42.63 E28.31335
G1 X158.203 Y43.744 E28.35233
G1 X158.05 Y46.449 E28.44695
G1 X157.976 Y49.055 E28.53799
G1 X157.976 Y51.627 E28.62781
G1 X158.05 Y54.232 E28.71883
G1 X158.198 Y56.847 E28.8103
G1 X158.239 Y57.39 E28.82931
G1 X158.268 Y57.949 E28.84886
G1 X158.28 Y58.502 E28.86818
G1 X158.28 Y78.437 E29.56437
G1 X158.269 Y79.278 E29.59374
G1 X158.218 Y80.09 E29.62216
G1 X158.087 Y80.893 E29.65057
G1 X157.879 Y81.679 E29.67897
G1 X157.594 Y82.441 E29.70738
G1 X157.235 Y83.172 E29.73582
G1 X156.807 Y83.864 E29.76424
G1 X156.313 Y84.51 E29.79264
G1 X155.758 Y85.105 E29.82105
G1 X155.147 Y85.642 E29.84946
G1 X154.486 Y86.117 E29.87789
G1 X153.782 Y86.525 E29.9063
G1 X153.041 Y86.861 E29.93472
G1 X152.271 Y87.124 E29.96313
G1 X151.479 Y87.309 E29.99154
G1 X150.672 Y87.416 E30.01997
G1 X149.903 Y87.45 E30.04685
G1 X98.707 Y87.453 E31.83477
G1 X97.886 Y87.442 E31.86345
G1 X97.074 Y87.391 E31.89186
G1 X96.271 Y87.26 E31.92028
G1 X95.485 Y87.05 E31.94869
G1 X94.723 Y86.765 E31.9771
G1 X93.993 Y86.406 E32.00551
G1 X93.301 Y85.978 E32.03392
G1 X92.898 Y85.681 E32.05141
G1 X91.877 Y84.881 E32.09671
G1 X89.811 Y83.31 E32.18735
G1 X87.683 Y81.784 E32.2788
G1 X85.522 Y80.325 E32.36986
G1 X83.336 Y78.937 E32.46029
G1 X81.114 Y77.614 E32.5506
G1 X78.862 Y76.357 E32.64067
G1 X76.55 Y75.152 E32.73172
G1 X74.191 Y74.004 E32.82334
G1 X71.874 Y72.958 E32.91212
G1 X69.431 Y71.936 E33.0046
G1 X67.026 Y71.012 E33.09458
G1 X64.583 Y70.15 E33.18505
G1 X62.124 Y69.36 E33.27525
G1 X59.646 Y68.64 E33.36537
G1 X58.81 Y68.422 E33.39554
G1 X57.822 Y68.152 E33.43131
G1 X57.049 Y67.898 E33.45973
G1 X56.304 Y67.571 E33.48814
G1 X55.596 Y67.171 E33.51654
G1 X54.929 Y66.704 E33.54497
G1 X54.312 Y66.174 E33.57338
G1 X53.75 Y65.586 E33.60179
G1 X53.248 Y64.945 E33.63022
G1 X52.812 Y64.258 E33.65864
G1 X52.445 Y63.532 E33.68705
G1 X52.151 Y62.773 E33.71547
G1 X51.933 Y61.99 E33.74386
G1 X51.793 Y61.188 E33.77229
G1 X51.734 Y60.411 E33.7995
G1 X51.72 Y59.828 E33.81987
G1 X51.72 Y58.872 E33.85325
G1 X51.731 Y58.069 E33.8813
G1 X51.828 Y56.92 E33.92157
G1 X51.981 Y55.935 E33.95638
G1 X52.139 Y55.011 E33.98912
G1 X52.501 Y52.456 E34.07924
G1 X52.798 Y49.826 E34.17167
G1 X53.014 Y47.282 E34.26083
G1 X53.159 Y44.694 E34.35136
G1 X53.232 Y42.083 E34.44258
G1 X53.23 Y39.51 E34.53243
G1 X53.155 Y36.903 E34.62352
G1 X53.008 Y34.311 E34.71418
G1 X52.785 Y31.724 E34.80486
G1 X52.492 Y29.151 E34.8953
G1 X52.122 Y26.556 E34.98684
G1 X51.842 Y24.874 E35.04639
G1 X51.734 Y23.768 E35.0852
G1 X51.72 Y23.188 E35.10546
G1 X51.72 Y22.224 E35.13913
G1 X51.73 Y21.427 E35.16696
G1 X51.78 Y20.615 E35.19538
G1 X51.91 Y19.812 E35.22378
G1 X52.119 Y19.025 E35.25222
G1 X52.403 Y18.263 E35.28062
M204 S3000
M205 X10 Y10
G1 F4200 E27.28062
;MESH:soporte-router.stl
G0 F6000 X59.335 Y22.38
G0 X60.854 Y22.38
G0 X148.91 Y22.608
G0 X148.84 Y22.678
M204 S1800
M205 X8 Y8
;TYPE:WALL-INNER
G1 F4200 E35.28062
G1 F1800 X60.84 Y22.678 E38.35386
G1 X60.84 Y22.366 E38.36475
G1 X148.839 Y22.359 E40.09617
G1 X149.16 Y22.358 E40.10738
G1 X149.16 Y22.678 E40.11383
G1 X149.16 Y41.358 E40.7662
G1 X149.16 Y41.678 E40.77737
G1 X148.84 Y41.678 E40.78681
G1 X98.84 Y41.678 E42.53297
G1 X98.84 Y41.366 E42.54387
G1 X148.84 Y41.358 E43.5292
G1 X148.84 Y22.678 E43.90198
M204 S3000
M205 X10 Y10
G0 F6000 X148.28 Y23.238
M204 S1800
M205 X8 Y8
;TYPE:WALL-OUTER
G1 F1800 X60.28 Y23.238 E46.97521
G1 X60.28 Y21.806 E47.02522
G1 X149.411 Y21.798 E50.13796
G1 X149.662 Y21.798 E50.14672
G1 X149.72 Y21.798 E50.14875
G1 X149.72 Y22.049 E50.15474
G1 X149.72 Y42.238 E50.85981
G1 X98.28 Y42.238 E52.65625
G1 X98.28 Y40.806 E52.70626
G1 X148.28 Y40.798 E54.45242
G1 X148.28 Y23.238 E55.06567
M204 S3000
M205 X10 Y10
G0 F6000 X148.08 Y23.238
G1 F4200 E47.06567
;MESH:soporte-router.stl(1)
G0 F6000 X148.08 Y22.578
G0 X148.86 Y41.378
G0 X148.86 Y43.183
G0 X148.86 Y57.509
G0 X148.861 Y59.014
G0 X148.84 Y59.333
M204 S1800
M205 X8 Y8
;TYPE:WALL-INNER
G1 F4200 E55.06567
G1 F1800 X60.84 Y59.333 E58.13891
G1 X60.84 Y59.021 E58.1498
G1 X148.839 Y59.014 E59.88122
G1 X149.16 Y59.013 E59.89243
G1 X149.16 Y59.333 E59.89888
G1 X149.16 Y78.013 E60.55125
G1 X149.16 Y78.333 E60.56242
G1 X148.84 Y78.333 E60.57186
G1 X98.84 Y78.333 E62.31802
G1 X98.84 Y78.021 E62.32892
G1 X148.84 Y78.013 E63.31425
G1 X148.84 Y59.333 E63.68703
M204 S3000
M205 X10 Y10
G0 F6000 X148.28 Y59.893
M204 S1800
M205 X8 Y8
;TYPE:WALL-OUTER
G1 F1800 X60.28 Y59.893 E66.76026
G1 X60.28 Y58.461 E66.81027
G1 X149.411 Y58.453 E69.92301
G1 X149.662 Y58.453 E69.93177
G1 X149.72 Y58.453 E69.9338
G1 X149.72 Y58.704 E69.93979
M104 S210
G1 X149.72 Y78.893 E70.64486
G1 X98.28 Y78.893 E72.4413
G1 X98.28 Y77.461 E72.49131
G1 X148.28 Y77.453 E74.23747
G1 X148.28 Y59.893 E74.85072
M204 S3000
M205 X10 Y10
G0 F6000 X148.08 Y59.893
G1 F4200 E66.85072
;MESH:NONMESH
G0 F600 X148.08 Y59.893 Z0.45
G0 F6000 X148.08 Y59.233
G0 X148.941 Y59.014
G0 X148.94 Y57.509
G0 X148.941 Y43.183
G0 X148.941 Y41.658
G0 X148.6 Y41.118
;TIME_ELAPSED:98.194455
;LAYER:1
M140 S60
M106 S127.5
M204 S1800
M205 X8 Y8
;TYPE:WALL-INNER
;MESH:soporte-router.stl
G1 F4200 E74.85072
G1 F2250 X148.6 Y22.918 E75.75872
G1 X60.6 Y22.918 E80.14906
G1 X60.6 Y22.118 E80.18897
G1 X149.4 Y22.118 E84.61922
G1 X149.4 Y41.918 E85.60705
G1 X98.6 Y41.918 E88.14147
G1 X98.6 Y41.118 E88.18138
G1 X148.6 Y41.118 E90.67589
M204 S3000
M205 X10 Y10
G0 F6000 X148.2 Y40.718
M204 S1800
M205 X8 Y8
;TYPE:WALL-OUTER
G1 F2250 X148.2 Y23.318 E91.54398
G1 X60.2 Y23.318 E95.93432
G1 X60.2 Y21.718 E96.01415
G1 X149.8 Y21.718 E100.48431
G1 X149.8 Y42.318 E101.51205
G1 X98.2 Y42.318 E104.08638
G1 X98.2 Y40.718 E104.1662
G1 X148.2 Y40.718 E106.66071
M204 S3000
M205 X10 Y10
G0 F6000 X148.2 Y40.518
G0 X148.999 Y40.222
M204 S1800
M205 X8 Y8
;TYPE:SKIN
G1 F1800 X148.999 Y39.939 E106.68154
G1 X148.999 Y22.686 E107.95134
M204 S3000
M205 X10 Y10
G0 F6000 X148.884 Y22.517
M204 S1800
M205 X8 Y8
G1 F1800 X148.601 Y22.517 E107.97159
G1 X82.981 Y22.517 E112.66788
G1 X61.202 Y22.517 E114.22656
G1 X60.818 Y22.336 E114.25695
M204 S3000
M205 X10 Y10
G0 F6000 X60.714 Y22.441
G0 X148.628 Y22.89
G0 X148.628 Y41.146
G0 X98.714 Y41.292
G0 X98.744 Y41.262
M204 S1800
M205 X8 Y8
G1 F1800 X98.885 Y41.403 E114.27117
M204 S3000
M205 X10 Y10
G0 F6000 X99.054 Y41.517
M204 S1800
M205 X8 Y8
G1 F1800 X99.337 Y41.517 E114.29156
G1 X148.269 Y41.517 E117.81695
M204 S3000
M205 X10 Y10
G0 F6000 X148.999 Y40.788
M204 S1800
M205 X8 Y8
G1 F1800 X148.775 Y41.294 E117.87299
M204 S3000
M205 X10 Y10
G0 F6000 X148.549 Y41.803
M204 S1800
M205 X8 Y8
G1 F1800 X149.284 Y41.068 E117.89892
M204 S3000
M205 X10 Y10
G0 F6000 X149.284 Y41.351
M204 S1800
M205 X8 Y8
G1 F1800 X148.832 Y41.803 E117.91486
M204 S3000
M205 X10 Y10
G0 F6000 X149.115 Y41.803
M204 S1800
M205 X8 Y8
G1 F1800 X149.284 Y41.634 E117.92082
M204 S3000
M205 X10 Y10
