;FLAVOR:Marlin
;TIME:2071
;Filament used: 3.29651m
;Layer height: 0.3
;MINX:50.6
;MINY:9.026
;MINZ:0.15
;MAXX:159.4
;MAXY:129.771
;MAXZ:9.75
;Generated with Cura_SteamEngine 4.5.0
M140 S60
M105
M190 S60
M104 S205
M105
M109 S205
M82 ;absolute extrusion mode
G21 ;metric values
G90 ;absolute positioning
M82 ;set extruder to absolute mode
M107 ;start with the fan off
G28 X0 Y0 ;move X/Y to min endstops
G28 Z0 ;move Z to min endstops
G1 Z15.0 F100 ;move the platform down 15mm
G92 E0 ;zero the extruded length
G1 F200 E3 ;extrude 3mm of feed stock
G92 E0 ;zero the extruded length again
G1 F100
G0 Y20 F100
M117 Printing...
G5
G92 E0
G92 E0
G1 F4200 E-8
;LAYER_COUNT:33
;LAYER:0
M107
M204 S3000
M205 X10 Y10
G1 F600 Z0.225
G0 F6000 X51.001 Y15.764 Z0.225
M204 S1800
M205 X8 Y8
;TYPE:SKIRT
G1 F600 Z0.15
G1 F4200 E0
G1 F1200 X51.287 Y14.946 E0.03026
G1 X51.647 Y14.157 E0.06055
G1 X52.078 Y13.405 E0.09082
G1 X52.577 Y12.696 E0.1211
G1 X53.139 Y12.036 E0.15137
G1 X53.759 Y11.43 E0.18165
G1 X54.432 Y10.884 E0.21191
G1 X55.153 Y10.402 E0.2422
G1 X55.915 Y9.989 E0.27247
G1 X56.712 Y9.648 E0.30275
G1 X57.537 Y9.382 E0.33302
G1 X58.383 Y9.193 E0.36329
G1 X59.243 Y9.082 E0.39357
G1 X59.747 Y9.055 E0.4112
G1 X60.33 Y9.042 E0.43157
G1 X149.291 Y9.026 E3.53836
G1 X150.126 Y9.037 E3.56753
G1 X150.991 Y9.089 E3.59779
G1 X151.848 Y9.221 E3.62807
G1 X152.689 Y9.431 E3.65834
G1 X153.507 Y9.718 E3.68862
G1 X154.295 Y10.079 E3.71889
G1 X155.047 Y10.511 E3.74918
G1 X155.755 Y11.011 E3.77944
G1 X156.415 Y11.574 E3.80974
G1 X157.02 Y12.195 E3.84002
G1 X157.565 Y12.869 E3.87029
G1 X158.046 Y13.59 E3.90056
G1 X158.458 Y14.353 E3.93084
G1 X158.798 Y15.15 E3.9611
G1 X159.063 Y15.976 E3.9914
G1 X159.251 Y16.822 E4.02166
G1 X159.361 Y17.682 E4.05194
G1 X159.396 Y18.492 E4.08025
G1 X159.4 Y63.148 E5.63978
G1 X159.389 Y63.97 E5.66849
G1 X159.323 Y65.624 E5.7263
G1 X159.251 Y68.179 E5.81556
G1 X159.251 Y70.758 E5.90563
G1 X159.324 Y73.342 E5.99591
G1 X159.375 Y74.358 E6.03144
G1 X159.396 Y74.99 E6.05352
G1 X159.4 Y119.635 E7.61266
G1 X159.39 Y120.478 E7.64211
G1 X159.34 Y121.344 E7.6724
G1 X159.209 Y122.201 E7.70268
G1 X159.001 Y123.042 E7.73293
G1 X158.715 Y123.861 E7.76323
G1 X158.356 Y124.65 E7.7935
G1 X157.925 Y125.402 E7.82377
G1 X157.427 Y126.112 E7.85406
G1 X156.866 Y126.773 E7.88433
G1 X156.246 Y127.379 E7.91461
G1 X155.573 Y127.925 E7.94488
G1 X154.852 Y128.407 E7.97516
G1 X154.091 Y128.821 E8.00542
G1 X153.294 Y129.163 E8.03571
G1 X152.469 Y129.43 E8.06599
G1 X151.623 Y129.619 E8.09626
G1 X150.763 Y129.73 E8.12655
G1 X150.254 Y129.758 E8.14435
G1 X149.67 Y129.771 E8.16475
G1 X98.707 Y129.771 E9.94454
G1 X97.874 Y129.76 E9.97363
G1 X97.009 Y129.708 E10.00389
G1 X96.152 Y129.576 E10.03418
G1 X95.311 Y129.366 E10.06445
G1 X94.493 Y129.079 E10.09472
G1 X93.705 Y128.718 E10.12499
G1 X92.953 Y128.286 E10.15528
G1 X92.245 Y127.786 E10.18555
G1 X91.585 Y127.223 E10.21585
G1 X90.98 Y126.602 E10.24612
G1 X90.435 Y125.928 E10.27639
G1 X89.954 Y125.207 E10.30666
G1 X89.507 Y124.371 E10.33977
G1 X88.395 Y122.014 E10.43078
G1 X87.245 Y119.737 E10.51987
G1 X86.008 Y117.45 E10.61067
G1 X84.748 Y115.27 E10.69861
G1 X83.377 Y113.047 E10.78982
G1 X81.999 Y110.946 E10.87757
G1 X80.514 Y108.82 E10.96813
G1 X79.005 Y106.78 E11.05675
G1 X77.426 Y104.768 E11.14607
G1 X75.759 Y102.765 E11.23708
G1 X74.079 Y100.859 E11.32581
G1 X72.334 Y98.986 E11.41521
G1 X70.54 Y97.168 E11.5044
G1 X68.694 Y95.4 E11.59367
G1 X66.78 Y93.668 E11.68382
G1 X64.842 Y92.011 E11.77287
G1 X62.832 Y90.388 E11.86309
G1 X60.8 Y88.843 E11.95223
G1 X58.733 Y87.36 E12.04108
G1 X56.602 Y85.921 E12.13088
G1 X55.598 Y85.283 E12.17242
G1 X54.868 Y84.806 E12.20287
G1 X54.166 Y84.298 E12.23314
G1 X53.513 Y83.728 E12.26341
G1 X52.915 Y83.099 E12.29372
G1 X52.378 Y82.419 E12.32398
G1 X51.906 Y81.692 E12.35425
G1 X51.503 Y80.924 E12.38454
G1 X51.173 Y80.123 E12.41479
G1 X50.917 Y79.294 E12.44509
G1 X50.739 Y78.446 E12.47535
G1 X50.632 Y77.454 E12.5102
G1 X50.6 Y76.612 E12.53962
G1 X50.6 Y75.641 E12.57353
G1 X50.611 Y74.828 E12.60193
G1 X50.664 Y73.963 E12.63219
G1 X50.796 Y73.106 E12.66248
G1 X50.939 Y72.502 E12.68415
G1 X51.147 Y71.737 E12.71184
G1 X51.793 Y69.249 E12.80161
G1 X52.38 Y66.698 E12.89303
G1 X52.875 Y64.22 E12.98127
G1 X53.308 Y61.682 E13.07119
G1 X53.667 Y59.156 E13.16029
G1 X53.955 Y56.617 E13.24953
G1 X54.171 Y54.063 E13.33904
G1 X54.316 Y51.493 E13.42894
G1 X54.387 Y48.951 E13.51775
G1 X54.385 Y46.372 E13.60781
G1 X54.312 Y43.829 E13.69666
G1 X54.165 Y41.245 E13.78705
G1 X53.948 Y38.693 E13.87649
G1 X53.66 Y36.174 E13.96504
G1 X53.294 Y33.609 E14.05552
G1 X52.862 Y31.091 E14.14474
G1 X52.357 Y28.582 E14.23412
G1 X51.792 Y26.127 E14.3221
G1 X51.119 Y23.547 E14.41522
G1 X50.948 Y22.928 E14.43765
G1 X50.757 Y22.083 E14.4679
G1 X50.644 Y21.223 E14.49819
G1 X50.614 Y20.711 E14.5161
G1 X50.6 Y20.096 E14.53759
G1 X50.6 Y19.14 E14.57097
G1 X50.61 Y18.328 E14.59933
G1 X50.661 Y17.463 E14.62959
G1 X50.792 Y16.606 E14.65987
G1 X51.001 Y15.764 E14.69017
M204 S3000
M205 X10 Y10
G0 F6000 X51.56 Y15.851
M204 S1800
M205 X8 Y8
G1 F1200 X51.845 Y15.061 E14.7195
G1 X52.204 Y14.3 E14.74888
G1 X52.634 Y13.578 E14.77823
G1 X53.13 Y12.899 E14.8076
G1 X53.688 Y12.271 E14.83694
G1 X54.304 Y11.698 E14.86632
G1 X54.971 Y11.187 E14.89566
G1 X55.684 Y10.741 E14.92503
G1 X56.436 Y10.365 E14.95439
G1 X57.22 Y10.062 E14.98375
G1 X58.03 Y9.835 E15.01312
G1 X58.857 Y9.686 E15.04247
G1 X59.763 Y9.614 E15.07421
G1 X60.33 Y9.602 E15.09402
G1 X149.291 Y9.586 E18.20081
G1 X150.118 Y9.597 E18.2297
G1 X150.957 Y9.649 E18.25905
G1 X151.787 Y9.78 E18.2884
G1 X152.601 Y9.99 E18.31776
G1 X153.392 Y10.276 E18.34713
G1 X154.152 Y10.636 E18.3765
G1 X154.874 Y11.067 E18.40587
G1 X155.552 Y11.564 E18.43522
G1 X156.179 Y12.123 E18.46456
G1 X156.751 Y12.74 E18.49394
G1 X157.262 Y13.408 E18.52331
G1 X157.706 Y14.121 E18.55265
G1 X158.081 Y14.873 E18.58199
G1 X158.383 Y15.658 E18.61137
G1 X158.609 Y16.468 E18.64074
G1 X158.757 Y17.295 E18.67008
G1 X158.828 Y18.187 E18.70133
G1 X158.84 Y18.756 E18.7212
G1 X158.84 Y63.148 E20.27151
G1 X158.829 Y63.962 E20.29994
G1 X158.763 Y65.601 E20.35723
G1 X158.691 Y68.163 E20.44673
G1 X158.691 Y70.774 E20.53792
G1 X158.764 Y73.34 E20.62757
G1 X158.816 Y74.386 E20.66414
G1 X158.836 Y75.007 E20.68584
G1 X158.84 Y119.635 E22.24439
G1 X158.83 Y120.471 E22.27359
G1 X158.78 Y121.311 E22.30298
G1 X158.65 Y122.141 E22.33231
G1 X158.442 Y122.956 E22.36169
G1 X158.157 Y123.747 E22.39105
G1 X157.799 Y124.507 E22.42039
G1 X157.37 Y125.23 E22.44975
G1 X156.874 Y125.909 E22.47912
G1 X156.316 Y126.538 E22.50848
G1 X155.701 Y127.111 E22.53784
G1 X155.034 Y127.623 E22.5672
G1 X154.321 Y128.069 E22.59657
G1 X153.569 Y128.445 E22.62593
G1 X152.785 Y128.749 E22.6553
G1 X151.976 Y128.976 E22.68464
G1 X151.149 Y129.126 E22.714
G1 X150.239 Y129.199 E22.74588
G1 X149.67 Y129.211 E22.76575
G1 X98.707 Y129.211 E24.54554
G1 X97.882 Y129.2 E24.57436
G1 X97.043 Y129.148 E24.60371
G1 X96.213 Y129.017 E24.63306
G1 X95.399 Y128.807 E24.66242
G1 X94.608 Y128.521 E24.69179
G1 X93.848 Y128.161 E24.72116
G1 X93.126 Y127.73 E24.75053
G1 X92.448 Y127.233 E24.77988
G1 X91.821 Y126.674 E24.80922
G1 X91.249 Y126.057 E24.8386
G1 X90.738 Y125.389 E24.86797
G1 X90.294 Y124.676 E24.89731
G1 X90.014 Y124.132 E24.91867
G1 X88.908 Y121.788 E25.00919
G1 X87.73 Y119.454 E25.10049
G1 X86.509 Y117.196 E25.19014
G1 X85.224 Y114.973 E25.27981
G1 X83.862 Y112.766 E25.37038
G1 X82.456 Y110.621 E25.45995
G1 X80.975 Y108.502 E25.55024
G1 X79.435 Y106.42 E25.64067
G1 X77.854 Y104.405 E25.73012
G1 X76.212 Y102.432 E25.81976
G1 X74.495 Y100.484 E25.91045
G1 X72.747 Y98.608 E26
G1 X70.929 Y96.766 E26.09038
G1 X69.06 Y94.975 E26.18078
G1 X67.163 Y93.259 E26.27011
G1 X65.178 Y91.562 E26.36132
G1 X63.181 Y89.95 E26.45094
G1 X61.147 Y88.403 E26.54019
G1 X59.038 Y86.889 E26.63086
G1 X56.898 Y85.444 E26.72103
G1 X55.899 Y84.81 E26.76235
G1 X55.175 Y84.337 E26.79256
G1 X54.495 Y83.844 E26.82189
G1 X53.864 Y83.288 E26.85126
G1 X53.289 Y82.675 E26.88061
G1 X52.775 Y82.01 E26.90996
G1 X52.326 Y81.299 E26.93933
G1 X51.947 Y80.548 E26.96871
G1 X51.641 Y79.765 E26.99807
G1 X51.411 Y78.957 E27.02741
G1 X51.258 Y78.13 E27.05678
G1 X51.191 Y77.423 E27.08158
G1 X51.16 Y76.612 E27.10992
G1 X51.16 Y75.641 E27.14383
G1 X51.171 Y74.837 E27.17191
G1 X51.223 Y73.998 E27.20127
G1 X51.355 Y73.167 E27.23066
G1 X51.48 Y72.649 E27.24927
G1 X51.664 Y71.972 E27.27377
G1 X52.34 Y69.37 E27.36765
G1 X52.926 Y66.823 E27.45893
G1 X53.426 Y64.321 E27.54803
G1 X53.859 Y61.781 E27.63802
G1 X54.222 Y59.228 E27.72807
G1 X54.513 Y56.654 E27.81854
G1 X54.729 Y54.11 E27.9077
G1 X54.874 Y51.539 E27.99763
G1 X54.947 Y48.932 E28.08871
G1 X54.945 Y46.355 E28.17871
G1 X54.872 Y43.816 E28.26741
G1 X54.723 Y41.2 E28.35892
G1 X54.506 Y38.655 E28.44812
G1 X54.215 Y36.101 E28.53789
G1 X53.845 Y33.504 E28.6295
G1 X53.414 Y30.996 E28.71838
G1 X52.908 Y28.483 E28.8079
G1 X52.33 Y25.971 E28.89792
G1 X51.657 Y23.393 E28.99097
G1 X51.488 Y22.779 E29.01321
G1 X51.303 Y21.959 E29.04256
G1 X51.197 Y21.125 E29.07192
G1 X51.164 Y20.361 E29.09863
G1 X51.16 Y19.14 E29.14127
G1 X51.17 Y18.336 E29.16935
G1 X51.221 Y17.496 E29.19874
G1 X51.351 Y16.666 E29.22808
G1 X51.56 Y15.851 E29.25746
M204 S3000
M205 X10 Y10
G0 F6000 X52.119 Y15.941
M204 S1800
M205 X8 Y8
G1 F1200 X52.403 Y15.179 E29.28586
G1 X52.761 Y14.448 E29.31429
G1 X53.189 Y13.756 E29.34271
G1 X53.682 Y13.109 E29.37111
G1 X54.237 Y12.514 E29.39953
G1 X54.848 Y11.976 E29.42796
G1 X55.508 Y11.501 E29.45636
G1 X56.212 Y11.093 E29.48477
G1 X56.953 Y10.756 E29.5132
G1 X57.723 Y10.493 E29.54162
G1 X58.515 Y10.307 E29.57003
G1 X59.321 Y10.2 E29.59843
G1 X60.101 Y10.165 E29.62569
G1 X149.292 Y10.146 E32.74052
G1 X150.11 Y10.157 E32.76909
G1 X150.922 Y10.208 E32.79751
G1 X151.725 Y10.34 E32.82593
G1 X152.511 Y10.549 E32.85433
G1 X153.273 Y10.834 E32.88274
G1 X154.003 Y11.193 E32.91115
G1 X154.695 Y11.622 E32.93959
G1 X155.341 Y12.116 E32.96799
G1 X155.935 Y12.672 E32.9964
G1 X156.472 Y13.283 E33.02481
G1 X156.947 Y13.944 E33.05323
G1 X157.354 Y14.648 E33.08163
G1 X157.69 Y15.389 E33.11005
G1 X157.952 Y16.16 E33.13849
G1 X158.137 Y16.952 E33.16689
G1 X158.243 Y17.759 E33.19531
G1 X158.277 Y18.523 E33.22202
G1 X158.28 Y63.148 E34.78047
G1 X158.269 Y63.954 E34.80862
G1 X158.206 Y65.526 E34.86356
G1 X158.131 Y68.182 E34.95635
G1 X158.131 Y70.755 E35.04621
G1 X158.205 Y73.383 E35.13803
G1 X158.257 Y74.414 E35.17408
G1 X158.276 Y75.023 E35.19536
G1 X158.28 Y119.635 E36.75335
G1 X158.27 Y120.464 E36.7823
G1 X158.22 Y121.277 E36.81075
G1 X158.091 Y122.08 E36.83915
G1 X157.883 Y122.867 E36.86758
G1 X157.599 Y123.629 E36.89598
G1 X157.242 Y124.36 E36.92439
G1 X156.814 Y125.052 E36.9528
G1 X156.321 Y125.699 E36.98121
G1 X155.767 Y126.295 E37.00963
G1 X155.157 Y126.833 E37.03803
G1 X154.497 Y127.309 E37.06645
G1 X153.793 Y127.717 E37.09487
G1 X153.053 Y128.055 E37.12328
G1 X152.283 Y128.318 E37.1517
G1 X151.491 Y128.505 E37.18011
G1 X150.684 Y128.613 E37.20855
G1 X149.902 Y128.648 E37.23589
G1 X98.707 Y128.651 E39.02378
G1 X97.89 Y128.64 E39.05231
G1 X97.078 Y128.589 E39.08072
G1 X96.275 Y128.457 E39.10914
G1 X95.489 Y128.248 E39.13755
G1 X94.727 Y127.963 E39.16596
G1 X93.997 Y127.604 E39.19437
G1 X93.305 Y127.175 E39.2228
G1 X92.659 Y126.681 E39.2512
G1 X92.065 Y126.125 E39.27962
G1 X91.528 Y125.514 E39.30803
G1 X91.053 Y124.853 E39.33645
G1 X90.52 Y123.893 E39.3748
G1 X89.399 Y121.517 E39.46655
G1 X88.243 Y119.228 E39.5561
G1 X86.999 Y116.928 E39.64742
G1 X85.698 Y114.677 E39.73822
G1 X84.329 Y112.458 E39.82928
G1 X82.922 Y110.312 E39.91889
G1 X81.424 Y108.167 E40.01026
G1 X79.894 Y106.1 E40.10007
G1 X78.28 Y104.043 E40.19138
G1 X76.617 Y102.045 E40.28217
G1 X74.928 Y100.128 E40.37139
G1 X73.125 Y98.193 E40.46376
G1 X71.338 Y96.382 E40.55261
G1 X69.445 Y94.569 E40.64415
G1 X67.524 Y92.831 E40.73462
G1 X65.535 Y91.131 E40.826
G1 X63.531 Y89.512 E40.91597
G1 X61.477 Y87.95 E41.00609
G1 X59.375 Y86.442 E41.09643
G1 X57.192 Y84.968 E41.18842
G1 X56.199 Y84.337 E41.22951
G1 X55.482 Y83.869 E41.25941
G1 X54.824 Y83.39 E41.28783
G1 X54.216 Y82.849 E41.31626
G1 X53.664 Y82.251 E41.34468
G1 X53.174 Y81.602 E41.37308
G1 X52.75 Y80.908 E41.40148
G1 X52.395 Y80.176 E41.42989
G1 X52.115 Y79.412 E41.45831
G1 X51.911 Y78.624 E41.48673
G1 X51.785 Y77.82 E41.51515
G1 X51.732 Y77.063 E41.54166
G1 X51.72 Y75.641 E41.59132
G1 X51.731 Y74.845 E41.61912
G1 X51.783 Y74.033 E41.64753
G1 X51.914 Y73.23 E41.67595
G1 X52.887 Y69.493 E41.81081
G1 X53.469 Y66.962 E41.90151
G1 X53.978 Y64.414 E41.99225
G1 X54.41 Y61.885 E42.08185
G1 X54.778 Y59.296 E42.17317
G1 X55.072 Y56.694 E42.26462
G1 X55.288 Y54.151 E42.35375
G1 X55.434 Y51.551 E42.44469
G1 X55.507 Y48.948 E42.53563
G1 X55.505 Y46.375 E42.62549
G1 X55.43 Y43.768 E42.71657
G1 X55.282 Y41.158 E42.80787
G1 X55.065 Y38.61 E42.89718
G1 X54.766 Y35.997 E42.98902
G1 X54.401 Y33.434 E43.07944
G1 X53.964 Y30.893 E43.16948
G1 X53.455 Y28.364 E43.25957
G1 X52.872 Y25.832 E43.35031
G1 X52.205 Y23.274 E43.44263
G1 X52.028 Y22.631 E43.46592
G1 X51.851 Y21.836 E43.49436
G1 X51.734 Y20.678 E43.53501
G1 X51.72 Y20.096 E43.55534
G1 X51.72 Y19.14 E43.58873
G1 X51.73 Y18.343 E43.61656
G1 X51.78 Y17.531 E43.64498
G1 X51.91 Y16.728 E43.67338
G1 X52.119 Y15.941 E43.70182
M204 S3000
M205 X10 Y10
G1 F4200 E35.70182
;MESH:angulo-router.stl
G0 F6000 X59.335 Y19.296
G0 X60.854 Y19.296
G0 X148.91 Y19.516
G0 X148.84 Y19.586
M204 S1800
M205 X8 Y8
;TYPE:WALL-INNER
G1 F4200 E43.70182
G1 F1800 X60.84 Y19.586 E46.77506
G1 X60.84 Y19.282 E46.78567
G1 X148.839 Y19.267 E48.49514
G1 X149.16 Y19.266 E48.50635
G1 X149.16 Y19.586 E48.5128
G1 X149.16 Y62.695 E50.01831
G1 X149.16 Y63.015 E50.02948
G1 X148.84 Y63.015 E50.03892
G1 X98.84 Y63.015 E51.78508
G1 X98.84 Y62.711 E51.79569
G1 X148.84 Y62.695 E52.76855
G1 X148.84 Y19.586 E53.62884
M204 S3000
M205 X10 Y10
G0 F6000 X148.28 Y20.146
M204 S1800
M205 X8 Y8
;TYPE:WALL-OUTER
G1 F1800 X60.28 Y20.146 E56.70208
G1 X60.28 Y18.722 E56.75181
G1 X149.242 Y18.706 E59.85864
G1 X149.324 Y18.706 E59.8615
G1 X149.72 Y18.706 E59.87533
G1 X149.72 Y18.788 E59.8779
G1 X149.72 Y63.575 E61.442
G1 X98.28 Y63.575 E63.23845
G1 X98.28 Y62.151 E63.28818
G1 X148.28 Y62.135 E65.03434
G1 X148.28 Y20.146 E66.50073
M204 S3000
M205 X10 Y10
G0 F6000 X148.08 Y20.146
G1 F4200 E58.50073
;MESH:angulo-router.stl(1)
G0 F6000 X148.08 Y19.486
G0 X148.86 Y62.715
G0 X148.86 Y64.52
G0 X148.861 Y74.278
G0 X148.862 Y75.783
G0 X148.84 Y76.102
M204 S1800
M205 X8 Y8
;TYPE:WALL-INNER
G1 F4200 E66.50073
G1 F1800 X60.84 Y76.102 E69.57396
G1 X60.84 Y75.798 E69.58458
G1 X148.839 Y75.783 E71.29404
G1 X149.16 Y75.782 E71.30525
G1 X149.16 Y76.102 E71.31171
G1 X149.16 Y119.211 E72.81721
G1 X149.16 Y119.531 E72.82839
G1 X148.84 Y119.531 E72.83782
G1 X98.84 Y119.531 E74.58398
G1 X98.84 Y119.227 E74.5946
G1 X148.84 Y119.211 E75.56746
G1 X148.84 Y76.102 E76.42774
M204 S3000
M205 X10 Y10
G0 F6000 X148.28 Y76.662
M204 S1800
M205 X8 Y8
;TYPE:WALL-OUTER
G1 F1800 X60.28 Y76.662 E79.50098
G1 X60.28 Y75.238 E79.55071
G1 X149.242 Y75.222 E82.65754
G1 X149.324 Y75.222 E82.66041
G1 X149.72 Y75.222 E82.67424
G1 X149.72 Y75.304 E82.67681
M104 S210
G1 X149.72 Y120.091 E84.24091
G1 X98.28 Y120.091 E86.03736
G1 X98.28 Y118.667 E86.08709
G1 X148.28 Y118.651 E87.83324
G1 X148.28 Y76.662 E89.29963
M204 S3000
M205 X10 Y10
G0 F6000 X148.08 Y76.662
G1 F4200 E81.29963
;MESH:NONMESH
G0 F600 X148.08 Y76.662 Z0.45
G0 F6000 X148.08 Y76.002
G0 X148.942 Y75.783
G0 X148.941 Y74.278
G0 X148.942 Y64.52
G0 X148.942 Y62.995
G0 X148.6 Y62.455
;TIME_ELAPSED:116.900576
;LAYER:1
M140 S60
M106 S127.5
M204 S1800
M205 X8 Y8
;TYPE:WALL-INNER
;MESH:angulo-router.stl
G1 F4200 E89.29963
G1 F2250 X148.6 Y19.826 E91.4264
G1 X60.6 Y19.826 E95.81674
G1 X60.6 Y19.026 E95.85665
G1 X149.4 Y19.026 E100.2869
G1 X149.4 Y63.255 E102.49349
G1 X98.6 Y63.255 E105.02792
G1 X98.6 Y62.455 E105.06783
G1 X148.6 Y62.455 E107.56234
M204 S3000
M205 X10 Y10
G0 F6000 X148.2 Y62.055
M204 S1800
M205 X8 Y8
;TYPE:WALL-OUTER
G1 F2250 X148.2 Y20.226 E109.6492
G1 X60.2 Y20.226 E114.03953
G1 X60.2 Y18.626 E114.11936
G1 X149.8 Y18.626 E118.58952
G1 X149.8 Y63.655 E120.83603
