;FLAVOR:Marlin
;TIME:2127
;Filament used: 1.96692m
;Layer height: 0.18
;MINX:90.8
;MINY:15.414
;MINZ:0.15
;MAXX:119.2
;MAXY:43.814
;MAXZ:19.95
;Generated with Cura_SteamEngine 4.5.0
M140 S60
M105
M190 S60
M104 S200
M105
M109 S200
M82 ;absolute extrusion mode
G21 ;metric values
G90 ;absolute positioning
M82 ;set extruder to absolute mode
M107 ;start with the fan off
G28 X0 Y0 ;move X/Y to min endstops
G28 Z0 ;move Z to min endstops
G1 Z15.0 F110 ;move the platform down 15mm
G92 E0 ;zero the extruded length
G1 F200 E3 ;extrude 3mm of feed stock
G92 E0 ;zero the extruded length again
G1 F110
G0 Y20 F110
M117 Printing...
G5
G92 E0
G92 E0
G1 F2400 E-6
;LAYER_COUNT:111
;LAYER:0
M106 S255
M204 S3000
M205 X10 Y10
G1 F600 Z0.225
G0 F2475 X90.84 Y19.036 Z0.225
M204 S1800
M205 X8 Y8
;TYPE:SKIRT
G1 F600 Z0.15
G1 F2400 E0
G1 X90.959 Y18.469 E0.02226
G1 X91.155 Y17.924 E0.04451
G1 X91.424 Y17.411 E0.06676
G1 X91.761 Y16.94 E0.08901
G1 X92.16 Y16.52 E0.11126
G1 X92.613 Y16.158 E0.13354
G1 X93.111 Y15.863 E0.15577
G1 X93.645 Y15.638 E0.17803
G1 X94.205 Y15.49 E0.20028
G1 X95 Y15.414 E0.23096
G1 X115 Y15.414 E0.99927
G1 X115.578 Y15.454 E1.02153
G1 X116.145 Y15.573 E1.04379
G1 X116.69 Y15.769 E1.06603
G1 X117.203 Y16.038 E1.08829
G1 X117.674 Y16.375 E1.11053
G1 X118.094 Y16.774 E1.13279
G1 X118.456 Y17.227 E1.15507
G1 X118.751 Y17.725 E1.1773
G1 X118.976 Y18.259 E1.19956
G1 X119.124 Y18.819 E1.22181
G1 X119.2 Y19.614 E1.25249
G1 X119.2 Y39.614 E2.0208
G1 X119.16 Y40.192 E2.04306
G1 X119.041 Y40.759 E2.06531
G1 X118.845 Y41.304 E2.08756
G1 X118.576 Y41.817 E2.10982
G1 X118.239 Y42.288 E2.13206
G1 X117.84 Y42.708 E2.15432
G1 X117.387 Y43.07 E2.17659
G1 X116.889 Y43.365 E2.19883
G1 X116.355 Y43.59 E2.22109
G1 X115.795 Y43.738 E2.24334
G1 X115 Y43.814 E2.27402
G1 X95 Y43.814 E3.04233
G1 X94.422 Y43.774 E3.06459
G1 X93.855 Y43.655 E3.08684
G1 X93.31 Y43.459 E3.10909
G1 X92.797 Y43.19 E3.13135
G1 X92.326 Y42.853 E3.15359
G1 X91.906 Y42.454 E3.17585
G1 X91.544 Y42.001 E3.19812
G1 X91.249 Y41.503 E3.22036
G1 X91.024 Y40.969 E3.24262
G1 X90.876 Y40.409 E3.26487
G1 X90.8 Y39.614 E3.29555
G1 X90.8 Y19.614 E4.06386
G1 X90.84 Y19.036 E4.08612
M204 S3000
M205 X10 Y10
G0 F2475 X91.4 Y19.076
M204 S1800
M205 X8 Y8
G1 F2400 X91.519 Y18.55 E4.10683
G1 X91.714 Y18.048 E4.12752
G1 X91.982 Y17.579 E4.14827
G1 X92.315 Y17.156 E4.16895
G1 X92.708 Y16.786 E4.18969
G1 X93.151 Y16.479 E4.2104
G1 X93.635 Y16.24 E4.23113
G1 X94.148 Y16.075 E4.25183
G1 X94.68 Y15.988 E4.27254
G1 X115 Y15.974 E5.05314
G1 X115.538 Y16.014 E5.07387
G1 X116.064 Y16.133 E5.09459
G1 X116.566 Y16.328 E5.11527
G1 X117.035 Y16.596 E5.13602
G1 X117.458 Y16.929 E5.15671
G1 X117.828 Y17.322 E5.17744
G1 X118.135 Y17.765 E5.19815
G1 X118.374 Y18.249 E5.21888
G1 X118.539 Y18.762 E5.23958
G1 X118.626 Y19.294 E5.26029
G1 X118.64 Y39.614 E6.04089
G1 X118.6 Y40.152 E6.06162
G1 X118.481 Y40.678 E6.08234
G1 X118.286 Y41.18 E6.10302
G1 X118.018 Y41.649 E6.12378
G1 X117.685 Y42.072 E6.14446
G1 X117.292 Y42.442 E6.16519
G1 X116.849 Y42.749 E6.1859
G1 X116.365 Y42.988 E6.20663
G1 X115.852 Y43.153 E6.22733
G1 X115.32 Y43.24 E6.24804
G1 X95 Y43.254 E7.02865
G1 X94.462 Y43.214 E7.04937
G1 X93.936 Y43.095 E7.07009
G1 X93.434 Y42.9 E7.09078
G1 X92.965 Y42.632 E7.11153
G1 X92.542 Y42.299 E7.13221
G1 X92.172 Y41.906 E7.15294
G1 X91.865 Y41.463 E7.17365
G1 X91.626 Y40.979 E7.19438
G1 X91.461 Y40.466 E7.21509
G1 X91.374 Y39.934 E7.23579
G1 X91.36 Y19.614 E8.0164
G1 X91.4 Y19.076 E8.03712
M204 S3000
M205 X10 Y10
G0 F2475 X91.96 Y19.12
M204 S1800
M205 X8 Y8
G1 F2400 X92.079 Y18.638 E8.05619
G1 X92.273 Y18.182 E8.07523
G1 X92.538 Y17.763 E8.09428
G1 X92.868 Y17.392 E8.11335
G1 X93.252 Y17.078 E8.13241
G1 X93.682 Y16.83 E8.15147
G1 X94.145 Y16.655 E8.17049
G1 X94.632 Y16.556 E8.18958
G1 X115 Y16.534 E8.97203
G1 X115.976 Y16.693 E9.01001
G1 X116.432 Y16.887 E9.02905
G1 X116.851 Y17.152 E9.0481
G1 X117.222 Y17.482 E9.06717
G1 X117.536 Y17.866 E9.08623
G1 X117.784 Y18.296 E9.1053
G1 X117.959 Y18.759 E9.12431
G1 X118.058 Y19.246 E9.1434
G1 X118.08 Y39.614 E9.92585
G1 X118.04 Y40.108 E9.94489
G1 X117.921 Y40.59 E9.96396
G1 X117.727 Y41.046 E9.983
G1 X117.462 Y41.465 E10.00204
G1 X117.132 Y41.836 E10.02111
G1 X116.748 Y42.15 E10.04017
G1 X116.318 Y42.398 E10.05924
G1 X115.855 Y42.573 E10.07825
G1 X115.368 Y42.672 E10.09734
G1 X95 Y42.694 E10.87979
G1 X94.506 Y42.654 E10.89883
G1 X94.024 Y42.535 E10.9179
G1 X93.568 Y42.341 E10.93694
G1 X93.149 Y42.076 E10.95598
G1 X92.778 Y41.746 E10.97506
G1 X92.464 Y41.362 E10.99411
G1 X92.216 Y40.932 E11.01318
G1 X92.041 Y40.469 E11.0322
G1 X91.942 Y39.982 E11.05129
G1 X91.92 Y19.614 E11.83374
G1 X91.96 Y19.12 E11.85278
M204 S3000
M205 X10 Y10
G0 F2475 X92.52 Y19.167
M204 S1800
M205 X8 Y8
G1 F2400 X92.638 Y18.735 E11.86998
G1 X92.832 Y18.33 E11.88723
G1 X93.094 Y17.966 E11.90446
G1 X93.416 Y17.654 E11.92168
G1 X93.789 Y17.404 E11.93893
G1 X94.2 Y17.224 E11.95617
G1 X94.636 Y17.12 E11.97339
G1 X95 Y17.094 E11.98741
G1 X115 Y17.094 E12.75572
G1 X115.879 Y17.252 E12.79002
G1 X116.284 Y17.446 E12.80728
G1 X116.648 Y17.708 E12.8245
G1 X116.96 Y18.03 E12.84173
G1 X117.21 Y18.403 E12.85898
G1 X117.39 Y18.814 E12.87621
G1 X117.494 Y19.25 E12.89343
G1 X117.52 Y19.614 E12.90745
G1 X117.52 Y39.614 E13.67576
G1 X117.48 Y40.061 E13.693
G1 X117.362 Y40.493 E13.71021
G1 X117.168 Y40.898 E13.72746
G1 X116.906 Y41.262 E13.74468
G1 X116.584 Y41.574 E13.76191
G1 X116.211 Y41.824 E13.77916
G1 X115.8 Y42.004 E13.7964
G1 X115.364 Y42.108 E13.81361
G1 X115 Y42.134 E13.82763
G1 X95 Y42.134 E14.59594
G1 X94.553 Y42.094 E14.61318
G1 X94.121 Y41.976 E14.63039
G1 X93.716 Y41.782 E14.64764
G1 X93.352 Y41.52 E14.66487
G1 X93.04 Y41.198 E14.68209
G1 X92.79 Y40.825 E14.69934
G1 X92.61 Y40.414 E14.71658
G1 X92.506 Y39.978 E14.7338
G1 X92.48 Y39.614 E14.74781
G1 X92.48 Y19.614 E15.51612
G1 X92.52 Y19.167 E15.53336
M204 S3000
M205 X10 Y10
G0 F2475 X93.08 Y19.221
M204 S1800
M205 X8 Y8
G1 F2400 X93.198 Y18.843 E15.54858
G1 X93.389 Y18.497 E15.56376
G1 X93.646 Y18.196 E15.57896
G1 X93.959 Y17.954 E15.59416
G1 X94.313 Y17.778 E15.60935
G1 X94.696 Y17.678 E15.62455
G1 X115 Y17.654 E16.40454
G1 X115.771 Y17.812 E16.43478
G1 X116.117 Y18.003 E16.44996
G1 X116.418 Y18.26 E16.46516
G1 X116.66 Y18.573 E16.48036
G1 X116.836 Y18.927 E16.49555
G1 X116.936 Y19.31 E16.51076
G1 X116.96 Y39.614 E17.29074
G1 X116.92 Y40.007 E17.30592
G1 X116.802 Y40.385 E17.32113
G1 X116.611 Y40.731 E17.33631
G1 X116.354 Y41.032 E17.35152
G1 X116.041 Y41.274 E17.36672
G1 X115.687 Y41.45 E17.3819
G1 X115.304 Y41.55 E17.39711
G1 X95 Y41.574 E18.1771
G1 X94.607 Y41.534 E18.19227
G1 X94.229 Y41.416 E18.20749
G1 X93.883 Y41.225 E18.22267
G1 X93.582 Y40.968 E18.23787
G1 X93.34 Y40.655 E18.25307
G1 X93.164 Y40.301 E18.26826
G1 X93.064 Y39.918 E18.28346
G1 X93.04 Y19.614 E19.06345
G1 X93.08 Y19.221 E19.07863
M204 S3000
M205 X10 Y10
G0 F2475 X93.64 Y19.282
M204 S1800
M205 X8 Y8
G1 F2400 X93.757 Y18.97 E19.09143
G1 X93.945 Y18.693 E19.10429
G1 X94.193 Y18.47 E19.1171
G1 X94.487 Y18.311 E19.12994
G1 X95 Y18.214 E19.15
G1 X115 Y18.214 E19.91831
G1 X115.644 Y18.371 E19.94377
G1 X115.921 Y18.559 E19.95663
G1 X116.144 Y18.807 E19.96944
G1 X116.303 Y19.101 E19.98228
G1 X116.4 Y19.614 E20.00234
G1 X116.4 Y39.614 E20.77065
G1 X116.36 Y39.946 E20.7835
G1 X116.243 Y40.258 E20.7963
G1 X116.055 Y40.535 E20.80916
G1 X115.807 Y40.758 E20.82197
G1 X115.513 Y40.917 E20.83481
G1 X115 Y41.014 E20.85486
G1 X95 Y41.014 E21.62317
G1 X94.668 Y40.974 E21.63602
G1 X94.356 Y40.857 E21.64882
G1 X94.079 Y40.669 E21.66168
G1 X93.856 Y40.421 E21.67449
G1 X93.697 Y40.127 E21.68733
G1 X93.6 Y39.614 E21.70739
G1 X93.6 Y19.614 E22.4757
G1 X93.64 Y19.282 E22.48855
M204 S3000
M205 X10 Y10
G0 F2475 X94.16 Y19.614
M204 S1800
M205 X8 Y8
G1 F2400 X94.2 Y19.359 E22.49846
G1 X94.315 Y19.127 E22.50841
G1 X94.496 Y18.942 E22.51835
G1 X94.724 Y18.821 E22.52827
G1 X95 Y18.774 E22.53902
G1 X115 Y18.774 E23.30733
G1 X115.487 Y18.929 E23.32696
G1 X115.672 Y19.11 E23.33691
G1 X115.793 Y19.338 E23.34682
G1 X115.84 Y19.614 E23.35758
G1 X115.84 Y39.614 E24.12589
G1 X115.8 Y39.869 E24.1358
G1 X115.685 Y40.101 E24.14575
G1 X115.504 Y40.286 E24.15569
G1 X115.276 Y40.407 E24.16561
G1 X115 Y40.454 E24.17636
G1 X95 Y40.454 E24.94467
G1 X94.745 Y40.414 E24.95459
G1 X94.513 Y40.299 E24.96454
G1 X94.328 Y40.118 E24.97448
G1 X94.207 Y39.89 E24.98439
G1 X94.16 Y39.614 E24.99515
G1 X94.16 Y19.614 E25.76346
M204 S3000
M205 X10 Y10
G0 F2475 X94.72 Y19.614
M204 S1800
M205 X8 Y8
G1 F2400 X94.759 Y19.471 E25.76915
G1 X94.866 Y19.368 E25.77486
G1 X95 Y19.334 E25.78017
G1 X115 Y19.334 E26.54848
G1 X115.246 Y19.48 E26.55947
G1 X115.28 Y19.614 E26.56478
G1 X115.28 Y39.614 E27.33309
G1 X115.241 Y39.757 E27.33878
G1 X115.134 Y39.86 E27.34449
G1 X115 Y39.894 E27.3498
G1 X95 Y39.894 E28.11811
G1 X94.857 Y39.855 E28.1238
G1 X94.754 Y39.748 E28.12951
G1 X94.72 Y39.614 E28.13482
G1 X94.72 Y19.614 E28.90313
M204 S3000
M205 X10 Y10
G1 F2400 E22.90313
;MESH:cuadrado.stl
G0 F2475 X95.854 Y20.468
G0 X95.91 Y38.704
G0 X95.28 Y39.334
M204 S1800
M205 X8 Y8
;TYPE:WALL-OUTER
G1 F2400 E28.90313
G1 F900 X95.28 Y19.894 E29.64992
G1 X114.72 Y19.894 E30.39672
G1 X114.72 Y39.334 E31.14351
G1 X95.28 Y39.334 E31.89031
M204 S3000
M205 X10 Y10
G0 F2475 X95.28 Y39.134
G0 X95.84 Y38.774
M204 S1800
M205 X8 Y8
;TYPE:WALL-INNER
G1 F900 X95.84 Y20.454 E32.59408
G1 X114.16 Y20.454 E33.29785
G1 X114.16 Y38.774 E34.00162
G1 X95.84 Y38.774 E34.7054
M204 S3000
M205 X10 Y10
G0 F2475 X96.4 Y38.214
M204 S1800
M205 X8 Y8
G1 F900 X96.4 Y21.014 E35.36614
G1 X113.6 Y21.014 E36.02689
G1 X113.6 Y38.214 E36.68763
G1 X96.4 Y38.214 E37.34838
M204 S3000
M205 X10 Y10
G0 F2475 X96.95 Y37.664
M204 S1800
M205 X8 Y8
;TYPE:SKIN
G1 F900 X96.95 Y21.564 E37.96687
G1 X113.05 Y21.564 E38.58536
G1 X113.05 Y37.664 E39.20385
G1 X96.95 Y37.664 E39.82233
M204 S3000
M205 X10 Y10
G0 F2475 X97.592 Y37.403
M204 S1800
M205 X8 Y8
G1 F900 X97.208 Y37.019 E39.8432
M204 S3000
M205 X10 Y10
G0 F2475 X97.208 Y36.227
M204 S1800
M205 X8 Y8
G1 F900 X98.384 Y37.403 E39.90709
M204 S3000
M205 X10 Y10
G0 F2475 X99.176 Y37.403
M204 S1800
M205 X8 Y8
G1 F900 X97.208 Y35.435 E40.014
M204 S3000
M205 X10 Y10
G0 F2475 X97.208 Y34.643
M204 S1800
M205 X8 Y8
G1 F900 X99.968 Y37.403 E40.16395
M204 S3000
M205 X10 Y10
G0 F2475 X100.76 Y37.403
M204 S1800
M205 X8 Y8
G1 F900 X97.208 Y33.852 E40.35689
M204 S3000
M205 X10 Y10
G0 F2475 X97.208 Y33.06
M204 S1800
M205 X8 Y8
G1 F900 X101.552 Y37.403 E40.59286
M204 S3000
M205 X10 Y10
G0 F2475 X102.344 Y37.403
M204 S1800
M205 X8 Y8
G1 F900 X97.208 Y32.268 E40.87186
M204 S3000
M205 X10 Y10
G0 F2475 X97.208 Y31.476
M204 S1800
M205 X8 Y8
G1 F900 X103.136 Y37.403 E41.19389
M204 S3000
M205 X10 Y10
G0 F2475 X103.928 Y37.403
M204 S1800
M205 X8 Y8
G1 F900 X97.208 Y30.684 E41.55895
M204 S3000
M205 X10 Y10
G0 F2475 X97.208 Y29.892
M204 S1800
M205 X8 Y8
G1 F900 X104.72 Y37.403 E41.96703
M204 S3000
M205 X10 Y10
G0 F2475 X105.512 Y37.403
M204 S1800
M205 X8 Y8
G1 F900 X97.208 Y29.1 E42.41814
M204 S3000
M205 X10 Y10
G0 F2475 X97.208 Y28.308
M204 S1800
M205 X8 Y8
G1 F900 X106.304 Y37.403 E42.91227
M204 S3000
M205 X10 Y10
G0 F2475 X107.096 Y37.403
M204 S1800
M205 X8 Y8
G1 F900 X97.208 Y27.516 E43.44944
M204 S3000
M205 X10 Y10
G0 F2475 X97.208 Y26.724
M204 S1800
M205 X8 Y8
G1 F900 X107.888 Y37.403 E44.02963
M204 S3000
M205 X10 Y10
G0 F2475 X108.68 Y37.403
M204 S1800
M205 X8 Y8
G1 F900 X97.208 Y25.932 E44.65285
M204 S3000
M205 X10 Y10
G0 F2475 X97.208 Y25.14
M204 S1800
M205 X8 Y8
G1 F900 X109.472 Y37.403 E45.3191
M204 S3000
M205 X10 Y10
G0 F2475 X110.264 Y37.403
M204 S1800
M205 X8 Y8
G1 F900 X97.208 Y24.348 E46.02837
M204 S3000
M205 X10 Y10
G0 F2475 X97.208 Y23.556
M204 S1800
M205 X8 Y8
G1 F900 X111.056 Y37.403 E46.78068
M204 S3000
M205 X10 Y10
G0 F2475 X111.848 Y37.403
M204 S1800
M205 X8 Y8
G1 F900 X97.208 Y22.764 E47.57601
M204 S3000
M205 X10 Y10
G0 F2475 X97.208 Y21.972
M204 S1800
M205 X8 Y8
G1 F900 X112.639 Y37.403 E48.41434
M204 S3000
M205 X10 Y10
G0 F2475 X112.789 Y36.761
M204 S1800
M205 X8 Y8
G1 F900 X97.852 Y21.824 E49.22583
M204 S3000
M205 X10 Y10
G0 F2475 X98.644 Y21.824
M204 S1800
M205 X8 Y8
G1 F900 X112.789 Y35.969 E49.99429
M204 S3000
M205 X10 Y10
G0 F2475 X112.789 Y35.177
M204 S1800
M205 X8 Y8
G1 F900 X99.436 Y21.824 E50.71973
M204 S3000
M205 X10 Y10
G0 F2475 X100.228 Y21.824
M204 S1800
M205 X8 Y8
G1 F900 X112.789 Y34.385 E51.40214
M204 S3000
M205 X10 Y10
G0 F2475 X112.789 Y33.593
M204 S1800
M205 X8 Y8
G1 F900 X101.02 Y21.824 E52.04152
M204 S3000
M205 X10 Y10
G0 F2475 X101.812 Y21.824
M204 S1800
M205 X8 Y8
G1 F900 X112.789 Y32.801 E52.63788
M204 S3000
M205 X10 Y10
G0 F2475 X112.789 Y32.009
M204 S1800
M205 X8 Y8
G1 F900 X102.604 Y21.824 E53.1912
M204 S3000
M205 X10 Y10
G0 F2475 X103.395 Y21.824
M204 S1800
M205 X8 Y8
G1 F900 X112.789 Y31.217 E53.70153
M204 S3000
M205 X10 Y10
G0 F2475 X112.789 Y30.425
M204 S1800
M205 X8 Y8
G1 F900 X104.187 Y21.824 E54.16883
M204 S3000
M205 X10 Y10
G0 F2475 X104.979 Y21.824
M204 S1800
M205 X8 Y8
G1 F900 X112.789 Y29.633 E54.5931
M204 S3000
M205 X10 Y10
G0 F2475 X112.789 Y28.841
M204 S1800
M205 X8 Y8
G1 F900 X105.771 Y21.824 E54.97435
M204 S3000
M205 X10 Y10
G0 F2475 X106.563 Y21.824
M204 S1800
M205 X8 Y8
G1 F900 X112.789 Y28.049 E55.31256
M204 S3000
M205 X10 Y10
G0 F2475 X112.789 Y27.257
M204 S1800
M205 X8 Y8
G1 F900 X107.355 Y21.824 E55.60775
M204 S3000
M205 X10 Y10
G0 F2475 X108.147 Y21.824
M204 S1800
M205 X8 Y8
G1 F900 X112.789 Y26.465 E55.85991
M204 S3000
M205 X10 Y10
G0 F2475 X112.789 Y25.673
M204 S1800
M205 X8 Y8
G1 F900 X108.939 Y21.824 E56.06905
M204 S3000
M205 X10 Y10
G0 F2475 X109.731 Y21.824
M204 S1800
M205 X8 Y8
G1 F900 X112.789 Y24.881 E56.23515
M204 S3000
M205 X10 Y10
G0 F2475 X112.789 Y24.089
M204 S1800
M205 X8 Y8
G1 F900 X110.523 Y21.824 E56.35823
M204 S3000
M205 X10 Y10
G0 F2475 X111.315 Y21.824
M204 S1800
M205 X8 Y8
G1 F900 X112.789 Y23.297 E56.43829
M204 S3000
M205 X10 Y10
G0 F2475 X112.789 Y22.505
M204 S1800
M205 X8 Y8
G1 F900 X112.107 Y21.824 E56.47531
M204 S3000
M205 X10 Y10
G1 F2400 E50.47531
;MESH:NONMESH
G0 F600 X112.107 Y21.824 Z0.33
G0 F2475 X96 Y38.614
;TIME_ELAPSED:73.651673
;LAYER:1
M140 S60
M204 S1800
M205 X8 Y8
;TYPE:WALL-INNER
;MESH:cuadrado.stl
G1 F2400 E56.47531
G1 F1650 X96 Y20.614 E57.06801
G1 X114 Y20.614 E57.6607
G1 X114 Y38.614 E58.2534
G1 X96 Y38.614 E58.84609
M204 S3000
M205 X10 Y10
G0 F4537.5 X95.6 Y39.014
M204 S1800
M205 X8 Y8
G1 F1650 X95.6 Y20.214 E59.46513
G1 X114.4 Y20.214 E60.08417
G1 X114.4 Y39.014 E60.70321
G1 X95.6 Y39.014 E61.32224
M204 S3000
M205 X10 Y10
G0 F4537.5 X95.2 Y39.414
M204 S1800
M205 X8 Y8
;TYPE:WALL-OUTER
G1 F1650 X95.2 Y19.814 E61.96762
G1 X114.8 Y19.814 E62.613
G1 X114.8 Y39.414 E63.25838
G1 X95.2 Y39.414 E63.90376
M204 S3000
M205 X10 Y10
G0 F4537.5 X95.2 Y39.214
G0 X95.67 Y38.944
G0 X96.39 Y38.224
M204 S1800
M205 X8 Y8
;TYPE:SKIN
G1 F930 X96.39 Y21.004 E64.47077
G1 X113.61 Y21.004 E65.03779
G1 X113.61 Y38.224 E65.6048
G1 X96.39 Y38.224 E66.17181
M204 S3000
M205 X10 Y10
G0 F4537.5 X97.044 Y21.184
M204 S1800
M205 X8 Y8
G1 F930 X96.569 Y21.658 E66.19391
M204 S3000
M205 X10 Y10
G0 F4537.5 X96.569 Y22.224
M204 S1800
M205 X8 Y8
G1 F930 X97.609 Y21.184 E66.24234
M204 S3000
M205 X10 Y10
G0 F4537.5 X98.175 Y21.184
M204 S1800
M205 X8 Y8
G1 F930 X96.569 Y22.79 E66.31712
M204 S3000
M205 X10 Y10
G0 F4537.5 X96.569 Y23.355
M204 S1800
M205 X8 Y8
G1 F930 X98.741 Y21.184 E66.41824
M204 S3000
M205 X10 Y10
G0 F4537.5 X99.306 Y21.184
M204 S1800
M205 X8 Y8
G1 F930 X96.569 Y23.921 E66.54569
M204 S3000
M205 X10 Y10
G0 F4537.5 X96.569 Y24.487
M204 S1800
M205 X8 Y8
G1 F930 X99.872 Y21.184 E66.6995
M204 S3000
M205 X10 Y10
G0 F4537.5 X100.438 Y21.184
M204 S1800
M205 X8 Y8
G1 F930 X96.569 Y25.052 E66.87965
M204 S3000
M205 X10 Y10
G0 F4537.5 X96.569 Y25.618
M204 S1800
M205 X8 Y8
G1 F930 X101.003 Y21.184 E67.08612
M204 S3000
M205 X10 Y10
G0 F4537.5 X101.569 Y21.184
M204 S1800
M205 X8 Y8
G1 F930 X96.569 Y26.184 E67.31895
M204 S3000
M205 X10 Y10
G0 F4537.5 X96.569 Y26.749
M204 S1800
M205 X8 Y8
G1 F930 X102.135 Y21.184 E67.57812
M204 S3000
M205 X10 Y10
G0 F4537.5 X102.7 Y21.184
M204 S1800
M205 X8 Y8
