;FLAVOR:Marlin
;TIME:4031
;Filament used: 1.56929m
;Layer height: 0.1
;MINX:76.1
;MINY:20.044
;MINZ:0.1
;MAXX:133.899
;MAXY:57.844
;MAXZ:20
;Generated with Cura_SteamEngine 4.5.0
M140 S60
M105
M190 S60
M104 S200
M105
M109 S200
M82 ;absolute extrusion mode
G21 ;metric values
G90 ;absolute positioning
M82 ;set extruder to absolute mode
M107 ;start with the fan off
G28 X0 Y0 ;move X/Y to min endstops
G28 Z0 ;move Z to min endstops
G1 Z15.0 F50 ;move the platform down 15mm
G92 E0 ;zero the extruded length
G1 F200 E3 ;extrude 3mm of feed stock
G92 E0 ;zero the extruded length again
G1 F50
G0 Y20 F50
M117 Printing...
G5
G92 E0
G92 E0
G1 F2400 E-6
;LAYER_COUNT:200
;LAYER:0
M106 S255
M204 S3000
M205 X10 Y10
G1 F600 Z0.175
G0 F1500 X76.534 Y25.631 Z0.175
M204 S1800
M205 X8 Y8
;TYPE:SKIRT
G1 F600 Z0.1
G1 F2400 E0
G1 X76.765 Y24.954 E0.01665
G1 X77.011 Y24.419 E0.03036
G1 X77.285 Y23.888 E0.04428
G1 X77.648 Y23.272 E0.06092
G1 X78.077 Y22.7 E0.07757
G1 X78.619 Y22.131 E0.09586
G1 X79.364 Y21.495 E0.11867
G1 X79.893 Y21.137 E0.13354
G1 X80.513 Y20.78 E0.1502
G1 X81.169 Y20.496 E0.16684
G1 X81.853 Y20.286 E0.1835
G1 X82.471 Y20.16 E0.19818
G1 X83.18 Y20.069 E0.21483
G1 X84.152 Y20.045 E0.23746
G1 X101.887 Y20.044 E0.65037
G1 X103.677 Y20.069 E0.69205
G1 X106.434 Y20.069 E0.75624
G1 X107.337 Y20.049 E0.77727
G1 X125.41 Y20.044 E1.19805
G1 X126.207 Y20.055 E1.2166
G1 X127.076 Y20.106 E1.23687
G1 X127.786 Y20.197 E1.25354
G1 X128.481 Y20.366 E1.27019
G1 X129.153 Y20.611 E1.28684
G1 X129.793 Y20.93 E1.30349
G1 X130.255 Y21.221 E1.3162
G1 X130.682 Y21.52 E1.32834
G1 X131.237 Y21.971 E1.34499
G1 X131.738 Y22.482 E1.36165
G1 X132.303 Y23.23 E1.38348
G1 X132.54 Y23.597 E1.39365
G1 X133.041 Y24.535 E1.41841
G1 X133.459 Y25.606 E1.44517
G1 X133.601 Y26.161 E1.45851
G1 X133.721 Y26.736 E1.47219
G1 X133.828 Y27.443 E1.48883
G1 X133.88 Y28.727 E1.51875
G1 X133.899 Y48.642 E1.98242
G1 X133.893 Y49.232 E1.99615
G1 X133.856 Y50.096 E2.01629
G1 X133.79 Y50.763 E2.03189
G1 X133.649 Y51.524 E2.04991
G1 X133.525 Y52.034 E2.06213
G1 X133.317 Y52.719 E2.0788
G1 X133.095 Y53.25 E2.0922
G1 X132.869 Y53.714 E2.10421
G1 X132.318 Y54.667 E2.12984
G1 X131.668 Y55.469 E2.15388
G1 X130.945 Y56.17 E2.17732
G1 X130.159 Y56.734 E2.19985
G1 X129.311 Y57.203 E2.22241
G1 X128.647 Y57.467 E2.23905
G1 X127.957 Y57.656 E2.2557
G1 X127.081 Y57.781 E2.2763
G1 X126.312 Y57.831 E2.29425
G1 X108.305 Y57.844 E2.71349
G1 X106.168 Y57.814 E2.76324
G1 X102.766 Y57.822 E2.84245
G1 X101.723 Y57.843 E2.86674
G1 X84.014 Y57.84 E3.27904
G1 X83.341 Y57.823 E3.29472
G1 X82.628 Y57.763 E3.31137
G1 X81.823 Y57.596 E3.33052
G1 X80.979 Y57.322 E3.35117
G1 X80.33 Y57.02 E3.36784
G1 X79.874 Y56.75 E3.38018
G1 X79.078 Y56.186 E3.40289
G1 X78.551 Y55.702 E3.41955
G1 X78.202 Y55.314 E3.4317
G1 X77.375 Y54.175 E3.46447
G1 X76.838 Y53.094 E3.49257
G1 X76.459 Y52.007 E3.51938
G1 X76.322 Y51.379 E3.53434
G1 X76.196 Y50.579 E3.5532
G1 X76.13 Y49.834 E3.57061
G1 X76.105 Y49.014 E3.58971
G1 X76.1 Y48.492 E3.60186
G1 X76.1 Y29.23 E4.05032
G1 X76.11 Y28.49 E4.06755
G1 X76.16 Y27.646 E4.08724
G1 X76.348 Y26.345 E4.11784
G1 X76.534 Y25.631 E4.13502
M204 S3000
M205 X10 Y10
G0 F1500 X77.074 Y25.782
M204 S1800
M205 X8 Y8
G1 F2400 X77.296 Y25.136 E4.15092
G1 X77.508 Y24.676 E4.16272
G1 X77.782 Y24.145 E4.17663
G1 X78.13 Y23.557 E4.19254
G1 X78.545 Y23.014 E4.20845
G1 X79 Y22.542 E4.22371
G1 X79.978 Y21.75 E4.25301
G1 X80.792 Y21.267 E4.27505
G1 X81.421 Y21 E4.29096
G1 X82.32 Y20.757 E4.31264
G1 X83.562 Y20.613 E4.34175
G1 X84.16 Y20.605 E4.35567
G1 X101.887 Y20.604 E4.7684
G1 X103.669 Y20.629 E4.80989
G1 X106.402 Y20.629 E4.87352
G1 X107.35 Y20.608 E4.89559
G1 X125.41 Y20.604 E5.31607
G1 X126.199 Y20.615 E5.33444
G1 X127.037 Y20.665 E5.35399
G1 X127.714 Y20.753 E5.36988
G1 X128.377 Y20.92 E5.3858
G1 X129.015 Y21.162 E5.40169
G1 X129.621 Y21.478 E5.4176
G1 X130.173 Y21.844 E5.43302
G1 X130.883 Y22.406 E5.4541
G1 X131.357 Y22.897 E5.46999
G1 X131.833 Y23.534 E5.4885
G1 X132.527 Y24.757 E5.52124
G1 X132.932 Y25.798 E5.54725
G1 X133.173 Y26.85 E5.57238
G1 X133.293 Y27.864 E5.59615
G1 X133.32 Y28.744 E5.61665
G1 X133.339 Y48.642 E6.07991
G1 X133.333 Y49.226 E6.09351
G1 X133.297 Y50.07 E6.11318
G1 X133.236 Y50.678 E6.12741
G1 X133.105 Y51.392 E6.14431
G1 X132.981 Y51.902 E6.15653
G1 X132.781 Y52.555 E6.17243
G1 X132.499 Y53.202 E6.18886
G1 X132.193 Y53.792 E6.20433
G1 X131.838 Y54.376 E6.22024
G1 X131.263 Y55.083 E6.24146
G1 X130.562 Y55.761 E6.26417
G1 X129.868 Y56.255 E6.284
G1 X129.048 Y56.708 E6.30581
G1 X128.411 Y56.955 E6.32172
G1 X127.749 Y57.127 E6.33764
G1 X127.04 Y57.223 E6.3543
G1 X126.295 Y57.271 E6.37168
G1 X108.305 Y57.284 E6.79053
G1 X106.174 Y57.254 E6.84014
G1 X102.753 Y57.262 E6.91979
G1 X101.711 Y57.283 E6.94406
G1 X84.014 Y57.28 E7.35608
G1 X83.357 Y57.264 E7.37138
G1 X82.676 Y57.204 E7.3873
G1 X81.972 Y57.056 E7.40405
G1 X81.158 Y56.791 E7.42398
G1 X80.541 Y56.497 E7.43989
G1 X79.96 Y56.138 E7.45579
G1 X79.409 Y55.733 E7.47171
G1 X78.91 Y55.267 E7.48761
G1 X78.411 Y54.687 E7.50542
G1 X77.86 Y53.894 E7.5279
G1 X77.36 Y52.891 E7.554
G1 X76.992 Y51.834 E7.58005
G1 X76.871 Y51.271 E7.59346
G1 X76.75 Y50.496 E7.61172
G1 X76.69 Y49.817 E7.62759
G1 X76.665 Y48.997 E7.64669
G1 X76.66 Y48.489 E7.65852
G1 X76.66 Y29.23 E8.10691
G1 X76.67 Y28.497 E8.12398
G1 X76.719 Y27.688 E8.14285
G1 X76.893 Y26.476 E8.17136
G1 X77.074 Y25.782 E8.18805
M204 S3000
M205 X10 Y10
G0 F1500 X77.613 Y25.933
M204 S1800
M205 X8 Y8
G1 F2400 X77.826 Y25.319 E8.20319
G1 X78.28 Y24.402 E8.22701
G1 X78.613 Y23.844 E8.24214
G1 X79.012 Y23.331 E8.25727
G1 X79.381 Y22.952 E8.26958
G1 X80.284 Y22.219 E8.29666
G1 X81.07 Y21.755 E8.31791
G1 X81.67 Y21.506 E8.33304
G1 X82.423 Y21.308 E8.35116
G1 X83.569 Y21.172 E8.37803
G1 X84.167 Y21.164 E8.39196
G1 X101.887 Y21.164 E8.80452
G1 X103.662 Y21.189 E8.84585
G1 X106.414 Y21.189 E8.90992
G1 X107.362 Y21.168 E8.93199
G1 X125.41 Y21.164 E9.35219
G1 X126.191 Y21.175 E9.37037
G1 X126.997 Y21.223 E9.38917
G1 X127.641 Y21.309 E9.4043
G1 X128.269 Y21.473 E9.41941
G1 X128.873 Y21.713 E9.43454
G1 X129.62 Y22.143 E9.45461
G1 X130.527 Y22.839 E9.48123
G1 X130.974 Y23.311 E9.49636
G1 X131.363 Y23.838 E9.51161
G1 X132.013 Y24.979 E9.54219
G1 X132.405 Y25.989 E9.56741
G1 X132.625 Y26.964 E9.59068
G1 X132.734 Y27.881 E9.61218
G1 X132.761 Y28.761 E9.63268
G1 X132.779 Y48.643 E10.09557
G1 X132.773 Y49.219 E10.10899
G1 X132.737 Y50.044 E10.12821
G1 X132.682 Y50.593 E10.14106
G1 X132.561 Y51.259 E10.15682
G1 X132.437 Y51.769 E10.16904
G1 X132.245 Y52.39 E10.18417
G1 X131.992 Y52.964 E10.19877
G1 X131.699 Y53.529 E10.21359
G1 X131.359 Y54.083 E10.22873
G1 X130.858 Y54.696 E10.24716
G1 X130.179 Y55.35 E10.26911
G1 X129.577 Y55.777 E10.28629
G1 X128.785 Y56.212 E10.30733
G1 X128.178 Y56.442 E10.32244
G1 X127.547 Y56.595 E10.33756
G1 X127 Y56.664 E10.35039
G1 X126.279 Y56.712 E10.36722
G1 X108.305 Y56.724 E10.78569
G1 X106.181 Y56.694 E10.83515
G1 X102.741 Y56.702 E10.91524
G1 X101.7 Y56.723 E10.93948
G1 X84.014 Y56.72 E11.35125
G1 X83.373 Y56.704 E11.36617
G1 X82.726 Y56.645 E11.3813
G1 X82.121 Y56.516 E11.3957
G1 X81.339 Y56.26 E11.41486
G1 X80.483 Y55.81 E11.43738
G1 X79.742 Y55.282 E11.45856
G1 X79.066 Y54.6 E11.48092
G1 X78.345 Y53.613 E11.50937
G1 X77.882 Y52.689 E11.53344
G1 X77.724 Y52.282 E11.5436
G1 X77.464 Y51.384 E11.56537
G1 X77.304 Y50.414 E11.58826
G1 X77.249 Y49.8 E11.60261
G1 X77.224 Y48.98 E11.62171
G1 X77.22 Y29.23 E12.08153
G1 X77.23 Y28.505 E12.09841
G1 X77.277 Y27.729 E12.11651
G1 X77.437 Y26.607 E12.1429
G1 X77.613 Y25.933 E12.15912
M204 S3000
M205 X10 Y10
G1 F2400 E6.15912
;MESH:empalmes-cables.stl
G0 F1500 X82.328 Y26.597
G0 X83.704 Y27.302
G0 X102.253 Y28.401
M204 S1800
M205 X8 Y8
;TYPE:WALL-INNER
G1 F2400 E12.15912
G1 F1500 X102.261 Y29.069 E12.17467
G1 X102.261 Y49.291 E12.64548
G1 X102.211 Y49.817 E12.65778
G1 X102.142 Y50.044 E12.66331
G1 X84.011 Y50.043 E13.08543
G1 X83.995 Y50.002 E13.08646
G1 X83.908 Y49.475 E13.09889
G1 X83.9 Y48.819 E13.11417
G1 X83.9 Y28.597 E13.58498
G1 X83.947 Y28.073 E13.59723
G1 X84.005 Y27.85 E13.60259
G1 X84.008 Y27.844 E13.60275
G1 X102.143 Y27.844 E14.02497
G1 X102.219 Y28.103 E14.03125
G1 X102.253 Y28.401 E14.03824
M204 S3000
M205 X10 Y10
G0 X102.635 Y27.528
M204 S1800
M205 X8 Y8
G1 X102.769 Y27.987 E14.04937
G1 X102.813 Y28.369 E14.05832
G1 X102.821 Y29.069 E14.07462
G1 X102.821 Y49.323 E14.54617
G1 X102.764 Y49.925 E14.56025
G1 X102.617 Y50.407 E14.57199
G1 X102.574 Y50.486 E14.57408
G1 X102.467 Y50.604 E14.57779
G1 X84.078 Y50.604 E15.00592
G1 X83.675 Y50.598 E15.01531
G1 X83.576 Y50.463 E15.0192
G1 X83.451 Y50.149 E15.02707
G1 X83.349 Y49.527 E15.04175
G1 X83.34 Y48.819 E15.05823
G1 X83.34 Y28.569 E15.5297
G1 X83.393 Y27.976 E15.54356
G1 X83.478 Y27.652 E15.55136
G1 X83.641 Y27.334 E15.55967
G1 X83.697 Y27.284 E15.56142
G1 X102.48 Y27.284 E15.99873
G1 X102.52 Y27.324 E16.00005
G1 X102.635 Y27.528 E16.0055
M204 S3000
M205 X10 Y10
G0 X102.785 Y26.796
M204 S1800
M205 X8 Y8
;TYPE:WALL-OUTER
G1 X102.97 Y26.982 E16.01161
G1 X103.156 Y27.313 E16.02045
G1 X103.319 Y27.871 E16.03398
G1 X103.373 Y28.337 E16.0449
G1 X103.381 Y29.069 E16.06195
G1 X103.381 Y49.344 E16.53399
G1 X103.315 Y50.038 E16.55022
G1 X103.137 Y50.622 E16.56444
G1 X103.036 Y50.811 E16.56943
G1 X102.776 Y51.097 E16.57842
G1 X102.692 Y51.141 E16.58063
G1 X102.565 Y51.164 E16.58364
G1 X84.07 Y51.164 E17.01424
G1 X83.517 Y51.156 E17.02712
G1 X83.485 Y51.146 E17.0279
G1 X83.277 Y51.004 E17.03376
G1 X83.082 Y50.736 E17.04148
G1 X82.907 Y50.297 E17.05248
G1 X82.79 Y49.577 E17.06946
G1 X82.78 Y48.819 E17.08711
G1 X82.78 Y28.541 E17.55923
G1 X82.839 Y27.879 E17.5747
G1 X82.951 Y27.452 E17.58498
G1 X83.191 Y26.984 E17.59722
G1 X83.434 Y26.768 E17.60479
G1 X83.606 Y26.724 E17.60893
G1 X102.565 Y26.724 E18.05033
G1 X102.696 Y26.748 E18.05343
G1 X102.785 Y26.796 E18.05579
M204 S3000
M205 X10 Y10
G0 X102.926 Y26.937
G0 X102.441 Y27.384
G0 X101.699 Y28.394
M204 S1800
M205 X8 Y8
;TYPE:SKIN
G1 X101.703 Y28.432 E18.05668
G1 X101.711 Y29.069 E18.07151
G1 X101.711 Y49.262 E18.54164
G1 X101.689 Y49.494 E18.54707
G1 X84.468 Y49.493 E18.94801
G1 X84.458 Y49.431 E18.94947
G1 X84.45 Y48.819 E18.96372
G1 X84.45 Y28.624 E19.4339
G1 X84.471 Y28.394 E19.43928
G1 X101.699 Y28.394 E19.84038
M204 S3000
M205 X10 Y10
G0 X100.722 Y28.654
M204 S1800
M205 X8 Y8
G1 X101.45 Y29.381 E19.86434
M204 S3000
M205 X10 Y10
G0 X101.45 Y30.173
M204 S1800
M205 X8 Y8
G1 X99.93 Y28.654 E19.91437
M204 S3000
M205 X10 Y10
G0 X99.138 Y28.654
M204 S1800
M205 X8 Y8
G1 X101.45 Y30.965 E19.99048
M204 S3000
M205 X10 Y10
G0 X101.45 Y31.757
M204 S1800
M205 X8 Y8
G1 X98.346 Y28.654 E20.09266
M204 S3000
M205 X10 Y10
G0 X97.554 Y28.654
M204 S1800
M205 X8 Y8
G1 X101.45 Y32.549 E20.22093
M204 S3000
M205 X10 Y10
G0 X101.45 Y33.341
M204 S1800
M205 X8 Y8
G1 X96.762 Y28.654 E20.37527
M204 S3000
M205 X10 Y10
G0 X95.97 Y28.654
M204 S1800
M205 X8 Y8
G1 X101.45 Y34.133 E20.55568
M204 S3000
M205 X10 Y10
G0 X101.45 Y34.925
M204 S1800
M205 X8 Y8
G1 X95.178 Y28.654 E20.76218
M204 S3000
M205 X10 Y10
G0 X94.386 Y28.654
M204 S1800
M205 X8 Y8
G1 X101.45 Y35.717 E20.99475
M204 S3000
M205 X10 Y10
G0 X101.45 Y36.509
M204 S1800
M205 X8 Y8
G1 X93.594 Y28.654 E21.2534
M204 S3000
M205 X10 Y10
G0 X92.802 Y28.654
M204 S1800
M205 X8 Y8
G1 X101.45 Y37.301 E21.53812
M204 S3000
M205 X10 Y10
G0 X101.45 Y38.093
M204 S1800
M205 X8 Y8
G1 X92.01 Y28.654 E21.84893
M204 S3000
M205 X10 Y10
G0 X91.218 Y28.654
M204 S1800
M205 X8 Y8
G1 X101.45 Y38.885 E22.18581
M204 S3000
M205 X10 Y10
G0 X101.45 Y39.677
M204 S1800
M205 X8 Y8
G1 X90.426 Y28.654 E22.54877
M204 S3000
M205 X10 Y10
G0 X89.634 Y28.654
M204 S1800
M205 X8 Y8
G1 X101.45 Y40.469 E22.9378
M204 S3000
M205 X10 Y10
G0 X101.45 Y41.261
M204 S1800
M205 X8 Y8
G1 X88.843 Y28.654 E23.3529
M204 S3000
M205 X10 Y10
G0 X88.051 Y28.654
M204 S1800
M205 X8 Y8
G1 X101.45 Y42.053 E23.79407
M204 S3000
M205 X10 Y10
G0 X101.45 Y42.845
M204 S1800
M205 X8 Y8
G1 X87.259 Y28.654 E24.26132
M204 S3000
M205 X10 Y10
G0 X86.467 Y28.654
M204 S1800
M205 X8 Y8
G1 X101.45 Y43.636 E24.75463
M204 S3000
M205 X10 Y10
G0 X101.45 Y44.428
M204 S1800
M205 X8 Y8
G1 X85.675 Y28.654 E25.27402
M204 S3000
M205 X10 Y10
G0 X84.883 Y28.654
M204 S1800
M205 X8 Y8
G1 X101.45 Y45.22 E25.81949
M204 S3000
M205 X10 Y10
G0 X101.45 Y46.012
M204 S1800
M205 X8 Y8
G1 X84.709 Y29.272 E26.37068
M204 S3000
M205 X10 Y10
G0 X84.709 Y30.064
M204 S1800
M205 X8 Y8
G1 X101.45 Y46.804 E26.92188
M204 S3000
M205 X10 Y10
G0 X101.45 Y47.596
M204 S1800
M205 X8 Y8
G1 X84.709 Y30.856 E27.47308
M204 S3000
M205 X10 Y10
G0 X84.709 Y31.647
M204 S1800
M205 X8 Y8
G1 X101.45 Y48.388 E28.02429
M204 S3000
M205 X10 Y10
G0 X101.45 Y49.18
M204 S1800
M205 X8 Y8
G1 X84.709 Y32.439 E28.5755
M204 S3000
M205 X10 Y10
G0 X84.709 Y33.231
M204 S1800
M205 X8 Y8
G1 X100.711 Y49.233 E29.10238
M204 S3000
M205 X10 Y10
G0 X99.919 Y49.233
M204 S1800
M205 X8 Y8
G1 X84.709 Y34.023 E29.60318
M204 S3000
M205 X10 Y10
G0 X84.709 Y34.815
M204 S1800
M205 X8 Y8
G1 X99.127 Y49.233 E30.07791
M204 S3000
M205 X10 Y10
G0 X98.335 Y49.233
M204 S1800
M205 X8 Y8
G1 X84.709 Y35.607 E30.52655
M204 S3000
M205 X10 Y10
G0 X84.709 Y36.399
M204 S1800
M205 X8 Y8
G1 X97.543 Y49.233 E30.94912
M204 S3000
M205 X10 Y10
G0 X96.751 Y49.233
M204 S1800
M205 X8 Y8
G1 X84.709 Y37.191 E31.34562
M204 S3000
M205 X10 Y10
G0 X84.709 Y37.983
M204 S1800
M205 X8 Y8
G1 X95.959 Y49.233 E31.71603
M204 S3000
M205 X10 Y10
G0 X95.167 Y49.233
M204 S1800
M205 X8 Y8
G1 X84.709 Y38.775 E32.06037
M204 S3000
M205 X10 Y10
G0 X84.709 Y39.567
M204 S1800
M205 X8 Y8
G1 X94.375 Y49.233 E32.37863
M204 S3000
M205 X10 Y10
G0 X93.583 Y49.233
M204 S1800
M205 X8 Y8
G1 X84.709 Y40.359 E32.67082
M204 S3000
M205 X10 Y10
G0 X84.709 Y41.151
M204 S1800
M205 X8 Y8
G1 X92.79 Y49.233 E32.93691
M204 S3000
M205 X10 Y10
G0 X91.998 Y49.233
M204 S1800
M205 X8 Y8
G1 X84.709 Y41.943 E33.17692
M204 S3000
M205 X10 Y10
G0 X84.709 Y42.735
M204 S1800
M205 X8 Y8
G1 X91.206 Y49.233 E33.39086
M204 S3000
M205 X10 Y10
G0 X90.414 Y49.233
M204 S1800
M205 X8 Y8
G1 X84.709 Y43.527 E33.57871
M204 S3000
M205 X10 Y10
G0 X84.709 Y44.319
M204 S1800
M205 X8 Y8
G1 X89.622 Y49.233 E33.74049
M204 S3000
M205 X10 Y10
G0 X88.83 Y49.233
M204 S1800
M205 X8 Y8
G1 X84.709 Y45.111 E33.8762
M204 S3000
M205 X10 Y10
G0 X84.709 Y45.903
M204 S1800
M205 X8 Y8
G1 X88.039 Y49.233 E33.98584
M204 S3000
M205 X10 Y10
G0 X87.247 Y49.233
M204 S1800
M205 X8 Y8
G1 X84.709 Y46.695 E34.06941
M204 S3000
M205 X10 Y10
G0 X84.709 Y47.487
M204 S1800
M205 X8 Y8
G1 X86.455 Y49.233 E34.1269
M204 S3000
M205 X10 Y10
G0 X85.663 Y49.233
M204 S1800
M205 X8 Y8
G1 X84.709 Y48.279 E34.15831
M204 S3000
M205 X10 Y10
G0 X84.712 Y49.073
M204 S1800
M205 X8 Y8
G1 X84.871 Y49.233 E34.16356
M204 S3000
M205 X10 Y10
G1 F2400 E28.16356
G0 F1500 X102.801 Y29.069
G0 X104.325 Y29.052
G0 X105.675 Y29.068
G0 X107.18 Y29.066
G0 X126.082 Y28.259
M204 S1800
M205 X8 Y8
;TYPE:WALL-INNER
G1 F2400 E34.16356
G1 F1500 X126.1 Y49.322 E34.65395
G1 X126.078 Y49.67 E34.66207
G1 X125.991 Y50.04 E34.67092
G1 X125.989 Y50.044 E34.67102
G1 X107.857 Y50.044 E35.09317
G1 X107.826 Y49.97 E35.09504
G1 X107.755 Y49.561 E35.10471
G1 X107.739 Y28.595 E35.59284
G1 X107.784 Y28.092 E35.6046
G1 X107.859 Y27.844 E35.61063
G1 X125.994 Y27.844 E36.03285
G1 X126.025 Y27.935 E36.03509
G1 X126.082 Y28.259 E36.04275
M204 S3000
M205 X10 Y10
G0 X126.491 Y27.564
M204 S1800
M205 X8 Y8
G1 X126.568 Y27.794 E36.04839
G1 X126.642 Y28.211 E36.05825
G1 X126.66 Y49.341 E36.5502
G1 X126.634 Y49.751 E36.55977
G1 X126.519 Y50.24 E36.57146
G1 X126.337 Y50.586 E36.58057
G1 X126.098 Y50.604 E36.58615
G1 X107.649 Y50.604 E37.01568
G1 X107.519 Y50.588 E37.01873
G1 X107.444 Y50.505 E37.02133
G1 X107.285 Y50.129 E37.03084
G1 X107.195 Y49.611 E37.04308
G1 X107.179 Y28.568 E37.533
G1 X107.231 Y27.984 E37.54665
G1 X107.376 Y27.508 E37.55824
G1 X107.515 Y27.291 E37.56424
G1 X107.538 Y27.284 E37.5648
G1 X126.085 Y27.284 E37.99661
G1 X126.327 Y27.301 E38.00226
G1 X126.491 Y27.564 E38.00948
M204 S3000
M205 X10 Y10
G0 X126.738 Y26.9
M204 S1800
M205 X8 Y8
;TYPE:WALL-OUTER
G1 X127.001 Y27.323 E38.02107
G1 X127.111 Y27.65 E38.0291
