;FLAVOR:Marlin
;TIME:7698
;Filament used: 3.92718m
;Layer height: 0.1
;MINX:79.305
;MINY:16.27
;MINZ:0.1
;MAXX:130.695
;MAXY:86.31
;MAXZ:30
;Generated with Cura_SteamEngine 4.5.0
M140 S60
M105
M190 S60
M104 S200
M105
M109 S200
M82 ;absolute extrusion mode
G21 ;metric values
G90 ;absolute positioning
M82 ;set extruder to absolute mode
M107 ;start with the fan off
G28 X0 Y0 ;move X/Y to min endstops
G28 Z0 ;move Z to min endstops
G1 Z15.0 F50 ;move the platform down 15mm
G92 E0 ;zero the extruded length
G1 F200 E3 ;extrude 3mm of feed stock
G92 E0 ;zero the extruded length again
G1 F50
G0 Y20 F50
M117 Printing...
G5
G92 E0
G92 E0
G1 F2400 E-6
;LAYER_COUNT:300
;LAYER:0
M106 S255
M204 S3000
M205 X10 Y10
G1 F600 Z0.175
G0 F1500 X79.495 Y22.159 Z0.175
M204 S1800
M205 X8 Y8
;TYPE:SKIRT
G1 F600 Z0.1
G1 F2400 E0
G1 X79.703 Y21.412 E0.01805
G1 X79.987 Y20.69 E0.03612
G1 X80.343 Y20.002 E0.05415
G1 X80.769 Y19.354 E0.07221
G1 X81.258 Y18.753 E0.09025
G1 X81.808 Y18.206 E0.10831
G1 X82.41 Y17.718 E0.12635
G1 X83.06 Y17.295 E0.1444
G1 X83.75 Y16.94 E0.16247
G1 X84.473 Y16.659 E0.18053
G1 X85.22 Y16.454 E0.19856
G1 X85.985 Y16.327 E0.21662
G1 X86.623 Y16.282 E0.23151
G1 X87.155 Y16.27 E0.2439
G1 X93.305 Y16.27 E0.38708
G1 X94.113 Y16.281 E0.4059
G1 X94.887 Y16.332 E0.42396
G1 X95.651 Y16.462 E0.442
G1 X96.398 Y16.671 E0.46006
G1 X97.12 Y16.955 E0.47812
G1 X97.808 Y17.312 E0.49617
G1 X98.456 Y17.738 E0.51422
G1 X99.056 Y18.228 E0.53226
G1 X99.852 Y19.07 E0.55924
G1 X100.489 Y19.858 E0.58283
G1 X102.211 Y21.929 E0.64554
G1 X103.909 Y23.856 E0.70533
G1 X105.738 Y25.819 E0.7678
G1 X107.521 Y27.627 E0.82692
G1 X109.462 Y29.487 E0.88951
G1 X111.359 Y31.205 E0.9491
G1 X113.378 Y32.931 E1.01094
G1 X115.392 Y34.558 E1.07122
G1 X117.485 Y36.152 E1.13247
G1 X119.627 Y37.688 E1.19384
G1 X121.756 Y39.128 E1.25368
G1 X123.974 Y40.536 E1.31484
G1 X126.315 Y41.931 E1.37829
G1 X126.913 Y42.275 E1.39435
G1 X127.564 Y42.696 E1.4124
G1 X128.169 Y43.181 E1.43045
G1 X128.72 Y43.726 E1.4485
G1 X129.212 Y44.325 E1.46655
G1 X129.641 Y44.972 E1.48462
G1 X130 Y45.659 E1.50267
G1 X130.286 Y46.379 E1.5207
G1 X130.497 Y47.125 E1.53875
G1 X130.63 Y47.889 E1.55681
G1 X130.681 Y48.564 E1.57257
G1 X130.695 Y49.12 E1.58552
G1 X130.695 Y78.054 E2.25916
G1 X130.685 Y78.874 E2.27825
G1 X130.636 Y79.648 E2.29631
G1 X130.507 Y80.412 E2.31435
G1 X130.3 Y81.16 E2.33242
G1 X130.017 Y81.882 E2.35047
G1 X129.661 Y82.571 E2.36853
G1 X129.237 Y83.219 E2.38656
G1 X128.747 Y83.821 E2.40463
G1 X128.199 Y84.369 E2.42268
G1 X127.597 Y84.857 E2.44072
G1 X126.947 Y85.281 E2.45879
G1 X126.258 Y85.636 E2.47683
G1 X125.536 Y85.918 E2.49488
G1 X124.788 Y86.124 E2.51294
G1 X124.023 Y86.252 E2.531
G1 X123.377 Y86.298 E2.54608
G1 X122.845 Y86.31 E2.55847
G1 X87.603 Y86.31 E3.37897
G1 X86.798 Y86.299 E3.39772
G1 X86.024 Y86.248 E3.41578
G1 X84.987 Y86.051 E3.44035
G1 X84.177 Y85.796 E3.46012
G1 X83.466 Y85.485 E3.47819
G1 X82.792 Y85.102 E3.49624
G1 X82.161 Y84.652 E3.51428
G1 X81.579 Y84.14 E3.53233
G1 X81.053 Y83.57 E3.55039
G1 X80.588 Y82.949 E3.56845
G1 X80.19 Y82.284 E3.5865
G1 X79.863 Y81.581 E3.60455
G1 X79.609 Y80.848 E3.62261
G1 X79.433 Y80.093 E3.64066
G1 X79.317 Y78.973 E3.66687
G1 X79.305 Y74.799 E3.76405
G1 X79.316 Y73.992 E3.78284
G1 X79.367 Y73.218 E3.8009
G1 X79.48 Y72.533 E3.81707
G1 X79.699 Y71.505 E3.84154
G1 X79.88 Y70.711 E3.8605
G1 X80.394 Y68.147 E3.92138
G1 X80.837 Y65.547 E3.98279
G1 X81.204 Y62.97 E4.04339
G1 X81.497 Y60.379 E4.1041
G1 X81.716 Y57.779 E4.16485
G1 X81.864 Y55.159 E4.22594
G1 X81.937 Y52.548 E4.28676
G1 X81.935 Y49.932 E4.34766
G1 X81.86 Y47.318 E4.40855
G1 X81.711 Y44.71 E4.46937
G1 X81.486 Y42.069 E4.53108
G1 X81.193 Y39.503 E4.59121
G1 X80.821 Y36.906 E4.65229
G1 X80.383 Y34.356 E4.71253
G1 X79.861 Y31.755 E4.77429
G1 X79.498 Y30.143 E4.81276
G1 X79.367 Y29.378 E4.83083
G1 X79.318 Y28.718 E4.84624
G1 X79.305 Y28.16 E4.85923
G1 X79.305 Y24.464 E4.94528
G1 X79.315 Y23.697 E4.96314
G1 X79.365 Y22.924 E4.98118
G1 X79.495 Y22.159 E4.99924
M204 S3000
M205 X10 Y10
G0 F1500 X80.054 Y22.226
M204 S1800
M205 X8 Y8
G1 F2400 X80.261 Y21.509 E5.01662
G1 X80.544 Y20.819 E5.03398
G1 X80.899 Y20.163 E5.05135
G1 X81.322 Y19.549 E5.06871
G1 X81.809 Y18.983 E5.08609
G1 X82.353 Y18.473 E5.10345
G1 X82.949 Y18.024 E5.12083
G1 X83.589 Y17.642 E5.13818
G1 X84.267 Y17.33 E5.15556
G1 X84.974 Y17.092 E5.17292
G1 X85.702 Y16.932 E5.19028
G1 X86.639 Y16.842 E5.21219
G1 X87.155 Y16.83 E5.22421
G1 X93.305 Y16.83 E5.36739
G1 X94.105 Y16.841 E5.38602
G1 X94.849 Y16.891 E5.40338
G1 X95.584 Y17.021 E5.42076
G1 X96.3 Y17.229 E5.43812
G1 X96.99 Y17.512 E5.45548
G1 X97.646 Y17.868 E5.47286
G1 X98.26 Y18.291 E5.49022
G1 X98.825 Y18.778 E5.50759
G1 X99.417 Y19.422 E5.52795
G1 X100.09 Y20.254 E5.55287
G1 X101.773 Y22.278 E5.61415
G1 X103.509 Y24.249 E5.6753
G1 X105.309 Y26.18 E5.73676
G1 X107.167 Y28.064 E5.79837
G1 X109.041 Y29.861 E5.85882
G1 X111.016 Y31.649 E5.92085
G1 X113.02 Y33.362 E5.98223
G1 X115.058 Y35.009 E6.04323
G1 X117.138 Y36.592 E6.10409
G1 X119.264 Y38.118 E6.16502
G1 X121.485 Y39.62 E6.22744
G1 X123.681 Y41.013 E6.28799
G1 X126.074 Y42.44 E6.35286
G1 X126.633 Y42.761 E6.36786
G1 X127.259 Y43.167 E6.38523
G1 X127.838 Y43.637 E6.4026
G1 X128.363 Y44.167 E6.41997
G1 X128.829 Y44.75 E6.43734
G1 X129.229 Y45.379 E6.4547
G1 X129.56 Y46.048 E6.47207
G1 X129.817 Y46.748 E6.48944
G1 X129.998 Y47.472 E6.50681
G1 X130.122 Y48.581 E6.53279
G1 X130.135 Y49.12 E6.54534
G1 X130.135 Y78.054 E7.21899
G1 X130.125 Y78.867 E7.23792
G1 X130.076 Y79.611 E7.25528
G1 X129.948 Y80.346 E7.27265
G1 X129.741 Y81.063 E7.29002
G1 X129.459 Y81.754 E7.3074
G1 X129.105 Y82.41 E7.32475
G1 X128.683 Y83.025 E7.34212
G1 X128.197 Y83.591 E7.35949
G1 X127.653 Y84.102 E7.37686
G1 X127.058 Y84.551 E7.39422
G1 X126.418 Y84.935 E7.4116
G1 X125.741 Y85.247 E7.42895
G1 X125.034 Y85.486 E7.44633
G1 X124.306 Y85.647 E7.46369
G1 X123.361 Y85.738 E7.48579
G1 X122.845 Y85.75 E7.49781
G1 X87.603 Y85.75 E8.31831
G1 X86.806 Y85.739 E8.33687
G1 X86.062 Y85.689 E8.35423
G1 X85.13 Y85.51 E8.37633
G1 X84.348 Y85.262 E8.39543
G1 X83.667 Y84.959 E8.41278
G1 X83.022 Y84.584 E8.43015
G1 X82.42 Y84.143 E8.44753
G1 X81.87 Y83.639 E8.46489
G1 X81.376 Y83.08 E8.48226
G1 X80.945 Y82.471 E8.49963
G1 X80.582 Y81.82 E8.51699
G1 X80.291 Y81.133 E8.53436
G1 X80.074 Y80.419 E8.55173
G1 X79.936 Y79.686 E8.5691
G1 X79.877 Y78.957 E8.58613
G1 X79.865 Y74.799 E8.68293
G1 X79.876 Y74 E8.70154
G1 X79.926 Y73.256 E8.7189
G1 X80.028 Y72.65 E8.73321
G1 X80.247 Y71.622 E8.75768
G1 X80.425 Y70.843 E8.77628
G1 X80.946 Y68.242 E8.83804
G1 X81.388 Y65.652 E8.89921
G1 X81.759 Y63.043 E8.96057
G1 X82.055 Y60.419 E9.02205
G1 X82.275 Y57.82 E9.08277
G1 X82.424 Y55.171 E9.14455
G1 X82.497 Y52.564 E9.20527
G1 X82.495 Y49.916 E9.26692
G1 X82.42 Y47.305 E9.32773
G1 X82.27 Y44.665 E9.38929
G1 X82.044 Y42.031 E9.45085
G1 X81.747 Y39.43 E9.5118
G1 X81.373 Y36.807 E9.57348
G1 X80.934 Y34.255 E9.63377
G1 X80.396 Y31.579 E9.69732
G1 X80.045 Y30.02 E9.73453
G1 X79.92 Y29.284 E9.75191
G1 X79.878 Y28.702 E9.76549
G1 X79.865 Y28.16 E9.77811
G1 X79.865 Y24.464 E9.86417
G1 X79.875 Y23.705 E9.88184
G1 X79.925 Y22.961 E9.8992
G1 X80.054 Y22.226 E9.91657
M204 S3000
M205 X10 Y10
G0 F1500 X80.613 Y22.295
M204 S1800
M205 X8 Y8
G1 F2400 X80.82 Y21.611 E9.93321
G1 X81.102 Y20.953 E9.94988
G1 X81.455 Y20.331 E9.96653
G1 X81.875 Y19.753 E9.98316
G1 X82.358 Y19.225 E9.99982
G1 X82.896 Y18.754 E10.01647
G1 X83.484 Y18.346 E10.03313
G1 X84.113 Y18.006 E10.04978
G1 X84.777 Y17.739 E10.06644
G1 X85.466 Y17.547 E10.0831
G1 X86.172 Y17.433 E10.09975
G1 X86.976 Y17.393 E10.11849
G1 X93.305 Y17.39 E10.26584
G1 X94.097 Y17.401 E10.28428
G1 X94.811 Y17.451 E10.30095
G1 X95.514 Y17.58 E10.31759
G1 X96.199 Y17.787 E10.33425
G1 X96.856 Y18.07 E10.3509
G1 X97.478 Y18.423 E10.36755
G1 X98.056 Y18.844 E10.3842
G1 X98.584 Y19.327 E10.40086
G1 X98.981 Y19.774 E10.41478
G1 X99.602 Y20.542 E10.43778
G1 X101.352 Y22.648 E10.50153
G1 X103.101 Y24.633 E10.56312
G1 X104.896 Y26.56 E10.62444
G1 X106.759 Y28.448 E10.68619
G1 X108.674 Y30.283 E10.74794
G1 X110.635 Y32.059 E10.80954
G1 X112.663 Y33.793 E10.87166
G1 X114.709 Y35.445 E10.93288
G1 X116.814 Y37.049 E10.9945
G1 X118.96 Y38.588 E11.05598
G1 X121.174 Y40.085 E11.11821
G1 X123.372 Y41.481 E11.17883
G1 X125.787 Y42.92 E11.24428
G1 X126.354 Y43.246 E11.25951
G1 X126.954 Y43.637 E11.27618
G1 X127.506 Y44.092 E11.29284
G1 X128.003 Y44.606 E11.30948
G1 X128.44 Y45.172 E11.32613
G1 X128.812 Y45.783 E11.34279
G1 X129.113 Y46.432 E11.35944
G1 X129.339 Y47.11 E11.37608
G1 X129.489 Y47.81 E11.39275
G1 X129.562 Y48.598 E11.41117
G1 X129.575 Y49.12 E11.42333
G1 X129.575 Y78.133 E12.09881
G1 X129.566 Y78.86 E12.11574
G1 X129.517 Y79.574 E12.1324
G1 X129.389 Y80.278 E12.14906
G1 X129.183 Y80.963 E12.16572
G1 X128.902 Y81.62 E12.18235
G1 X128.549 Y82.243 E12.19902
G1 X128.129 Y82.822 E12.21568
G1 X127.647 Y83.35 E12.23232
G1 X127.11 Y83.822 E12.24897
G1 X126.522 Y84.23 E12.26563
G1 X125.893 Y84.571 E12.28229
G1 X125.23 Y84.839 E12.29894
G1 X124.541 Y85.031 E12.31559
G1 X123.835 Y85.146 E12.33224
G1 X123.024 Y85.187 E12.35115
G1 X87.603 Y85.19 E13.17583
G1 X86.814 Y85.179 E13.1942
G1 X86.101 Y85.129 E13.21084
G1 X85.273 Y84.968 E13.23048
G1 X84.521 Y84.728 E13.24885
G1 X83.869 Y84.433 E13.26552
G1 X83.255 Y84.067 E13.28216
G1 X82.685 Y83.634 E13.29882
G1 X82.167 Y83.141 E13.31547
G1 X81.708 Y82.593 E13.33212
G1 X81.312 Y81.997 E13.34878
G1 X80.986 Y81.36 E13.36544
G1 X80.732 Y80.692 E13.38207
G1 X80.555 Y79.999 E13.39873
G1 X80.437 Y78.941 E13.42351
G1 X80.425 Y74.799 E13.51995
G1 X80.436 Y74.008 E13.53837
G1 X80.486 Y73.295 E13.55501
G1 X80.575 Y72.766 E13.5675
G1 X80.794 Y71.738 E13.59197
G1 X80.971 Y70.968 E13.61036
G1 X81.496 Y68.343 E13.67269
G1 X81.944 Y65.72 E13.73464
G1 X82.315 Y63.11 E13.79602
G1 X82.611 Y60.495 E13.85729
G1 X82.833 Y57.864 E13.91876
G1 X82.982 Y55.218 E13.98046
G1 X83.057 Y52.543 E14.04277
G1 X83.055 Y49.899 E14.10433
G1 X82.98 Y47.292 E14.16505
G1 X82.827 Y44.606 E14.22768
G1 X82.603 Y41.989 E14.28884
G1 X82.302 Y39.356 E14.35054
G1 X81.929 Y36.741 E14.41204
G1 X81.479 Y34.125 E14.47384
G1 X80.952 Y31.5 E14.53617
G1 X80.591 Y29.897 E14.57443
G1 X80.473 Y29.191 E14.59109
G1 X80.438 Y28.685 E14.6029
G1 X80.425 Y28.16 E14.61513
G1 X80.425 Y24.464 E14.70118
G1 X80.435 Y23.712 E14.71869
G1 X80.484 Y22.999 E14.73533
G1 X80.613 Y22.295 E14.75199
M204 S3000
M205 X10 Y10
G0 F1500 X81.172 Y22.367
M204 S1800
M205 X8 Y8
G1 F2400 X81.378 Y21.716 E14.76789
G1 X81.659 Y21.093 E14.7838
G1 X82.01 Y20.507 E14.7997
G1 X82.428 Y19.966 E14.81562
G1 X82.905 Y19.478 E14.83151
G1 X83.437 Y19.049 E14.84742
G1 X84.015 Y18.684 E14.86334
G1 X84.632 Y18.39 E14.87925
G1 X85.278 Y18.17 E14.89514
G1 X85.946 Y18.027 E14.91104
G1 X86.67 Y17.961 E14.92797
G1 X93.305 Y17.95 E15.08245
G1 X94.089 Y17.961 E15.1007
G1 X94.771 Y18.01 E15.11662
G1 X95.442 Y18.139 E15.13253
G1 X96.093 Y18.346 E15.14843
G1 X96.716 Y18.627 E15.16434
G1 X97.301 Y18.979 E15.18024
G1 X97.842 Y19.396 E15.19614
G1 X98.546 Y20.127 E15.21977
G1 X99.171 Y20.9 E15.24292
G1 X100.931 Y23.017 E15.30701
G1 X102.691 Y25.016 E15.36902
G1 X104.5 Y26.957 E15.4308
G1 X106.35 Y28.832 E15.49212
G1 X108.288 Y30.69 E15.55463
G1 X110.274 Y32.487 E15.61699
G1 X112.288 Y34.21 E15.67869
G1 X114.376 Y35.897 E15.74119
G1 X116.484 Y37.501 E15.80286
G1 X118.638 Y39.047 E15.86459
G1 X120.863 Y40.551 E15.92712
G1 X123.078 Y41.958 E15.98821
G1 X125.519 Y43.413 E16.05437
G1 X126.075 Y43.732 E16.0693
G1 X126.647 Y44.106 E16.08521
G1 X127.17 Y44.545 E16.10111
G1 X127.639 Y45.042 E16.11702
G1 X128.047 Y45.59 E16.13292
G1 X128.388 Y46.182 E16.14883
G1 X128.657 Y46.81 E16.16474
G1 X128.852 Y47.465 E16.18065
G1 X128.968 Y48.139 E16.19657
G1 X129.012 Y48.94 E16.21525
G1 X129.015 Y78.126 E16.89476
G1 X129.006 Y78.853 E16.91169
G1 X128.957 Y79.535 E16.92761
G1 X128.829 Y80.206 E16.94351
G1 X128.624 Y80.858 E16.95942
G1 X128.344 Y81.481 E16.97532
G1 X127.994 Y82.067 E16.99122
G1 X127.577 Y82.609 E17.00714
G1 X127.1 Y83.098 E17.02304
G1 X126.569 Y83.527 E17.03894
G1 X125.991 Y83.892 E17.05485
G1 X125.375 Y84.187 E17.07075
G1 X124.728 Y84.408 E17.08667
G1 X124.06 Y84.552 E17.10258
G1 X123.33 Y84.619 E17.11965
G1 X87.603 Y84.63 E17.95145
G1 X86.822 Y84.619 E17.96963
G1 X86.141 Y84.57 E17.98553
G1 X85.416 Y84.427 E18.00273
G1 X84.695 Y84.195 E18.02037
G1 X84.075 Y83.908 E18.03627
G1 X83.492 Y83.55 E18.0522
G1 X82.956 Y83.127 E18.0681
G1 X82.472 Y82.645 E18.084
G1 X82.049 Y82.109 E18.0999
G1 X81.691 Y81.527 E18.11581
G1 X81.403 Y80.907 E18.13172
G1 X81.189 Y80.258 E18.14763
G1 X81.053 Y79.589 E18.16353
G1 X80.996 Y78.925 E18.17904
G1 X80.985 Y74.799 E18.27511
G1 X80.996 Y74.016 E18.29334
G1 X81.045 Y73.335 E18.30923
G1 X81.342 Y71.855 E18.34438
G1 X81.53 Y71.034 E18.36399
G1 X82.041 Y68.478 E18.42468
G1 X82.495 Y65.819 E18.48748
G1 X82.87 Y63.183 E18.54947
G1 X83.17 Y60.535 E18.61151
G1 X83.392 Y57.905 E18.67296
G1 X83.542 Y55.23 E18.73534
G1 X83.617 Y52.559 E18.79755
G1 X83.615 Y49.919 E18.85902
G1 X83.538 Y47.246 E18.92127
G1 X83.384 Y44.545 E18.98426
G1 X83.158 Y41.913 E19.04577
G1 X82.858 Y39.283 E19.10739
G1 X82.485 Y36.671 E19.16882
G1 X82.03 Y34.023 E19.23138
G1 X81.503 Y31.402 E19.29362
G1 X81.137 Y29.774 E19.33247
G1 X81.027 Y29.1 E19.34837
G1 X80.988 Y28.336 E19.36618
G1 X80.985 Y24.464 E19.45633
G1 X80.995 Y23.72 E19.47365
G1 X81.044 Y23.039 E19.48955
G1 X81.172 Y22.367 E19.50548
M204 S3000
M205 X10 Y10
G0 F1500 X81.731 Y22.443
M204 S1800
M205 X8 Y8
G1 F2400 X81.936 Y21.826 E19.52061
G1 X82.216 Y21.24 E19.53573
G1 X82.565 Y20.692 E19.55086
G1 X82.979 Y20.191 E19.56599
G1 X83.451 Y19.745 E19.58111
G1 X83.974 Y19.361 E19.59622
G1 X84.541 Y19.043 E19.61135
G1 X85.142 Y18.797 E19.62647
G1 X85.769 Y18.627 E19.6416
G1 X86.686 Y18.521 E19.66309
G1 X93.305 Y18.51 E19.81719
G1 X94.081 Y18.521 E19.83526
G1 X94.729 Y18.57 E19.85039
G1 X95.366 Y18.698 E19.86552
G1 X95.982 Y18.904 E19.88064
G1 X96.568 Y19.183 E19.89575
G1 X97.116 Y19.533 E19.91089
G1 X97.616 Y19.947 E19.92601
G1 X98.111 Y20.479 E19.94292
G1 X98.785 Y21.312 E19.96787
G1 X100.493 Y23.367 E20.03008
G1 X102.259 Y25.371 E20.09227
G1 X104.106 Y27.353 E20.15535
G1 X105.96 Y29.233 E20.21682
G1 X107.921 Y31.113 E20.28007
G1 X109.893 Y32.897 E20.34198
G1 X111.952 Y34.658 E20.40506
G1 X114.005 Y36.317 E20.46652
G1 X116.16 Y37.958 E20.52958
G1 X118.317 Y39.505 E20.59138
G1 X120.544 Y41.011 E20.65397
G1 X122.811 Y42.45 E20.71649
G1 X125.204 Y43.877 E20.78136
G1 X125.796 Y44.217 E20.79725
G1 X126.338 Y44.575 E20.81237
G1 X126.833 Y44.997 E20.82752
G1 X127.271 Y45.476 E20.84263
G1 X127.648 Y46.005 E20.85775
G1 X127.956 Y46.577 E20.87288
G1 X128.193 Y47.182 E20.88801
G1 X128.353 Y47.812 E20.90314
G1 X128.443 Y48.633 E20.92237
G1 X128.455 Y78.119 E21.60886
G1 X128.446 Y78.846 E21.62579
G1 X128.398 Y79.494 E21.64092
G1 X128.27 Y80.131 E21.65605
G1 X128.066 Y80.748 E21.67118
G1 X127.787 Y81.335 E21.68631
G1 X127.439 Y81.883 E21.70142
G1 X127.026 Y82.384 E21.71654
G1 X126.554 Y82.831 E21.73167
G1 X126.031 Y83.216 E21.74679
G1 X125.465 Y83.534 E21.76191
G1 X124.863 Y83.781 E21.77706
G1 X124.237 Y83.951 E21.79216
G1 X123.314 Y84.059 E21.8138
G1 X87.603 Y84.07 E22.64522
G1 X86.83 Y84.059 E22.66322
G1 X86.183 Y84.01 E22.67833
G1 X85.559 Y83.885 E22.69315
G1 X84.87 Y83.662 E22.71001
G1 X84.283 Y83.384 E22.72513
G1 X83.735 Y83.036 E22.74024
G1 X83.233 Y82.623 E22.75538
G1 X82.786 Y82.151 E22.77051
G1 X82.401 Y81.629 E22.78561
G1 X82.082 Y81.062 E22.80076
G1 X81.835 Y80.461 E22.81589
G1 X81.664 Y79.835 E22.831
G1 X81.556 Y78.91 E22.85268
G1 X81.545 Y74.798 E22.94842
G1 X81.556 Y74.024 E22.96644
G1 X81.605 Y73.377 E22.98154
G1 X81.89 Y71.972 E23.01492
G1 X82.076 Y71.159 E23.03434
G1 X82.592 Y68.579 E23.0956
G1 X83.053 Y65.883 E23.15928
G1 X83.421 Y63.29 E23.22025
G1 X83.728 Y60.575 E23.28387
G1 X83.95 Y57.949 E23.34522
G1 X84.102 Y55.242 E23.40835
G1 X84.177 Y52.574 E23.47049
G1 X84.175 Y49.902 E23.5327
G1 X84.097 Y47.182 E23.59605
G1 X83.947 Y44.566 E23.65706
G1 X83.717 Y41.871 E23.72003
G1 X83.414 Y39.214 E23.78229
G1 X83.035 Y36.566 E23.84457
G1 X82.582 Y33.927 E23.90691
