;FLAVOR:Marlin
;TIME:3379
;Filament used: 5.05452m
;Layer height: 0.3
;MINX:70.621
;MINY:13.011
;MINZ:0.15
;MAXX:139.379
;MAXY:81.769
;MAXZ:20.025
;Generated with Cura_SteamEngine 4.5.0
M140 S60
M105
M190 S60
M104 S205
M105
M109 S205
M82 ;absolute extrusion mode
G21 ;metric values
G90 ;absolute positioning
M82 ;set extruder to absolute mode
M107 ;start with the fan off
G28 X0 Y0 ;move X/Y to min endstops
G28 Z0 ;move Z to min endstops
G1 Z15.0 F100 ;move the platform down 15mm
G92 E0 ;zero the extruded length
G1 F200 E3 ;extrude 3mm of feed stock
G92 E0 ;zero the extruded length again
G1 F100
G0 Y20 F100
M117 Printing...
G5
G92 E0
G92 E0
G1 F4200 E-8
;LAYER_COUNT:67
;LAYER:0
M107
M204 S3000
M205 X10 Y10
G1 F600 Z0.225
G0 F6000 X73.775 Y33.027 Z0.225
M204 S1800
M205 X8 Y8
;TYPE:SKIRT
G1 F600 Z0.15
G1 F4200 E0
G1 F1200 X74.149 Y32.232 E0.03068
G1 X74.435 Y31.646 E0.05345
G1 X74.717 Y31.114 E0.07448
G1 X75.337 Y30.029 E0.11812
G1 X75.773 Y29.297 E0.14788
G1 X76.116 Y28.74 E0.17072
G1 X76.451 Y28.234 E0.19192
G1 X77.174 Y27.216 E0.23552
G1 X77.69 Y26.517 E0.26586
G1 X78.086 Y25.997 E0.28869
G1 X78.467 Y25.528 E0.30979
G1 X79.282 Y24.59 E0.35319
G1 X79.894 Y23.91 E0.38514
G1 X80.322 Y23.451 E0.40706
G1 X80.728 Y23.042 E0.42718
G1 X81.651 Y22.168 E0.47157
G1 X82.291 Y21.585 E0.50181
G1 X82.8 Y21.137 E0.52549
G1 X83.246 Y20.769 E0.54568
G1 X84.22 Y20.014 E0.58872
G1 X84.935 Y19.481 E0.61986
G1 X85.475 Y19.091 E0.64313
G1 X85.951 Y18.771 E0.66316
G1 X87.021 Y18.098 E0.7073
G1 X87.762 Y17.652 E0.73751
G1 X88.341 Y17.315 E0.7609
G1 X88.855 Y17.038 E0.78129
G1 X89.94 Y16.496 E0.82365
G1 X90.814 Y16.08 E0.85745
G1 X91.373 Y15.825 E0.87891
G1 X91.889 Y15.61 E0.89843
G1 X93.024 Y15.175 E0.94088
G1 X93.901 Y14.858 E0.97345
G1 X94.518 Y14.646 E0.99623
G1 X95.078 Y14.474 E1.01669
G1 X96.274 Y14.147 E1.05999
G1 X97.128 Y13.93 E1.09077
G1 X97.763 Y13.778 E1.11357
G1 X98.375 Y13.654 E1.13538
G1 X99.566 Y13.453 E1.17756
G1 X100.475 Y13.316 E1.20966
G1 X101.11 Y13.23 E1.23204
G1 X101.696 Y13.17 E1.25261
G1 X102.919 Y13.084 E1.29543
G1 X103.847 Y13.036 E1.32788
G1 X104.459 Y13.013 E1.34927
G1 X105.062 Y13.011 E1.37033
G1 X106.291 Y13.045 E1.41326
G1 X107.189 Y13.086 E1.44466
G1 X107.837 Y13.126 E1.46733
G1 X108.416 Y13.181 E1.48764
G1 X109.661 Y13.338 E1.53147
G1 X110.527 Y13.463 E1.56202
G1 X111.189 Y13.569 E1.58544
G1 X111.783 Y13.685 E1.60657
G1 X112.969 Y13.956 E1.64906
G1 X113.813 Y14.165 E1.67942
G1 X114.473 Y14.339 E1.70326
G1 X115.041 Y14.509 E1.72397
G1 X116.216 Y14.901 E1.76722
G1 X117.038 Y15.193 E1.79769
G1 X117.68 Y15.432 E1.82161
G1 X118.223 Y15.655 E1.84211
G1 X119.349 Y16.159 E1.8852
G1 X120.181 Y16.55 E1.9173
G1 X120.736 Y16.821 E1.93887
G1 X121.263 Y17.1 E1.95969
G1 X122.368 Y17.731 E2.00413
G1 X123.093 Y18.163 E2.03361
G1 X123.656 Y18.51 E2.0567
G1 X124.152 Y18.839 E2.07749
G1 X125.139 Y19.539 E2.11975
G1 X125.896 Y20.096 E2.15257
G1 X126.416 Y20.493 E2.17542
G1 X126.877 Y20.869 E2.19619
G1 X127.789 Y21.662 E2.2384
G1 X128.423 Y22.232 E2.26817
G1 X128.961 Y22.734 E2.29387
G1 X129.368 Y23.138 E2.3139
G1 X130.208 Y24.026 E2.35659
G1 X130.807 Y24.685 E2.38769
G1 X131.256 Y25.193 E2.41136
G1 X131.631 Y25.648 E2.43196
G1 X132.37 Y26.602 E2.4741
G1 X132.92 Y27.339 E2.50621
G1 X133.303 Y27.871 E2.52911
G1 X133.629 Y28.356 E2.54952
G1 X134.29 Y29.409 E2.59293
G1 X134.734 Y30.146 E2.62298
G1 X135.075 Y30.731 E2.64663
G1 X135.352 Y31.245 E2.66702
G1 X135.879 Y32.3 E2.70821
G1 X136.308 Y33.2 E2.74303
G1 X136.557 Y33.744 E2.76392
G1 X136.781 Y34.281 E2.78424
G1 X137.224 Y35.439 E2.82754
G1 X137.524 Y36.267 E2.85829
G1 X137.804 Y37.08 E2.88832
G1 X137.958 Y37.575 E2.90643
G1 X138.118 Y38.158 E2.92754
G1 X138.454 Y39.497 E2.97575
G1 X138.615 Y40.17 E2.99992
G1 X138.738 Y40.775 E3.02148
G1 X138.936 Y41.947 E3.06299
G1 X139.074 Y42.865 E3.09541
G1 X139.158 Y43.484 E3.11722
G1 X139.219 Y44.074 E3.13794
G1 X139.308 Y45.337 E3.18216
G1 X139.354 Y46.225 E3.21321
G1 X139.378 Y46.878 E3.23603
G1 X139.379 Y47.459 E3.25632
G1 X139.344 Y48.715 E3.3002
G1 X139.305 Y49.569 E3.33006
G1 X139.265 Y50.229 E3.35315
G1 X139.208 Y50.825 E3.37406
G1 X139.057 Y52.016 E3.41598
G1 X138.927 Y52.917 E3.44778
G1 X138.818 Y53.585 E3.47141
G1 X138.708 Y54.152 E3.49158
G1 X138.432 Y55.365 E3.53503
G1 X138.225 Y56.201 E3.56511
G1 X138.046 Y56.88 E3.58963
G1 X137.876 Y57.445 E3.61023
G1 X137.487 Y58.609 E3.65309
G1 X137.178 Y59.481 E3.6854
G1 X136.968 Y60.047 E3.70649
G1 X136.737 Y60.609 E3.72771
G1 X136.237 Y61.725 E3.77041
G1 X135.84 Y62.571 E3.80305
G1 X135.569 Y63.126 E3.82462
G1 X135.289 Y63.655 E3.84552
G1 X134.664 Y64.749 E3.88952
G1 X134.231 Y65.477 E3.9191
G1 X133.884 Y66.04 E3.9422
G1 X133.551 Y66.543 E3.96327
G1 X132.835 Y67.552 E4.00647
G1 X132.308 Y68.266 E4.03747
G1 X131.914 Y68.783 E4.06017
G1 X131.531 Y69.254 E4.08137
G1 X130.72 Y70.187 E4.12454
G1 X130.114 Y70.86 E4.15617
G1 X129.682 Y71.324 E4.17831
G1 X129.272 Y71.738 E4.19866
G1 X128.349 Y72.612 E4.24305
G1 X127.709 Y73.195 E4.27328
G1 X127.2 Y73.643 E4.29696
G1 X126.754 Y74.011 E4.31716
G1 X125.78 Y74.766 E4.36019
G1 X125.065 Y75.299 E4.39134
G1 X124.522 Y75.691 E4.41473
G1 X124.043 Y76.013 E4.43488
G1 X122.99 Y76.675 E4.47832
G1 X122.242 Y77.126 E4.50882
G1 X121.638 Y77.477 E4.53322
G1 X121.133 Y77.749 E4.55325
G1 X120.039 Y78.295 E4.59595
G1 X119.299 Y78.647 E4.62457
G1 X118.614 Y78.96 E4.65087
G1 X118.077 Y79.184 E4.67119
G1 X116.939 Y79.619 E4.71374
G1 X116.075 Y79.931 E4.74582
G1 X115.476 Y80.136 E4.76793
G1 X114.916 Y80.308 E4.78839
G1 X113.725 Y80.633 E4.8315
G1 X112.875 Y80.849 E4.86213
G1 X112.237 Y81.002 E4.88504
G1 X111.632 Y81.125 E4.9066
G1 X110.405 Y81.333 E4.95007
G1 X109.547 Y81.461 E4.98036
G1 X108.866 Y81.553 E5.00436
G1 X108.288 Y81.612 E5.02465
G1 X107.097 Y81.696 E5.06635
G1 X106.145 Y81.744 E5.09964
G1 X105.555 Y81.767 E5.12026
G1 X104.944 Y81.769 E5.1416
G1 X103.687 Y81.734 E5.18551
G1 X102.777 Y81.692 E5.21733
G1 X102.177 Y81.655 E5.23832
G1 X101.574 Y81.599 E5.25947
G1 X100.338 Y81.443 E5.30298
G1 X99.418 Y81.308 E5.33545
G1 X98.807 Y81.21 E5.35706
G1 X98.216 Y81.095 E5.37809
G1 X97.004 Y80.818 E5.4215
G1 X96.153 Y80.606 E5.45213
G1 X95.528 Y80.442 E5.4747
G1 X94.945 Y80.267 E5.49596
G1 X93.809 Y79.887 E5.53779
G1 X92.967 Y79.589 E5.56898
G1 X92.32 Y79.348 E5.59309
G1 X91.777 Y79.125 E5.61359
G1 X90.651 Y78.621 E5.65668
G1 X89.814 Y78.227 E5.68898
G1 X89.262 Y77.958 E5.71043
G1 X88.734 Y77.678 E5.7313
G1 X87.631 Y77.048 E5.77566
G1 X86.907 Y76.617 E5.80509
G1 X86.35 Y76.274 E5.82793
G1 X85.845 Y75.94 E5.84908
G1 X84.828 Y75.218 E5.89263
G1 X84.125 Y74.698 E5.92317
G1 X83.603 Y74.301 E5.94607
G1 X83.136 Y73.921 E5.9671
G1 X82.204 Y73.111 E6.01022
G1 X81.53 Y72.504 E6.0419
G1 X80.922 Y71.94 E6.07086
G1 X80.538 Y71.56 E6.08973
G1 X80.141 Y71.14 E6.10991
G1 X79.197 Y70.099 E6.15899
G1 X78.737 Y69.578 E6.18326
G1 X78.361 Y69.123 E6.20387
G1 X77.637 Y68.188 E6.24517
G1 X77.073 Y67.43 E6.27817
G1 X76.7 Y66.913 E6.30043
G1 X76.381 Y66.438 E6.32041
G1 X75.734 Y65.41 E6.36283
G1 X75.25 Y64.608 E6.39555
G1 X74.928 Y64.055 E6.4179
G1 X74.652 Y63.543 E6.43821
G1 X74.103 Y62.445 E6.48108
G1 X73.715 Y61.629 E6.51263
G1 X73.441 Y61.03 E6.53564
G1 X73.212 Y60.483 E6.55635
G1 X72.764 Y59.311 E6.60017
G1 X72.47 Y58.497 E6.63039
G1 X72.25 Y57.857 E6.65403
G1 X72.077 Y57.292 E6.67466
G1 X71.759 Y56.129 E6.71677
G1 X71.531 Y55.23 E6.74916
G1 X71.384 Y54.613 E6.77131
G1 X71.262 Y54.01 E6.79279
G1 X71.059 Y52.807 E6.8354
G1 X70.928 Y51.932 E6.8663
G1 X70.839 Y51.278 E6.88935
G1 X70.778 Y50.677 E6.91045
G1 X70.691 Y49.427 E6.95421
G1 X70.647 Y48.586 E6.98362
G1 X70.623 Y47.894 E7.0078
G1 X70.621 Y47.311 E7.02816
G1 X70.655 Y46.081 E7.07113
G1 X70.696 Y45.21 E7.10158
G1 X70.737 Y44.529 E7.12541
G1 X70.794 Y43.927 E7.14652
G1 X70.945 Y42.742 E7.18824
G1 X71.08 Y41.817 E7.22089
G1 X71.18 Y41.197 E7.24282
G1 X71.296 Y40.604 E7.26392
G1 X71.571 Y39.402 E7.30699
G1 X71.798 Y38.484 E7.34001
G1 X71.951 Y37.907 E7.36086
G1 X72.119 Y37.349 E7.38121
G1 X72.514 Y36.167 E7.42473
G1 X72.815 Y35.318 E7.45619
G1 X73.042 Y34.709 E7.47889
G1 X73.27 Y34.153 E7.49987
G1 X73.775 Y33.027 E7.54297
M204 S3000
M205 X10 Y10
G0 F6000 X74.286 Y33.257
M204 S1800
M205 X8 Y8
G1 F1200 X74.655 Y32.472 E7.57326
G1 X74.938 Y31.892 E7.5958
G1 X75.203 Y31.392 E7.61556
G1 X75.823 Y30.307 E7.65921
G1 X76.253 Y29.585 E7.68855
G1 X76.593 Y29.034 E7.71116
G1 X76.908 Y28.558 E7.7311
G1 X77.631 Y27.54 E7.7747
G1 X78.14 Y26.851 E7.80462
G1 X78.531 Y26.336 E7.8272
G1 X78.89 Y25.895 E7.84706
G1 X79.705 Y24.957 E7.89046
G1 X80.31 Y24.286 E7.92201
G1 X80.732 Y23.833 E7.94363
G1 X81.113 Y23.449 E7.96252
G1 X82.036 Y22.575 E8.00691
G1 X82.667 Y22 E8.03673
G1 X83.17 Y21.557 E8.06013
G1 X83.589 Y21.211 E8.07911
G1 X84.563 Y20.456 E8.12215
G1 X85.269 Y19.93 E8.1529
G1 X85.802 Y19.546 E8.17584
G1 X86.249 Y19.245 E8.19466
G1 X87.319 Y18.572 E8.2388
G1 X88.05 Y18.132 E8.2686
G1 X88.622 Y17.799 E8.29171
G1 X89.106 Y17.539 E8.3109
G1 X90.191 Y16.997 E8.35326
G1 X91.054 Y16.586 E8.38664
G1 X91.604 Y16.335 E8.40775
G1 X92.089 Y16.132 E8.42611
G1 X93.224 Y15.697 E8.46856
G1 X94.09 Y15.385 E8.50071
G1 X94.699 Y15.176 E8.5232
G1 X95.226 Y15.014 E8.54245
G1 X96.422 Y14.687 E8.58575
G1 X97.265 Y14.473 E8.61612
G1 X97.892 Y14.323 E8.63864
G1 X98.468 Y14.206 E8.65917
G1 X99.659 Y14.005 E8.70135
G1 X100.557 Y13.87 E8.73306
G1 X101.184 Y13.785 E8.75516
G1 X101.735 Y13.729 E8.7745
G1 X102.958 Y13.643 E8.81732
G1 X103.874 Y13.596 E8.84935
G1 X104.479 Y13.573 E8.87049
G1 X105.046 Y13.57 E8.89029
G1 X106.275 Y13.604 E8.93323
G1 X107.162 Y13.645 E8.96424
G1 X107.801 Y13.685 E8.9866
G1 X108.346 Y13.736 E9.00572
G1 X109.591 Y13.893 E9.04954
G1 X110.445 Y14.017 E9.07968
G1 X111.1 Y14.122 E9.10284
G1 X111.658 Y14.231 E9.1227
G1 X112.844 Y14.502 E9.16519
G1 X113.677 Y14.709 E9.19516
G1 X114.33 Y14.881 E9.21874
G1 X114.864 Y15.04 E9.2382
G1 X116.039 Y15.432 E9.28146
G1 X116.85 Y15.72 E9.31152
G1 X117.483 Y15.957 E9.33512
G1 X117.995 Y16.166 E9.35443
G1 X119.121 Y16.67 E9.39752
G1 X119.942 Y17.056 E9.4292
G1 X120.49 Y17.324 E9.4505
G1 X120.986 Y17.586 E9.47009
G1 X122.091 Y18.217 E9.51453
G1 X122.805 Y18.643 E9.54357
G1 X123.362 Y18.986 E9.56641
G1 X123.828 Y19.295 E9.58594
G1 X124.815 Y19.995 E9.6282
G1 X125.562 Y20.547 E9.66063
G1 X126.076 Y20.938 E9.68319
G1 X126.509 Y21.291 E9.7027
G1 X127.421 Y22.084 E9.74491
G1 X128.047 Y22.648 E9.77433
G1 X128.578 Y23.143 E9.79968
G1 X128.961 Y23.523 E9.81853
G1 X129.801 Y24.411 E9.86121
G1 X130.392 Y25.061 E9.89189
G1 X130.836 Y25.563 E9.9153
G1 X131.189 Y25.99 E9.93465
G1 X131.928 Y26.944 E9.97679
G1 X132.47 Y27.672 E10.00849
G1 X132.849 Y28.198 E10.03113
G1 X133.155 Y28.654 E10.05031
G1 X133.816 Y29.707 E10.09373
G1 X134.254 Y30.434 E10.12337
G1 X134.591 Y31.012 E10.14673
G1 X134.851 Y31.496 E10.16592
G1 X135.378 Y32.551 E10.2071
G1 X135.802 Y33.44 E10.2415
G1 X136.047 Y33.976 E10.26208
G1 X136.258 Y34.481 E10.2812
G1 X136.701 Y35.639 E10.3245
G1 X136.997 Y36.456 E10.35484
G1 X137.274 Y37.262 E10.38461
G1 X137.509 Y38.046 E10.41319
G1 X137.911 Y39.633 E10.47036
G1 X138.07 Y40.299 E10.49428
G1 X138.185 Y40.868 E10.51455
G1 X138.383 Y42.04 E10.55606
G1 X138.52 Y42.948 E10.58813
G1 X138.603 Y43.558 E10.60963
G1 X138.66 Y44.114 E10.62915
G1 X138.749 Y45.377 E10.67336
G1 X138.795 Y46.253 E10.704
G1 X138.818 Y46.897 E10.7265
G1 X138.82 Y47.443 E10.74557
G1 X138.785 Y48.699 E10.78945
G1 X138.746 Y49.542 E10.81892
G1 X138.706 Y50.194 E10.84174
G1 X138.653 Y50.755 E10.86142
G1 X138.502 Y51.946 E10.90334
G1 X138.373 Y52.835 E10.93471
G1 X138.266 Y53.495 E10.95806
G1 X138.162 Y54.027 E10.977
G1 X137.886 Y55.24 E11.02044
G1 X137.682 Y56.065 E11.05012
G1 X137.505 Y56.736 E11.07435
G1 X137.345 Y57.268 E11.09376
G1 X136.956 Y58.432 E11.13662
G1 X136.651 Y59.292 E11.16848
G1 X136.443 Y59.852 E11.18935
G1 X136.226 Y60.38 E11.20928
G1 X135.726 Y61.496 E11.25199
G1 X135.334 Y62.332 E11.28423
G1 X135.066 Y62.88 E11.30554
G1 X134.803 Y63.377 E11.32518
G1 X134.178 Y64.471 E11.36918
G1 X133.75 Y65.189 E11.39837
G1 X133.407 Y65.746 E11.42121
G1 X133.094 Y66.219 E11.44102
G1 X132.378 Y67.228 E11.48423
G1 X131.858 Y67.932 E11.51479
G1 X131.469 Y68.444 E11.53725
G1 X131.109 Y68.886 E11.55716
G1 X130.298 Y69.819 E11.60033
G1 X129.699 Y70.484 E11.63159
G1 X129.273 Y70.942 E11.65343
G1 X128.887 Y71.331 E11.67257
G1 X127.964 Y72.205 E11.71696
G1 X127.333 Y72.78 E11.74678
G1 X126.83 Y73.223 E11.77018
G1 X126.411 Y73.569 E11.78916
G1 X125.437 Y74.324 E11.8322
G1 X124.731 Y74.85 E11.86294
G1 X124.196 Y75.236 E11.88598
G1 X123.745 Y75.539 E11.90496
G1 X122.692 Y76.201 E11.9484
G1 X121.954 Y76.646 E11.97849
G1 X121.358 Y76.992 E12.00256
G1 X120.883 Y77.248 E12.0214
G1 X119.789 Y77.794 E12.0641
G1 X119.059 Y78.141 E12.09233
G1 X118.382 Y78.45 E12.11832
G1 X117.877 Y78.661 E12.13743
G1 X116.739 Y79.096 E12.17998
G1 X115.886 Y79.404 E12.21165
G1 X115.296 Y79.606 E12.23343
G1 X114.768 Y79.768 E12.25272
G1 X113.577 Y80.093 E12.29583
G1 X112.738 Y80.306 E12.32606
G1 X112.108 Y80.457 E12.34869
G1 X111.538 Y80.573 E12.369
G1 X110.311 Y80.781 E12.41247
G1 X109.465 Y80.907 E12.44234
G1 X108.792 Y80.998 E12.46605
G1 X108.249 Y81.053 E12.48511
G1 X107.058 Y81.137 E12.52681
G1 X106.118 Y81.185 E12.55968
G1 X105.534 Y81.207 E12.58009
G1 X104.96 Y81.21 E12.60014
G1 X103.703 Y81.175 E12.64405
G1 X102.805 Y81.132 E12.67545
G1 X102.211 Y81.096 E12.69623
G1 X101.644 Y81.043 E12.71612
G1 X100.408 Y80.887 E12.75963
G1 X99.5 Y80.754 E12.79168
G1 X98.897 Y80.657 E12.813
G1 X98.34 Y80.549 E12.83282
G1 X97.128 Y80.272 E12.87624
G1 X96.29 Y80.063 E12.9064
G1 X95.671 Y79.9 E12.92875
G1 X95.123 Y79.736 E12.94873
G1 X93.987 Y79.356 E12.99056
G1 X93.155 Y79.062 E13.02138
G1 X92.517 Y78.823 E13.04517
G1 X92.005 Y78.614 E13.06449
G1 X90.879 Y78.11 E13.10757
G1 X90.053 Y77.721 E13.13945
G1 X89.508 Y77.455 E13.16063
G1 X89.012 Y77.192 E13.18024
G1 X87.909 Y76.562 E13.2246
G1 X87.195 Y76.137 E13.25362
G1 X86.644 Y75.797 E13.27623
G1 X86.17 Y75.483 E13.29609
G1 X85.153 Y74.761 E13.33964
G1 X84.459 Y74.249 E13.36976
G1 X83.943 Y73.856 E13.39241
G1 X83.503 Y73.498 E13.41222
G1 X82.571 Y72.688 E13.45535
G1 X81.906 Y72.089 E13.4866
G1 X81.304 Y71.53 E13.51529
G1 X80.942 Y71.173 E13.53305
G1 X80.556 Y70.764 E13.55269
G1 X79.612 Y69.723 E13.60177
G1 X79.157 Y69.208 E13.62577
G1 X78.803 Y68.78 E13.64516
G1 X78.079 Y67.845 E13.68646
G1 X77.523 Y67.097 E13.71901
G1 X77.155 Y66.586 E13.741
G1 X76.854 Y66.14 E13.75979
G1 X76.207 Y65.112 E13.80221
G1 X75.731 Y64.32 E13.83448
G1 X75.413 Y63.774 E13.85655
G1 X75.153 Y63.292 E13.87567
G1 X74.604 Y62.194 E13.91855
G1 X74.221 Y61.389 E13.94968
G1 X73.95 Y60.798 E13.97238
G1 X73.735 Y60.283 E13.99187
G1 X73.287 Y59.111 E14.03569
G1 X72.998 Y58.308 E14.0655
G1 X72.78 Y57.676 E14.08884
G1 X72.617 Y57.145 E14.10824
G1 X72.299 Y55.982 E14.15035
G1 X72.074 Y55.094 E14.18234
G1 X71.929 Y54.484 E14.20424
G1 X71.814 Y53.917 E14.22444
G1 X71.611 Y52.714 E14.26705
G1 X71.482 Y51.85 E14.29756
G1 X71.394 Y51.203 E14.32036
G1 X71.336 Y50.638 E14.3402
G1 X71.249 Y49.388 E14.38395
G1 X71.207 Y48.559 E14.41294
G1 X71.182 Y47.875 E14.43685
G1 X71.18 Y47.327 E14.45598
G1 X71.214 Y46.097 E14.49896
G1 X71.255 Y45.238 E14.52899
G1 X71.296 Y44.564 E14.55257
G1 X71.35 Y43.998 E14.57243
G1 X71.501 Y42.813 E14.61415
G1 X71.634 Y41.899 E14.6464
G1 X71.733 Y41.287 E14.66805
G1 X71.842 Y40.728 E14.68794
G1 X72.117 Y39.526 E14.731
G1 X72.342 Y38.62 E14.76361
G1 X72.492 Y38.051 E14.78416
G1 X72.65 Y37.526 E14.8033
G1 X73.045 Y36.344 E14.84683
G1 X73.343 Y35.507 E14.87785
G1 X73.566 Y34.905 E14.90027
G1 X73.781 Y34.383 E14.91999
G1 X74.286 Y33.257 E14.96309
M204 S3000
M205 X10 Y10
G0 F6000 X74.797 Y33.486
M204 S1800
M205 X8 Y8
G1 F1200 X75.161 Y32.711 E14.99299
G1 X75.441 Y32.138 E15.01526
G1 X75.689 Y31.67 E15.03376
G1 X76.309 Y30.585 E15.0774
G1 X76.734 Y29.873 E15.10636
G1 X77.069 Y29.328 E15.1287
G1 X77.364 Y28.883 E15.14735
G1 X78.087 Y27.865 E15.19095
G1 X78.59 Y27.184 E15.22052
G1 X78.976 Y26.675 E15.24283
G1 X79.313 Y26.262 E15.26144
G1 X80.128 Y25.324 E15.30484
G1 X80.725 Y24.662 E15.33597
G1 X81.141 Y24.215 E15.35729
G1 X81.498 Y23.856 E15.37498
