; G-Code generated by Simplify3D(R) Version 4.0.1
; Jun 17, 2020 at 11:56:30 AM
; Settings Summary
;   processName,0.20
;   applyToModels,cuadrado
;   profileName,I3 PLA biale colorfil 0,2 60mm/s
;   profileVersion,2020-06-17 09:58:53
;   baseProfile,Anycubic i3 Mega
;   printMaterial,
;   printQuality,
;   printExtruders,
;   extruderName,Primary Extruder
;   extruderToolheadNumber,0
;   extruderDiameter,0.4
;   extruderAutoWidth,1
;   extruderWidth,0.48
;   extrusionMultiplier,0.95
;   extruderUseRetract,1
;   extruderRetractionDistance,4
;   extruderExtraRestartDistance,0
;   extruderRetractionZLift,0
;   extruderRetractionSpeed,3600
;   extruderUseCoasting,0
;   extruderCoastingDistance,0.2
;   extruderUseWipe,0
;   extruderWipeDistance,5
;   primaryExtruder,0
;   layerHeight,0.2
;   topSolidLayers,4
;   bottomSolidLayers,3
;   perimeterOutlines,2
;   printPerimetersInsideOut,1
;   startPointOption,2
;   startPointOriginX,0
;   startPointOriginY,0
;   sequentialIslands,0
;   spiralVaseMode,0
;   firstLayerHeightPercentage,100
;   firstLayerWidthPercentage,100
;   firstLayerUnderspeed,0.33
;   useRaft,0
;   raftExtruder,0
;   raftTopLayers,3
;   raftBaseLayers,2
;   raftOffset,3
;   raftSeparationDistance,0.14
;   raftTopInfill,100
;   aboveRaftSpeedMultiplier,0.3
;   useSkirt,1
;   skirtExtruder,0
;   skirtLayers,4
;   skirtOutlines,3
;   skirtOffset,2
;   usePrimePillar,0
;   primePillarExtruder,999
;   primePillarWidth,12
;   primePillarLocation,7
;   primePillarSpeedMultiplier,1
;   useOozeShield,0
;   oozeShieldExtruder,999
;   oozeShieldOffset,2
;   oozeShieldOutlines,1
;   oozeShieldSidewallShape,1
;   oozeShieldSidewallAngle,30
;   oozeShieldSpeedMultiplier,1
;   infillExtruder,0
;   internalInfillPattern,Full Honeycomb
;   externalInfillPattern,Rectilinear
;   infillPercentage,20
;   outlineOverlapPercentage,15
;   infillExtrusionWidthPercentage,125
;   minInfillLength,5
;   infillLayerInterval,1
;   internalInfillAngles,0,60,-60
;   overlapInternalInfillAngles,0
;   externalInfillAngles,45,-45,0,90
;   generateSupport,0
;   supportExtruder,0
;   supportInfillPercentage,40
;   supportExtraInflation,0
;   supportBaseLayers,1
;   denseSupportExtruder,0
;   denseSupportLayers,0
;   denseSupportInfillPercentage,70
;   supportLayerInterval,1
;   supportHorizontalPartOffset,0.3
;   supportUpperSeparationLayers,0
;   supportLowerSeparationLayers,0
;   supportType,0
;   supportGridSpacing,2
;   maxOverhangAngle,0
;   supportAngles,45
;   temperatureName,Primary Extruder,Heated Bed
;   temperatureNumber,0,0
;   temperatureSetpointCount,2,1
;   temperatureSetpointLayers,1,2,1
;   temperatureSetpointTemperatures,220,215,50
;   temperatureStabilizeAtStartup,1,1
;   temperatureHeatedBed,0,1
;   temperatureRelayBetweenLayers,0,0
;   temperatureRelayBetweenLoops,0,0
;   fanLayers,1,3
;   fanSpeeds,0,100
;   blipFanToFullPower,0
;   adjustSpeedForCooling,1
;   minSpeedLayerTime,15
;   minCoolingSpeedSlowdown,20
;   increaseFanForCooling,0
;   minFanLayerTime,45
;   maxCoolingFanSpeed,100
;   increaseFanForBridging,0
;   bridgingFanSpeed,100
;   use5D,1
;   relativeEdistances,0
;   allowEaxisZeroing,1
;   independentExtruderAxes,0
;   includeM10123,0
;   stickySupport,1
;   applyToolheadOffsets,0
;   gcodeXoffset,0
;   gcodeYoffset,0
;   gcodeZoffset,0.2
;   overrideMachineDefinition,1
;   machineTypeOverride,0
;   strokeXoverride,210
;   strokeYoverride,210
;   strokeZoverride,205
;   originOffsetXoverride,0
;   originOffsetYoverride,0
;   originOffsetZoverride,0
;   homeXdirOverride,-1
;   homeYdirOverride,1
;   homeZdirOverride,-1
;   flipXoverride,1
;   flipYoverride,-1
;   flipZoverride,1
;   toolheadOffsets,0,0|0,0|0,0|0,0|0,0|0,0
;   overrideFirmwareConfiguration,1
;   firmwareTypeOverride,RepRap (Marlin/Repetier/Sprinter)
;   GPXconfigOverride,r2
;   baudRateOverride,250000
;   overridePrinterModels,1
;   printerModelsOverride
;   startingGcode,G28 X0 Y0,G28 Z0,G1 Z15 F1000,M107 ; fan off,G5 ; enable resume from power failure,G92 E0 ; zero E axis,G1 E3 F200 ; prime
;   layerChangeGcode,
;   retractionGcode,
;   toolChangeGcode,
;   endingGcode,G1 X0 Y195 F2400 ; position for easy part removal,M106 S0 ; fan off,M104 S0 ; turn off extruder,M140 S0 ; turn off bed,M84 ; disable motors
;   exportFileFormat,gcode
;   celebration,0
;   celebrationSong,Random Song
;   postProcessing,
;   defaultSpeed,3600
;   outlineUnderspeed,0.4
;   solidInfillUnderspeed,0.8
;   supportUnderspeed,0.6
;   rapidXYspeed,6000
;   rapidZspeed,1200
;   minBridgingArea,5
;   bridgingExtraInflation,0
;   bridgingExtrusionMultiplier,1
;   bridgingSpeedMultiplier,1
;   useFixedBridgingAngle,0
;   fixedBridgingAngle,0
;   applyBridgingToPerimeters,0
;   filamentDiameters,1.75|1.75|1.75|1.75|1.75|1.75
;   filamentPricesPerKg,22|46|46|46|46|46
;   filamentDensities,1.25|1.25|1.25|1.25|1.25|1.25
;   useMinPrintHeight,0
;   minPrintHeight,0
;   useMaxPrintHeight,0
;   maxPrintHeight,20
;   useDiaphragm,0
;   diaphragmLayerInterval,20
;   robustSlicing,1
;   mergeAllIntoSolid,0
;   onlyRetractWhenCrossingOutline,1
;   retractBetweenLayers,1
;   useRetractionMinTravel,1
;   retractionMinTravel,3
;   retractWhileWiping,1
;   onlyWipeOutlines,1
;   avoidCrossingOutline,0
;   maxMovementDetourFactor,3
;   toolChangeRetractionDistance,12
;   toolChangeExtraRestartDistance,-0.5
;   toolChangeRetractionSpeed,600
;   externalThinWallType,0
;   internalThinWallType,2
;   thinWallAllowedOverlapPercentage,10
;   singleExtrusionMinLength,1
;   singleExtrusionMinPrintingWidthPercentage,50
;   singleExtrusionMaxPrintingWidthPercentage,100
;   singleExtrusionEndpointExtension,0.2
;   horizontalSizeCompensation,0
G90
M82
M106 S0
M140 S50
M190 S50
M104 S220 T0
M109 S220 T0
G28 X0 Y0
G28 Z0
G1 Z15 F1000
M107 ; fan off
G5 ; enable resume from power failure
G92 E0 ; zero E axis
G1 E3 F200 ; prime
G92 E0
G1 E-4.0000 F3600
G1 Z0.400 F1200
; process 0.20
; layer 1, Z = 0.200
T0
; tool H0.200 W0.480
; skirt
G1 X90.995 Y15.512 F6000
G1 E0.0000 F1080
G92 E0
G1 X91.177 Y15.071 E0.0181 F1188
G1 X92.686 Y13.562 E0.0990
G1 X93.127 Y13.379 E0.1171
G1 X115.262 Y13.379 E0.9564
G1 X115.703 Y13.562 E0.9745
G1 X117.212 Y15.071 E1.0554
G1 X117.395 Y15.512 E1.0735
G1 X117.395 Y37.646 E1.9128
G1 X117.212 Y38.087 E1.9309
G1 X115.703 Y39.597 E2.0118
G1 X115.262 Y39.779 E2.0299
G1 X93.127 Y39.779 E2.8691
G1 X92.686 Y39.597 E2.8872
G1 X91.177 Y38.087 E2.9682
G1 X90.995 Y37.646 E2.9863
G1 X90.995 Y15.512 E3.8255
G1 X91.475 Y15.608 F6000
G92 E0
G1 X91.584 Y15.343 E0.0109 F1188
G1 X92.958 Y13.969 E0.0845
G1 X93.223 Y13.859 E0.0954
G1 X115.166 Y13.859 E0.9274
G1 X115.431 Y13.969 E0.9383
G1 X116.805 Y15.343 E1.0120
G1 X116.915 Y15.608 E1.0228
G1 X116.915 Y37.551 E1.8548
G1 X116.805 Y37.816 E1.8657
G1 X115.431 Y39.190 E1.9394
G1 X115.166 Y39.299 E1.9502
G1 X93.223 Y39.299 E2.7823
G1 X92.958 Y39.190 E2.7931
G1 X91.584 Y37.816 E2.8668
G1 X91.475 Y37.551 E2.8777
G1 X91.475 Y15.608 E3.7097
G1 X91.955 Y15.703 F6000
G92 E0
G1 X91.991 Y15.615 E0.0036 F1188
G1 X93.230 Y14.376 E0.0701
G1 X93.318 Y14.339 E0.0737
G1 X115.071 Y14.339 E0.8985
G1 X115.159 Y14.376 E0.9021
G1 X116.398 Y15.615 E0.9685
G1 X116.435 Y15.703 E0.9721
G1 X116.435 Y37.455 E1.7969
G1 X116.398 Y37.544 E1.8005
G1 X115.159 Y38.783 E1.8670
G1 X115.071 Y38.819 E1.8706
G1 X93.318 Y38.819 E2.6954
G1 X93.230 Y38.783 E2.6990
G1 X91.991 Y37.544 E2.7654
G1 X91.955 Y37.455 E2.7691
G1 X91.955 Y15.703 E3.5938
G92 E0
G1 E-4.0000 F3600
; inner perimeter
G1 X94.915 Y17.299 F6000
G1 E0.0000 F3600
G92 E0
G1 X113.475 Y17.299 E0.7037 F832
G1 X113.475 Y35.859 E1.4075
G1 X94.915 Y35.859 E2.1112
G1 X94.915 Y17.299 E2.8149
; outer perimeter
G1 X94.435 Y16.819 F6000
G92 E0
G1 X113.955 Y16.819 E0.7401 F475
G1 X113.955 Y36.339 E1.4803
G1 X94.435 Y36.339 E2.2204
G1 X94.435 Y16.819 E2.9605
; solid layer
G1 X112.972 Y17.707 F6000
G92 E0
G1 X113.067 Y17.802 E0.0051 F950
G1 X113.067 Y18.481 E0.0308
G1 X112.293 Y17.707 E0.0723
G1 X111.614 Y17.707 E0.0980
G1 X113.067 Y19.159 E0.1759
G1 X113.067 Y19.838 E0.2016
G1 X110.935 Y17.707 E0.3159
G1 X110.257 Y17.707 E0.3416
G1 X113.067 Y20.517 E0.4923
G1 X113.067 Y21.196 E0.5181
G1 X109.578 Y17.707 E0.7051
G1 X108.899 Y17.707 E0.7309
G1 X113.067 Y21.875 E0.9543
G1 X113.067 Y22.554 E0.9801
G1 X108.220 Y17.707 E1.2400
G1 X107.541 Y17.707 E1.2657
G1 X113.067 Y23.232 E1.5620
G1 X113.067 Y23.911 E1.5877
G1 X106.862 Y17.707 E1.9204
G1 X106.184 Y17.707 E1.9461
G1 X113.067 Y24.590 E2.3152
G1 X113.067 Y25.269 E2.3409
G1 X105.505 Y17.707 E2.7464
G1 X104.826 Y17.707 E2.7721
G1 X113.067 Y25.948 E3.2140
G1 X113.067 Y26.627 E3.2397
G1 X104.147 Y17.707 E3.7180
G1 X103.468 Y17.707 E3.7438
G1 X113.067 Y27.305 E4.2584
G1 X113.067 Y27.984 E4.2842
G1 X102.790 Y17.707 E4.8352
G1 X102.111 Y17.707 E4.8610
G1 X113.067 Y28.663 E5.4485
G1 X113.067 Y29.342 E5.4742
G1 X101.432 Y17.707 E6.0981
G1 X100.753 Y17.707 E6.1238
G1 X113.067 Y30.021 E6.7841
G1 X113.067 Y30.699 E6.8098
G1 X100.074 Y17.707 E7.5065
G1 X99.395 Y17.707 E7.5322
G1 X113.067 Y31.378 E8.2653
G1 X113.067 Y32.057 E8.2910
G1 X98.717 Y17.707 E9.0605
G1 X98.038 Y17.707 E9.0862
G1 X113.067 Y32.736 E9.8921
G1 X113.067 Y33.415 E9.9179
G1 X97.359 Y17.707 E10.7601
G1 X96.680 Y17.707 E10.7859
G1 X113.067 Y34.094 E11.6645
G1 X113.067 Y34.772 E11.6903
G1 X96.001 Y17.707 E12.6053
G1 X95.323 Y17.707 E12.6311
G1 X113.067 Y35.451 E13.5826
G1 X112.388 Y35.451 E13.6083
G1 X95.323 Y18.386 E14.5234
G1 X95.323 Y19.065 E14.5491
G1 X111.709 Y35.451 E15.4278
G1 X111.030 Y35.451 E15.4535
G1 X95.323 Y19.744 E16.2958
G1 X95.323 Y20.423 E16.3215
G1 X110.351 Y35.451 E17.1274
G1 X109.672 Y35.451 E17.1531
G1 X95.323 Y21.101 E17.9226
G1 X95.323 Y21.780 E17.9483
G1 X108.994 Y35.451 E18.6814
G1 X108.315 Y35.451 E18.7072
G1 X95.323 Y22.459 E19.4038
G1 X95.323 Y23.138 E19.4296
G1 X107.636 Y35.451 E20.0898
G1 X106.957 Y35.451 E20.1156
G1 X95.323 Y23.817 E20.7394
G1 X95.323 Y24.495 E20.7652
G1 X106.278 Y35.451 E21.3527
G1 X105.599 Y35.451 E21.3784
G1 X95.323 Y25.174 E21.9295
G1 X95.323 Y25.853 E21.9552
G1 X104.921 Y35.451 E22.4699
G1 X104.242 Y35.451 E22.4956
G1 X95.323 Y26.532 E22.9739
G1 X95.323 Y27.211 E22.9996
G1 X103.563 Y35.451 E23.4415
G1 X102.884 Y35.451 E23.4672
G1 X95.323 Y27.890 E23.8727
G1 X95.323 Y28.568 E23.8985
G1 X102.205 Y35.451 E24.2675
G1 X101.527 Y35.451 E24.2933
G1 X95.323 Y29.247 E24.6259
G1 X95.323 Y29.926 E24.6517
G1 X100.848 Y35.451 E24.9480
G1 X100.169 Y35.451 E24.9737
G1 X95.323 Y30.605 E25.2336
G1 X95.323 Y31.284 E25.2593
G1 X99.490 Y35.451 E25.4828
G1 X98.811 Y35.451 E25.5085
G1 X95.323 Y31.963 E25.6956
G1 X95.323 Y32.641 E25.7213
G1 X98.132 Y35.451 E25.8720
G1 X97.454 Y35.451 E25.8977
G1 X95.323 Y33.320 E26.0120
G1 X95.323 Y33.999 E26.0378
G1 X96.775 Y35.451 E26.1156
G1 X96.096 Y35.451 E26.1414
G1 X95.323 Y34.678 E26.1828
G1 X95.323 Y35.357 E26.2086
G1 X95.417 Y35.451 E26.2137
G92 E0
G1 E-4.0000 F3600
; layer 2, Z = 0.400
M104 S215 T0
; skirt
G1 X93.127 Y39.779 F6000
G1 Z0.600 F1200
G1 E0.0000 F3600
G92 E0
G1 X92.686 Y39.597 E0.0181 F3600
G1 X91.177 Y38.087 E0.0990
G1 X90.995 Y37.646 E0.1171
G1 X90.995 Y15.512 E0.9564
G1 X91.177 Y15.071 E0.9745
G1 X92.686 Y13.562 E1.0554
G1 X93.127 Y13.379 E1.0735
G1 X115.262 Y13.379 E1.9128
G1 X115.703 Y13.562 E1.9309
G1 X117.212 Y15.071 E2.0118
G1 X117.395 Y15.512 E2.0299
G1 X117.395 Y37.646 E2.8691
G1 X117.212 Y38.087 E2.8872
G1 X115.703 Y39.597 E2.9682
G1 X115.262 Y39.779 E2.9863
G1 X93.127 Y39.779 E3.8255
G1 X93.223 Y39.299 F6000
G92 E0
G1 X92.958 Y39.190 E0.0109 F3600
G1 X91.584 Y37.816 E0.0845
G1 X91.475 Y37.551 E0.0954
G1 X91.475 Y15.608 E0.9274
G1 X91.584 Y15.343 E0.9383
G1 X92.958 Y13.969 E1.0120
G1 X93.223 Y13.859 E1.0228
G1 X115.166 Y13.859 E1.8548
G1 X115.431 Y13.969 E1.8657
G1 X116.805 Y15.343 E1.9394
G1 X116.915 Y15.608 E1.9502
G1 X116.915 Y37.551 E2.7823
G1 X116.805 Y37.816 E2.7931
G1 X115.431 Y39.190 E2.8668
G1 X115.166 Y39.299 E2.8777
G1 X93.223 Y39.299 E3.7097
G1 X93.318 Y38.819 F6000
G92 E0
G1 X93.230 Y38.783 E0.0036 F3600
G1 X91.991 Y37.544 E0.0701
G1 X91.955 Y37.455 E0.0737
G1 X91.955 Y15.703 E0.8985
G1 X91.991 Y15.615 E0.9021
G1 X93.230 Y14.376 E0.9685
G1 X93.318 Y14.339 E0.9721
G1 X115.071 Y14.339 E1.7969
G1 X115.159 Y14.376 E1.8005
G1 X116.398 Y15.615 E1.8670
G1 X116.435 Y15.703 E1.8706
G1 X116.435 Y37.455 E2.6954
G1 X116.398 Y37.544 E2.6990
G1 X115.159 Y38.783 E2.7654
G1 X115.071 Y38.819 E2.7691
G1 X93.318 Y38.819 E3.5938
G92 E0
G1 E-4.0000 F3600
; inner perimeter
G1 X94.915 Y35.859 F6000
G1 E0.0000 F3600
G92 E0
G1 X94.915 Y17.299 E0.7037 F2520
G1 X113.475 Y17.299 E1.4075
G1 X113.475 Y35.859 E2.1112
G1 X94.915 Y35.859 E2.8149
; outer perimeter
G1 X94.435 Y36.339 F6000
G92 E0
G1 X94.435 Y16.819 E0.7401 F1440
G1 X113.955 Y16.819 E1.4803
G1 X113.955 Y36.339 E2.2204
G1 X94.435 Y36.339 E2.9605
; solid layer
G1 X95.323 Y17.802 F6000
G92 E0
G1 X95.417 Y17.707 E0.0051 F2880
G1 X96.096 Y17.707 E0.0308
G1 X95.323 Y18.481 E0.0723
G1 X95.323 Y19.160 E0.0980
G1 X96.775 Y17.707 E0.1759
G1 X97.454 Y17.707 E0.2016
G1 X95.323 Y19.838 E0.3159
G1 X95.323 Y20.517 E0.3417
G1 X98.132 Y17.707 E0.4923
G1 X98.811 Y17.707 E0.5181
G1 X95.323 Y21.196 E0.7052
G1 X95.323 Y21.875 E0.7309
G1 X99.490 Y17.707 E0.9544
G1 X100.169 Y17.707 E0.9801
G1 X95.323 Y22.554 E1.2400
G1 X95.323 Y23.232 E1.2657
G1 X100.848 Y17.707 E1.5620
G1 X101.527 Y17.707 E1.5877
G1 X95.323 Y23.911 E1.9204
G1 X95.323 Y24.590 E1.9462
G1 X102.205 Y17.707 E2.3152
G1 X102.884 Y17.707 E2.3410
G1 X95.323 Y25.269 E2.7464
G1 X95.323 Y25.948 E2.7722
G1 X103.563 Y17.707 E3.2141
G1 X104.242 Y17.707 E3.2398
G1 X95.323 Y26.627 E3.7181
G1 X95.323 Y27.305 E3.7438
G1 X104.921 Y17.707 E4.2585
G1 X105.600 Y17.707 E4.2842
G1 X95.323 Y27.984 E4.8353
G1 X95.323 Y28.663 E4.8610
G1 X106.278 Y17.707 E5.4485
G1 X106.957 Y17.707 E5.4743
G1 X95.323 Y29.342 E6.0981
G1 X95.323 Y30.021 E6.1239
G1 X107.636 Y17.707 E6.7841
G1 X108.315 Y17.707 E6.8099
G1 X95.323 Y30.700 E7.5066
G1 X95.323 Y31.378 E7.5323
G1 X108.994 Y17.707 E8.2654
G1 X109.672 Y17.707 E8.2911
G1 X95.323 Y32.057 E9.0606
G1 X95.323 Y32.736 E9.0863
G1 X110.351 Y17.707 E9.8922
G1 X111.030 Y17.707 E9.9179
G1 X95.323 Y33.415 E10.7602
G1 X95.323 Y34.094 E10.7859
G1 X111.709 Y17.707 E11.6646
G1 X112.388 Y17.707 E11.6904
G1 X95.323 Y34.772 E12.6054
G1 X95.323 Y35.451 E12.6312
G1 X113.067 Y17.707 E13.5826
G1 X113.067 Y18.386 E13.6084
G1 X96.001 Y35.451 E14.5234
G1 X96.680 Y35.451 E14.5492
G1 X113.067 Y19.065 E15.4279
G1 X113.067 Y19.744 E15.4536
G1 X97.359 Y35.451 E16.2959
G1 X98.038 Y35.451 E16.3216
G1 X113.067 Y20.423 E17.1275
G1 X113.067 Y21.101 E17.1532
G1 X98.717 Y35.451 E17.9227
G1 X99.395 Y35.451 E17.9484
G1 X113.067 Y21.780 E18.6815
G1 X113.067 Y22.459 E18.7072
G1 X100.074 Y35.451 E19.4039
G1 X100.753 Y35.451 E19.4296
G1 X113.067 Y23.138 E20.0899
G1 X113.067 Y23.817 E20.1156
G1 X101.432 Y35.451 E20.7395
G1 X102.111 Y35.451 E20.7652
G1 X113.067 Y24.496 E21.3527
G1 X113.067 Y25.174 E21.3784
G1 X102.790 Y35.451 E21.9295
G1 X103.468 Y35.451 E21.9553
G1 X113.067 Y25.853 E22.4699
G1 X113.067 Y26.532 E22.4957
G1 X104.147 Y35.451 E22.9739
G1 X104.826 Y35.451 E22.9997
G1 X113.067 Y27.211 E23.4415
G1 X113.067 Y27.890 E23.4673
G1 X105.505 Y35.451 E23.8728
G1 X106.184 Y35.451 E23.8985
G1 X113.067 Y28.568 E24.2676
G1 X113.067 Y29.247 E24.2933
G1 X106.863 Y35.451 E24.6260
G1 X107.541 Y35.451 E24.6517
G1 X113.067 Y29.926 E24.9480
G1 X113.067 Y30.605 E24.9737
G1 X108.220 Y35.451 E25.2336
G1 X108.899 Y35.451 E25.2593
G1 X113.067 Y31.284 E25.4828
G1 X113.067 Y31.963 E25.5085
G1 X109.578 Y35.451 E25.6956
