;FLAVOR:Marlin
;TIME:12100
;Filament used: 11.7009m
;Layer height: 0.3
;MINX:10.853
;MINY:8.728
;MINZ:0.15
;MAXX:199.147
;MAXY:197.022
;MAXZ:2.925
;Generated with Cura_SteamEngine 4.5.0
M140 S60
M105
M190 S60
M104 S205
M105
M109 S205
M82 ;absolute extrusion mode
G21 ;metric values
G90 ;absolute positioning
M82 ;set extruder to absolute mode
M107 ;start with the fan off
G28 X0 Y0 ;move X/Y to min endstops
G28 Z0 ;move Z to min endstops
G1 Z15.0 F80 ;move the platform down 15mm
G92 E0 ;zero the extruded length
G1 F200 E3 ;extrude 3mm of feed stock
G92 E0 ;zero the extruded length again
G1 F80
G0 Y20 F80
M117 Printing...
G5
G92 E0
G92 E0
G1 F2400 E-6
;LAYER_COUNT:10
;LAYER:0
M106 S255
M204 S3000
M205 X10 Y10
G1 F600 Z0.225
G0 F1440 X13.203 Y11.887 Z0.225
M204 S1800
M205 X8 Y8
;TYPE:SKIRT
G1 F600 Z0.15
G1 F2400 E0
G1 X13.654 Y11.411 E0.02519
G1 X14.245 Y10.878 E0.05576
G1 X14.768 Y10.476 E0.0811
G1 X15.443 Y10.037 E0.11204
G1 X16.023 Y9.722 E0.13739
G1 X16.752 Y9.397 E0.16805
G1 X17.375 Y9.176 E0.19345
G1 X18.155 Y8.967 E0.22447
G1 X18.8 Y8.847 E0.24967
G1 X19.594 Y8.763 E0.28034
G1 X46.271 Y8.729 E1.30515
G1 X189.823 Y8.728 E6.81977
G1 X190.822 Y8.794 E6.85823
G1 X191.367 Y8.874 E6.87939
G1 X192.158 Y9.043 E6.91046
G1 X192.78 Y9.227 E6.93538
G1 X193.528 Y9.513 E6.96614
G1 X194.124 Y9.796 E6.99149
G1 X194.81 Y10.191 E7.0219
G1 X195.357 Y10.567 E7.0474
G1 X195.988 Y11.078 E7.07859
G1 X196.464 Y11.529 E7.10378
G1 X196.997 Y12.12 E7.13435
G1 X197.399 Y12.643 E7.15969
G1 X197.838 Y13.318 E7.19062
G1 X198.153 Y13.898 E7.21598
G1 X198.477 Y14.625 E7.24656
G1 X198.697 Y15.246 E7.27186
G1 X198.907 Y16.028 E7.30297
G1 X199.028 Y16.674 E7.32822
G1 X199.112 Y17.466 E7.35881
G1 X199.147 Y161.601 E12.89583
G1 X199.146 Y187.698 E13.89835
G1 X199.081 Y188.691 E13.93658
G1 X199.002 Y189.24 E13.95789
G1 X198.834 Y190.028 E13.98884
G1 X198.649 Y190.651 E14.01381
G1 X198.362 Y191.402 E14.04469
G1 X198.079 Y191.999 E14.07007
G1 X197.684 Y192.685 E14.10048
G1 X197.308 Y193.232 E14.12598
G1 X196.797 Y193.863 E14.15717
G1 X196.346 Y194.339 E14.18236
G1 X195.755 Y194.872 E14.21293
G1 X195.232 Y195.274 E14.23828
G1 X194.557 Y195.713 E14.26921
G1 X193.977 Y196.028 E14.29456
G1 X193.248 Y196.353 E14.32522
G1 X192.625 Y196.574 E14.35062
G1 X191.845 Y196.783 E14.38164
G1 X191.2 Y196.903 E14.40684
G1 X190.406 Y196.987 E14.43751
G1 X163.729 Y197.021 E15.46232
G1 X20.177 Y197.022 E20.97694
G1 X19.178 Y196.956 E21.0154
G1 X18.633 Y196.876 E21.03656
G1 X17.842 Y196.707 E21.06763
G1 X17.22 Y196.523 E21.09255
G1 X16.472 Y196.237 E21.12332
G1 X15.876 Y195.954 E21.14866
G1 X15.19 Y195.559 E21.17907
G1 X14.643 Y195.183 E21.20457
G1 X14.012 Y194.672 E21.23576
G1 X13.536 Y194.221 E21.26095
G1 X13.003 Y193.63 E21.29152
G1 X12.601 Y193.107 E21.31686
G1 X12.162 Y192.432 E21.3478
G1 X11.846 Y191.85 E21.37324
G1 X11.521 Y191.12 E21.40393
G1 X11.301 Y190.5 E21.42921
G1 X11.092 Y189.721 E21.46019
G1 X10.972 Y189.076 E21.48539
G1 X10.888 Y188.284 E21.51599
G1 X10.853 Y44.149 E27.053
G1 X10.854 Y18.052 E28.05553
G1 X10.919 Y17.059 E28.09376
G1 X10.998 Y16.51 E28.11507
G1 X11.166 Y15.722 E28.14602
G1 X11.351 Y15.099 E28.17098
G1 X11.638 Y14.348 E28.20187
G1 X11.921 Y13.751 E28.22725
G1 X12.316 Y13.065 E28.25766
G1 X12.692 Y12.518 E28.28316
G1 X13.203 Y11.887 E28.31435
M204 S3000
M205 X10 Y10
G0 F1440 X13.638 Y12.239
M204 S1800
M205 X8 Y8
G1 F2400 X14.029 Y11.827 E28.33617
G1 X14.62 Y11.294 E28.36674
G1 X15.073 Y10.946 E28.38869
G1 X15.748 Y10.507 E28.41962
G1 X16.251 Y10.233 E28.44162
G1 X16.98 Y9.908 E28.47228
G1 X17.52 Y9.717 E28.49429
G1 X18.3 Y9.508 E28.52531
G1 X18.859 Y9.404 E28.54715
G1 X19.653 Y9.32 E28.57782
G1 X46.271 Y9.289 E29.60037
G1 X189.823 Y9.288 E35.11498
G1 X190.778 Y9.352 E35.15175
G1 X192.041 Y9.59 E35.20112
G1 X192.58 Y9.75 E35.22272
G1 X193.328 Y10.036 E35.25349
G1 X193.844 Y10.282 E35.27545
G1 X194.53 Y10.677 E35.30586
G1 X195.005 Y11.002 E35.32796
G1 X195.636 Y11.513 E35.35916
G1 X196.048 Y11.904 E35.38098
G1 X196.581 Y12.495 E35.41155
G1 X196.929 Y12.948 E35.43349
G1 X197.368 Y13.623 E35.46443
G1 X197.642 Y14.126 E35.48643
G1 X197.966 Y14.853 E35.51701
G1 X198.156 Y15.391 E35.53892
G1 X198.366 Y16.173 E35.57003
G1 X198.471 Y16.733 E35.59192
G1 X198.555 Y17.525 E35.62251
G1 X198.587 Y161.601 E41.15726
G1 X198.586 Y187.698 E42.15979
G1 X198.523 Y188.647 E42.19632
G1 X198.286 Y189.911 E42.24573
G1 X198.126 Y190.451 E42.26736
G1 X197.839 Y191.202 E42.29825
G1 X197.593 Y191.719 E42.32024
G1 X197.198 Y192.405 E42.35065
G1 X196.873 Y192.88 E42.37276
G1 X196.362 Y193.511 E42.40395
G1 X195.971 Y193.923 E42.42577
G1 X195.38 Y194.456 E42.45635
G1 X194.927 Y194.804 E42.47829
G1 X194.252 Y195.243 E42.50922
G1 X193.749 Y195.517 E42.53123
G1 X193.02 Y195.842 E42.56189
G1 X192.48 Y196.033 E42.58389
G1 X191.7 Y196.242 E42.61491
G1 X191.141 Y196.346 E42.63676
G1 X190.347 Y196.43 E42.66743
G1 X163.729 Y196.461 E43.68997
G1 X20.177 Y196.462 E49.20459
G1 X19.222 Y196.398 E49.24136
G1 X17.959 Y196.16 E49.29073
G1 X17.42 Y196 E49.31233
G1 X16.672 Y195.714 E49.34309
G1 X16.156 Y195.468 E49.36505
G1 X15.47 Y195.073 E49.39546
G1 X14.995 Y194.748 E49.41757
G1 X14.364 Y194.237 E49.44876
G1 X13.952 Y193.846 E49.47058
G1 X13.419 Y193.255 E49.50115
G1 X13.071 Y192.802 E49.5231
G1 X12.632 Y192.127 E49.55403
G1 X12.358 Y191.622 E49.5761
G1 X12.033 Y190.892 E49.6068
G1 X11.842 Y190.355 E49.62869
G1 X11.633 Y189.576 E49.65968
G1 X11.529 Y189.017 E49.68152
G1 X11.445 Y188.225 E49.71212
G1 X11.413 Y44.149 E55.24686
G1 X11.414 Y18.052 E56.24939
G1 X11.477 Y17.103 E56.28593
G1 X11.714 Y15.839 E56.33533
G1 X11.874 Y15.299 E56.35697
G1 X12.161 Y14.548 E56.38785
G1 X12.407 Y14.031 E56.40984
G1 X12.802 Y13.345 E56.44025
G1 X13.127 Y12.87 E56.46236
G1 X13.638 Y12.239 E56.49356
M204 S3000
M205 X10 Y10
G0 F1440 X14.073 Y12.592
M204 S1800
M205 X8 Y8
G1 F2400 X14.995 Y11.71 E56.54257
G1 X16.054 Y10.976 E56.59207
G1 X17.208 Y10.42 E56.64128
G1 X18.445 Y10.049 E56.69089
G1 X19.712 Y9.877 E56.74001
G1 X46.272 Y9.849 E57.76032
G1 X189.823 Y9.848 E63.2749
G1 X190.733 Y9.911 E63.30994
G1 X191.924 Y10.138 E63.35652
G1 X193.128 Y10.559 E63.40552
G1 X194.251 Y11.162 E63.45448
G1 X195.283 Y11.948 E63.50432
G1 X196.165 Y12.87 E63.55333
G1 X196.899 Y13.929 E63.60283
G1 X197.454 Y15.081 E63.65195
G1 X197.826 Y16.318 E63.70158
G1 X197.998 Y17.584 E63.75066
G1 X198.027 Y161.601 E69.28314
G1 X198.026 Y187.698 E70.28566
G1 X197.965 Y188.604 E70.32055
G1 X197.738 Y189.794 E70.36709
G1 X197.316 Y191.002 E70.41624
G1 X196.713 Y192.126 E70.46524
G1 X195.927 Y193.158 E70.51508
G1 X195.005 Y194.04 E70.56409
G1 X193.946 Y194.774 E70.61359
G1 X192.792 Y195.33 E70.6628
G1 X191.555 Y195.701 E70.71241
G1 X190.288 Y195.873 E70.76153
G1 X163.728 Y195.901 E71.78184
G1 X20.177 Y195.902 E77.29642
G1 X19.267 Y195.839 E77.33146
G1 X18.076 Y195.612 E77.37804
G1 X16.872 Y195.191 E77.42704
G1 X15.749 Y194.588 E77.476
G1 X14.717 Y193.802 E77.52584
G1 X13.835 Y192.88 E77.57485
G1 X13.101 Y191.821 E77.62435
G1 X12.544 Y190.665 E77.67365
G1 X12.174 Y189.431 E77.72314
G1 X12.002 Y188.166 E77.77218
G1 X11.973 Y44.149 E83.30466
G1 X11.974 Y18.052 E84.30718
G1 X12.035 Y17.146 E84.34207
G1 X12.262 Y15.956 E84.38861
G1 X12.684 Y14.748 E84.43776
G1 X13.287 Y13.624 E84.48676
G1 X14.073 Y12.592 E84.5366
M204 S3000
M205 X10 Y10
G0 F1440 X14.509 Y12.944
M204 S1800
M205 X8 Y8
G1 F2400 X15.37 Y12.126 E84.58222
G1 X16.359 Y11.445 E84.62835
G1 X17.436 Y10.931 E84.67419
G1 X18.59 Y10.59 E84.72042
G1 X19.771 Y10.434 E84.76618
G1 X46.272 Y10.409 E85.78423
G1 X189.823 Y10.408 E91.29881
G1 X190.689 Y10.469 E91.33216
G1 X191.807 Y10.686 E91.37591
G1 X192.928 Y11.082 E91.42158
G1 X193.971 Y11.647 E91.46715
G1 X194.931 Y12.384 E91.51364
G1 X195.749 Y13.245 E91.55926
G1 X196.43 Y14.234 E91.60539
G1 X196.943 Y15.309 E91.65115
G1 X197.285 Y16.463 E91.69739
G1 X197.441 Y17.643 E91.74311
G1 X197.467 Y161.601 E97.27332
G1 X197.466 Y187.698 E98.27585
G1 X197.406 Y188.56 E98.30905
G1 X197.191 Y189.677 E98.35274
G1 X196.793 Y190.803 E98.39862
G1 X196.228 Y191.846 E98.44419
G1 X195.491 Y192.806 E98.49068
G1 X194.63 Y193.624 E98.53631
G1 X193.641 Y194.305 E98.58244
G1 X192.564 Y194.819 E98.62828
G1 X191.41 Y195.16 E98.67451
G1 X190.229 Y195.316 E98.72027
G1 X163.728 Y195.341 E99.73832
G1 X20.177 Y195.342 E105.25289
G1 X19.311 Y195.281 E105.28625
G1 X18.193 Y195.064 E105.33
G1 X17.072 Y194.668 E105.37567
G1 X16.029 Y194.103 E105.42124
G1 X15.069 Y193.366 E105.46773
G1 X14.251 Y192.505 E105.51335
G1 X13.57 Y191.516 E105.55948
G1 X13.056 Y190.437 E105.60539
G1 X12.715 Y189.286 E105.65151
G1 X12.559 Y188.107 E105.6972
G1 X12.533 Y44.149 E111.22741
G1 X12.534 Y18.052 E112.22994
G1 X12.594 Y17.19 E112.26313
G1 X12.809 Y16.073 E112.30683
G1 X13.207 Y14.947 E112.35271
G1 X13.772 Y13.904 E112.39828
G1 X14.509 Y12.944 E112.44477
M204 S3000
M205 X10 Y10
G0 F1440 X14.944 Y13.296
M204 S1800
M205 X8 Y8
G1 F2400 X15.745 Y12.541 E112.48705
G1 X16.664 Y11.915 E112.52977
G1 X17.664 Y11.443 E112.57225
G1 X18.735 Y11.131 E112.6151
G1 X19.83 Y10.991 E112.65751
G1 X46.272 Y10.969 E113.67329
G1 X189.822 Y10.968 E119.18783
G1 X190.644 Y11.027 E119.21949
G1 X191.69 Y11.233 E119.26044
G1 X192.728 Y11.605 E119.3028
G1 X193.692 Y12.132 E119.34501
G1 X194.579 Y12.819 E119.38811
G1 X195.334 Y13.62 E119.43039
G1 X195.96 Y14.539 E119.47311
G1 X196.431 Y15.537 E119.5155
G1 X196.744 Y16.609 E119.5584
G1 X196.884 Y17.702 E119.60073
G1 X196.907 Y161.601 E125.12868
G1 X196.906 Y187.698 E126.13121
G1 X196.848 Y188.517 E126.16275
G1 X196.643 Y189.561 E126.20362
G1 X196.27 Y190.603 E126.24614
G1 X195.743 Y191.567 E126.28834
G1 X195.056 Y192.454 E126.33144
G1 X194.255 Y193.209 E126.37373
G1 X193.336 Y193.835 E126.41644
G1 X192.336 Y194.307 E126.45892
G1 X191.265 Y194.619 E126.50178
G1 X190.17 Y194.759 E126.54418
G1 X163.728 Y194.781 E127.55997
G1 X20.178 Y194.782 E133.0745
G1 X19.356 Y194.723 E133.10616
G1 X18.31 Y194.517 E133.14712
G1 X17.272 Y194.145 E133.18948
G1 X16.308 Y193.618 E133.23168
G1 X15.421 Y192.931 E133.27478
G1 X14.666 Y192.13 E133.31707
G1 X14.04 Y191.211 E133.35978
G1 X13.567 Y190.209 E133.40235
G1 X13.256 Y189.141 E133.44508
G1 X13.116 Y188.048 E133.48741
G1 X13.093 Y44.149 E139.01536
G1 X13.094 Y18.052 E140.01788
G1 X13.152 Y17.233 E140.04943
G1 X13.357 Y16.189 E140.0903
G1 X13.73 Y15.147 E140.13281
G1 X14.257 Y14.183 E140.17502
G1 X14.944 Y13.296 E140.21812
M204 S3000
M205 X10 Y10
G0 F1440 X15.379 Y13.649
M204 S1800
M205 X8 Y8
G1 F2400 X16.12 Y12.957 E140.25707
G1 X16.97 Y12.384 E140.29645
G1 X17.892 Y11.954 E140.33553
G1 X18.88 Y11.672 E140.375
G1 X19.889 Y11.548 E140.41405
G1 X46.272 Y11.529 E141.42757
G1 X189.822 Y11.528 E146.94211
G1 X190.6 Y11.585 E146.97207
G1 X191.573 Y11.781 E147.0102
G1 X192.528 Y12.128 E147.04923
G1 X193.413 Y12.618 E147.0881
G1 X194.226 Y13.254 E147.12775
G1 X194.918 Y13.995 E147.1667
G1 X195.491 Y14.845 E147.20608
G1 X195.92 Y15.765 E147.24507
G1 X196.203 Y16.754 E147.28459
G1 X196.327 Y17.761 E147.32357
G1 X196.347 Y161.601 E152.84925
G1 X196.346 Y187.698 E153.85177
G1 X196.29 Y188.473 E153.88162
G1 X196.095 Y189.444 E153.91967
G1 X195.747 Y190.403 E153.95886
G1 X195.257 Y191.288 E153.99772
G1 X194.621 Y192.101 E154.03738
G1 X193.88 Y192.793 E154.07632
G1 X193.03 Y193.366 E154.1157
G1 X192.108 Y193.796 E154.15478
G1 X191.12 Y194.078 E154.19426
G1 X190.111 Y194.202 E154.23331
G1 X163.728 Y194.221 E155.24682
G1 X20.178 Y194.222 E160.76136
G1 X19.4 Y194.165 E160.79133
G1 X18.427 Y193.969 E160.82946
G1 X17.472 Y193.622 E160.86849
G1 X16.587 Y193.132 E160.90735
G1 X15.774 Y192.496 E160.94701
G1 X15.082 Y191.755 E160.98595
G1 X14.509 Y190.905 E161.02533
G1 X14.079 Y189.981 E161.06449
G1 X13.797 Y188.996 E161.10384
G1 X13.673 Y187.989 E161.14282
G1 X13.653 Y44.149 E166.6685
G1 X13.654 Y18.052 E167.67103
G1 X13.71 Y17.277 E167.70088
G1 X13.905 Y16.306 E167.73892
G1 X14.253 Y15.347 E167.77812
G1 X14.743 Y14.462 E167.81698
G1 X15.379 Y13.649 E167.85663
M204 S3000
M205 X10 Y10
G0 F1440 X15.814 Y14.001
M204 S1800
M205 X8 Y8
G1 F2400 X16.495 Y13.373 E167.89222
G1 X17.275 Y12.854 E167.92821
G1 X18.12 Y12.466 E167.96393
G1 X19.025 Y12.213 E168.00003
G1 X19.948 Y12.105 E168.03572
G1 X46.273 Y12.089 E169.04701
G1 X189.823 Y12.088 E174.56155
G1 X190.556 Y12.144 E174.58979
G1 X191.456 Y12.329 E174.62509
G1 X192.328 Y12.651 E174.6608
G1 X193.133 Y13.103 E174.69626
G1 X193.874 Y13.689 E174.73255
G1 X194.502 Y14.37 E174.76814
G1 X195.021 Y15.15 E174.80413
G1 X195.408 Y15.993 E174.83977
G1 X195.662 Y16.899 E174.87591
G1 X195.77 Y17.82 E174.91153
G1 X195.787 Y161.601 E180.43495
G1 X195.786 Y187.698 E181.43748
G1 X195.731 Y188.429 E181.46564
G1 X195.548 Y189.327 E181.50084
G1 X195.224 Y190.203 E181.53672
G1 X194.772 Y191.008 E181.57219
G1 X194.186 Y191.749 E181.60848
G1 X193.505 Y192.377 E181.64407
G1 X192.725 Y192.896 E181.68006
G1 X191.88 Y193.284 E181.71578
G1 X190.975 Y193.537 E181.75188
G1 X190.052 Y193.645 E181.78758
G1 X163.727 Y193.661 E182.79886
G1 X20.177 Y193.662 E188.3134
G1 X19.444 Y193.606 E188.34164
G1 X18.544 Y193.421 E188.37694
G1 X17.672 Y193.099 E188.41265
G1 X16.867 Y192.647 E188.44811
G1 X16.126 Y192.061 E188.48441
G1 X15.498 Y191.38 E188.51999
G1 X14.979 Y190.6 E188.55598
G1 X14.591 Y189.754 E188.59174
G1 X14.338 Y188.851 E188.62776
G1 X14.23 Y187.93 E188.66339
G1 X14.213 Y44.149 E194.1868
G1 X14.214 Y18.052 E195.18933
G1 X14.269 Y17.321 E195.21749
G1 X14.452 Y16.423 E195.25269
G1 X14.776 Y15.547 E195.28857
G1 X15.228 Y14.742 E195.32404
G1 X15.814 Y14.001 E195.36033
M204 S3000
M205 X10 Y10
G0 F1440 X16.249 Y14.354
M204 S1800
M205 X8 Y8
G1 F2400 X16.87 Y13.789 E195.39258
G1 X17.58 Y13.323 E195.42521
G1 X18.348 Y12.977 E195.45757
G1 X19.17 Y12.754 E195.49029
G1 X20.007 Y12.662 E195.52263
G1 X46.273 Y12.649 E196.53165
G1 X189.823 Y12.648 E202.04619
G1 X190.511 Y12.702 E202.0727
G1 X191.339 Y12.876 E202.10521
G1 X192.128 Y13.174 E202.13761
G1 X192.854 Y13.588 E202.16971
G1 X193.521 Y14.124 E202.20258
G1 X194.086 Y14.745 E202.23483
G1 X194.552 Y15.455 E202.26746
G1 X194.897 Y16.221 E202.29973
G1 X195.121 Y17.044 E202.3325
G1 X195.213 Y17.879 E202.36477
G1 X195.227 Y161.601 E207.88592
G1 X195.226 Y187.698 E208.88844
G1 X195.173 Y188.386 E208.91495
G1 X195 Y189.21 E208.9473
G1 X194.701 Y190.003 E208.97985
G1 X194.287 Y190.729 E209.01196
G1 X193.751 Y191.396 E209.04483
G1 X193.13 Y191.961 E209.07708
G1 X192.42 Y192.427 E209.10971
G1 X191.652 Y192.773 E209.14207
G1 X190.83 Y192.996 E209.17479
G1 X189.993 Y193.088 E209.20713
G1 X163.727 Y193.101 E210.21615
G1 X20.177 Y193.102 E215.73069
G1 X19.489 Y193.048 E215.7572
G1 X18.661 Y192.874 E215.78971
G1 X17.872 Y192.576 E215.82211
G1 X17.146 Y192.162 E215.85421
G1 X16.479 Y191.626 E215.88708
G1 X15.914 Y191.005 E215.91933
G1 X15.448 Y190.295 E215.95196
G1 X15.102 Y189.526 E215.98435
G1 X14.879 Y188.706 E216.017
G1 X14.787 Y187.871 E216.04927
G1 X14.773 Y44.149 E221.57042
G1 X14.774 Y18.052 E222.57294
G1 X14.827 Y17.364 E222.59945
G1 X15 Y16.54 E222.6318
G1 X15.299 Y15.747 E222.66435
G1 X15.713 Y15.021 E222.69646
G1 X16.249 Y14.354 E222.72933
M204 S3000
M205 X10 Y10
G1 F2400 E216.72933
;MESH:cluster-3.0-plataforma-abajo.stl
G0 F1440 X17.097 Y15.116
G0 X18.343 Y18.335
G0 X19.559 Y21.352
G0 X20.124 Y21.014
M204 S1800
M205 X8 Y8
;TYPE:WALL-OUTER
G1 F2400 E222.72933
G1 F900 X20.655 Y21.449 E222.7557
G1 X21.152 Y21.627 E222.77598
G1 X21.68 Y21.651 E222.79628
G1 X22.187 Y21.522 E222.81638
G1 X22.633 Y21.255 E222.83635
G1 X22.987 Y20.864 E222.85661
G1 X23.21 Y20.389 E222.87677
G1 X23.286 Y19.87 E222.89692
G1 X23.208 Y19.353 E222.91701
G1 X22.982 Y18.879 E222.93718
G1 X22.632 Y18.495 E222.95714
G1 X22.18 Y18.224 E222.97738
G1 X21.675 Y18.098 E222.99738
G1 X21.147 Y18.124 E223.01769
G1 X20.658 Y18.301 E223.03766
G1 X20.235 Y18.616 E223.05792
G1 X19.922 Y19.04 E223.07817
G1 X19.747 Y19.531 E223.09819
G1 X19.723 Y20.051 E223.11819
G1 X19.853 Y20.562 E223.13845
G1 X20.124 Y21.014 E223.15869
M204 S3000
M205 X10 Y10
G0 F1440 X20.278 Y21.14
G0 X19.859 Y21.649
G0 X30.558 Y176.658
G0 X31.218 Y176.658
M204 S1800
M205 X8 Y8
G1 F900 X178.783 Y176.658 E228.82747
G1 X178.783 Y29.093 E234.49625
