;FLAVOR:Marlin
;TIME:439
;Filament used: 0.611742m
;Layer height: 0.3
;MINX:93.8
;MINY:16.22
;MINZ:0.15
;MAXX:116.2
;MAXY:40.62
;MAXZ:9.75
;Generated with Cura_SteamEngine 4.5.0
M140 S60
M105
M190 S60
M104 S205
M105
M109 S205
M82 ;absolute extrusion mode
G21 ;metric values
G90 ;absolute positioning
M82 ;set extruder to absolute mode
M107 ;start with the fan off
G28 X0 Y0 ;move X/Y to min endstops
G28 Z0 ;move Z to min endstops
G1 Z15.0 F80 ;move the platform down 15mm
G92 E0 ;zero the extruded length
G1 F200 E3 ;extrude 3mm of feed stock
G92 E0 ;zero the extruded length again
G1 F80
G0 Y20 F80
M117 Printing...
G5
G92 E0
G92 E0
G1 F2400 E-6
;LAYER_COUNT:33
;LAYER:0
M106 S255
M204 S3000
M205 X10 Y10
G1 F600 Z0.225
G0 F1440 X93.959 Y19.439 Z0.225
M204 S1800
M205 X8 Y8
;TYPE:SKIRT
G1 F600 Z0.15
G1 F2400 E0
G1 X94.155 Y18.894 E0.02225
G1 X94.424 Y18.381 E0.0445
G1 X94.761 Y17.91 E0.06675
G1 X95.194 Y17.45 E0.09102
G1 X95.631 Y17.07 E0.11326
G1 X96.116 Y16.753 E0.13552
G1 X96.64 Y16.506 E0.15778
G1 X97.193 Y16.334 E0.18002
G1 X97.765 Y16.239 E0.2023
G1 X111.836 Y16.22 E0.74284
G1 X112.414 Y16.26 E0.7651
G1 X112.981 Y16.379 E0.78736
G1 X113.526 Y16.575 E0.80961
G1 X114.039 Y16.844 E0.83186
G1 X114.51 Y17.181 E0.85411
G1 X114.93 Y17.58 E0.87636
G1 X115.292 Y18.033 E0.89864
G1 X115.587 Y18.531 E0.92087
G1 X115.812 Y19.065 E0.94313
G1 X115.96 Y19.625 E0.96538
G1 X116.036 Y20.377 E0.99442
G1 X116.2 Y36.213 E1.6028
G1 X116.166 Y36.791 E1.62504
G1 X116.053 Y37.359 E1.64729
G1 X115.862 Y37.906 E1.66955
G1 X115.598 Y38.422 E1.69181
G1 X115.266 Y38.896 E1.71404
G1 X114.806 Y39.39 E1.73998
G1 X114.369 Y39.77 E1.76222
G1 X113.884 Y40.087 E1.78448
G1 X113.36 Y40.334 E1.80673
G1 X112.807 Y40.506 E1.82898
G1 X112.235 Y40.601 E1.85126
G1 X98.164 Y40.62 E2.3918
G1 X97.586 Y40.58 E2.41406
G1 X97.019 Y40.461 E2.43631
G1 X96.474 Y40.265 E2.45856
G1 X95.961 Y39.996 E2.48082
G1 X95.49 Y39.659 E2.50306
G1 X95.03 Y39.226 E2.52733
G1 X94.65 Y38.789 E2.54958
G1 X94.333 Y38.304 E2.57184
G1 X94.086 Y37.78 E2.59409
G1 X93.914 Y37.227 E2.61634
G1 X93.819 Y36.655 E2.63861
G1 X93.8 Y20.584 E3.25599
G1 X93.84 Y20.006 E3.27825
G1 X93.959 Y19.439 E3.3005
M204 S3000
M205 X10 Y10
G0 F1440 X94.519 Y19.52
M204 S1800
M205 X8 Y8
G1 F2400 X94.714 Y19.018 E3.32119
G1 X94.982 Y18.549 E3.34194
G1 X95.426 Y18.01 E3.36877
G1 X95.999 Y17.494 E3.39839
G1 X96.455 Y17.206 E3.41911
G1 X96.948 Y16.989 E3.4398
G1 X97.468 Y16.847 E3.46051
G1 X98.164 Y16.78 E3.48737
G1 X111.836 Y16.78 E4.01258
G1 X112.374 Y16.82 E4.03331
G1 X112.9 Y16.939 E4.05403
G1 X113.402 Y17.134 E4.07471
G1 X113.871 Y17.402 E4.09547
G1 X114.294 Y17.735 E4.11615
G1 X114.664 Y18.128 E4.13688
G1 X114.971 Y18.571 E4.15759
G1 X115.21 Y19.055 E4.17832
G1 X115.375 Y19.568 E4.19902
G1 X115.462 Y20.1 E4.21973
G1 X115.64 Y36.218 E4.83895
G1 X115.605 Y36.756 E4.85966
G1 X115.492 Y37.284 E4.88041
G1 X115.302 Y37.788 E4.9011
G1 X115.039 Y38.259 E4.92182
G1 X114.574 Y38.83 E4.95011
G1 X114.001 Y39.346 E4.97973
G1 X113.545 Y39.634 E5.00045
G1 X113.052 Y39.851 E5.02114
G1 X112.532 Y39.993 E5.04185
G1 X111.836 Y40.06 E5.06871
G1 X98.164 Y40.06 E5.59393
G1 X97.626 Y40.02 E5.61465
G1 X97.1 Y39.901 E5.63537
G1 X96.598 Y39.706 E5.65606
G1 X96.129 Y39.438 E5.67681
G1 X95.59 Y38.994 E5.70363
G1 X95.074 Y38.421 E5.73326
G1 X94.786 Y37.965 E5.75397
G1 X94.569 Y37.472 E5.77467
G1 X94.427 Y36.952 E5.79537
G1 X94.36 Y36.256 E5.82223
G1 X94.36 Y20.584 E6.42428
G1 X94.4 Y20.046 E6.44501
G1 X94.519 Y19.52 E6.46572
M204 S3000
M205 X10 Y10
G0 F1440 X95.079 Y19.608
M204 S1800
M205 X8 Y8
G1 F2400 X95.273 Y19.152 E6.48476
G1 X95.538 Y18.733 E6.50381
G1 X95.986 Y18.242 E6.52934
G1 X96.364 Y17.921 E6.54839
G1 X96.788 Y17.664 E6.56744
G1 X97.249 Y17.479 E6.58652
G1 X97.732 Y17.37 E6.60554
G1 X98.164 Y17.34 E6.62218
G1 X111.836 Y17.34 E7.14739
G1 X112.812 Y17.499 E7.18538
G1 X113.268 Y17.693 E7.20442
G1 X113.687 Y17.958 E7.22346
G1 X114.058 Y18.288 E7.24254
G1 X114.372 Y18.672 E7.26159
G1 X114.62 Y19.102 E7.28066
G1 X114.795 Y19.565 E7.29967
G1 X114.894 Y20.052 E7.31877
G1 X115.08 Y36.224 E7.94006
G1 X115.045 Y36.719 E7.95912
G1 X114.931 Y37.202 E7.97819
G1 X114.741 Y37.66 E7.99724
G1 X114.481 Y38.082 E8.01628
G1 X114.014 Y38.598 E8.04301
G1 X113.636 Y38.919 E8.06206
G1 X113.212 Y39.176 E8.08111
G1 X112.751 Y39.361 E8.10019
G1 X112.268 Y39.47 E8.11921
G1 X111.836 Y39.5 E8.13585
G1 X98.164 Y39.5 E8.66107
G1 X97.67 Y39.46 E8.68011
G1 X97.188 Y39.341 E8.69918
G1 X96.732 Y39.147 E8.71821
G1 X96.313 Y38.882 E8.73726
G1 X95.822 Y38.434 E8.76279
G1 X95.501 Y38.056 E8.78184
G1 X95.244 Y37.632 E8.80089
G1 X95.059 Y37.171 E8.81997
G1 X94.95 Y36.688 E8.83899
G1 X94.92 Y36.256 E8.85563
G1 X94.92 Y20.584 E9.45768
G1 X94.96 Y20.09 E9.47672
G1 X95.079 Y19.608 E9.49579
M204 S3000
M205 X10 Y10
G0 F1440 X95.638 Y19.705
M204 S1800
M205 X8 Y8
G1 F2400 X95.832 Y19.3 E9.51304
G1 X96.218 Y18.802 E9.53724
G1 X96.726 Y18.35 E9.56337
G1 X97.116 Y18.128 E9.5806
G1 X97.539 Y17.979 E9.59783
G1 X98.164 Y17.9 E9.62203
G1 X111.836 Y17.9 E10.14725
G1 X112.715 Y18.058 E10.18156
G1 X113.12 Y18.252 E10.19881
G1 X113.484 Y18.514 E10.21604
G1 X113.796 Y18.836 E10.23326
G1 X114.046 Y19.209 E10.25051
G1 X114.226 Y19.62 E10.26775
G1 X114.33 Y20.056 E10.28497
G1 X114.52 Y36.23 E10.90634
G1 X114.485 Y36.677 E10.92357
G1 X114.371 Y37.111 E10.9408
G1 X114.181 Y37.518 E10.95806
G1 X113.782 Y38.038 E10.98324
G1 X113.274 Y38.49 E11.00936
G1 X112.884 Y38.712 E11.0266
G1 X112.461 Y38.861 E11.04383
G1 X111.836 Y38.94 E11.06803
G1 X98.164 Y38.94 E11.59324
G1 X97.717 Y38.9 E11.61048
G1 X97.285 Y38.782 E11.62769
G1 X96.88 Y38.588 E11.64494
G1 X96.382 Y38.202 E11.66914
G1 X95.93 Y37.694 E11.69527
G1 X95.708 Y37.304 E11.7125
G1 X95.559 Y36.881 E11.72973
G1 X95.48 Y36.256 E11.75393
G1 X95.48 Y20.584 E12.35598
G1 X95.52 Y20.137 E12.37322
G1 X95.638 Y19.705 E12.39042
M204 S3000
M205 X10 Y10
G0 F1440 X96.08 Y20.191
M204 S1800
M205 X8 Y8
G1 F2400 X96.198 Y19.813 E12.40564
G1 X96.389 Y19.467 E12.42082
G1 X96.778 Y19.034 E12.44318
G1 X97.084 Y18.784 E12.45836
G1 X97.435 Y18.601 E12.47357
G1 X97.815 Y18.491 E12.48876
G1 X98.164 Y18.46 E12.50222
G1 X111.836 Y18.46 E13.02744
G1 X112.607 Y18.618 E13.05767
G1 X112.953 Y18.809 E13.07286
G1 X113.254 Y19.066 E13.08806
G1 X113.496 Y19.379 E13.10326
G1 X113.672 Y19.733 E13.11845
G1 X113.772 Y20.116 E13.13365
G1 X113.96 Y36.236 E13.75295
G1 X113.924 Y36.63 E13.76815
G1 X113.81 Y37.008 E13.78332
G1 X113.622 Y37.356 E13.79851
G1 X113.222 Y37.806 E13.82164
G1 X112.916 Y38.056 E13.83682
G1 X112.565 Y38.239 E13.85203
G1 X112.185 Y38.349 E13.86722
G1 X111.836 Y38.38 E13.88068
G1 X98.164 Y38.38 E14.4059
G1 X97.771 Y38.34 E14.42107
G1 X97.393 Y38.222 E14.43629
G1 X97.047 Y38.031 E14.45147
G1 X96.614 Y37.642 E14.47383
G1 X96.364 Y37.336 E14.48901
G1 X96.181 Y36.985 E14.50422
G1 X96.071 Y36.605 E14.51941
G1 X96.04 Y36.256 E14.53287
G1 X96.04 Y20.584 E15.13492
G1 X96.08 Y20.191 E15.1501
M204 S3000
M205 X10 Y10
G0 F1440 X96.64 Y20.252
M204 S1800
M205 X8 Y8
G1 F2400 X96.757 Y19.94 E15.1629
G1 X97.174 Y19.43 E15.1882
G1 X97.437 Y19.224 E15.20104
G1 X97.741 Y19.085 E15.21388
G1 X98.164 Y19.02 E15.23032
G1 X111.836 Y19.02 E15.75553
G1 X112.48 Y19.177 E15.781
G1 X112.757 Y19.365 E15.79386
G1 X112.98 Y19.613 E15.80667
G1 X113.139 Y19.907 E15.81951
G1 X113.236 Y20.406 E15.83904
G1 X113.4 Y36.242 E16.44742
G1 X113.364 Y36.574 E16.46025
G1 X113.249 Y36.888 E16.47309
G1 X112.826 Y37.41 E16.4989
G1 X112.563 Y37.616 E16.51174
G1 X112.259 Y37.755 E16.52458
G1 X111.836 Y37.82 E16.54102
G1 X98.164 Y37.82 E17.06624
G1 X97.832 Y37.78 E17.07908
G1 X97.52 Y37.663 E17.09188
G1 X97.01 Y37.246 E17.11719
G1 X96.804 Y36.983 E17.13002
G1 X96.665 Y36.679 E17.14286
G1 X96.6 Y36.256 E17.1593
G1 X96.6 Y20.584 E17.76135
G1 X96.64 Y20.252 E17.7742
M204 S3000
M205 X10 Y10
G0 F1440 X97.2 Y20.329
M204 S1800
M205 X8 Y8
G1 F2400 X97.406 Y19.99 E17.78944
G1 X97.779 Y19.674 E17.80822
G1 X98.164 Y19.58 E17.82344
G1 X111.836 Y19.58 E18.34866
G1 X112.323 Y19.735 E18.36829
G1 X112.508 Y19.916 E18.37823
G1 X112.629 Y20.144 E18.38815
G1 X112.676 Y20.411 E18.39856
G1 X112.84 Y36.247 E19.00694
G1 X112.803 Y36.503 E19.01688
G1 X112.594 Y36.85 E19.03244
G1 X112.221 Y37.166 E19.05122
G1 X111.836 Y37.26 E19.06644
G1 X98.164 Y37.26 E19.59166
G1 X97.909 Y37.22 E19.60158
G1 X97.57 Y37.014 E19.61682
G1 X97.254 Y36.641 E19.6356
G1 X97.16 Y36.256 E19.65082
G1 X97.16 Y20.584 E20.25287
G1 X97.2 Y20.329 E20.26278
M204 S3000
M205 X10 Y10
G0 F1440 X97.72 Y20.584
M204 S1800
M205 X8 Y8
G1 F2400 X97.802 Y20.386 E20.27102
G1 X97.966 Y20.222 E20.27992
G1 X98.164 Y20.14 E20.28816
G1 X111.836 Y20.14 E20.81337
G1 X112.082 Y20.286 E20.82436
G1 X112.116 Y20.417 E20.82956
G1 X112.28 Y36.253 E21.43794
G1 X112.198 Y36.454 E21.44628
G1 X112.034 Y36.618 E21.45519
G1 X111.836 Y36.7 E21.46342
G1 X98.164 Y36.7 E21.98864
G1 X97.966 Y36.618 E21.99687
G1 X97.802 Y36.454 E22.00578
G1 X97.72 Y36.256 E22.01402
G1 X97.72 Y20.584 E22.61606
M204 S3000
M205 X10 Y10
G1 F2400 E16.61606
;MESH:cluster-3.0.stl
G0 F1440 X98.854 Y21.274
G0 X98.91 Y35.51
G0 X98.28 Y36.14
M204 S1800
M205 X8 Y8
;TYPE:WALL-OUTER
G1 F2400 E22.61606
G1 F900 X98.28 Y20.7 E23.2092
G1 X111.72 Y20.7 E23.7255
G1 X111.72 Y36.14 E24.31864
G1 X98.28 Y36.14 E24.83494
M204 S3000
M205 X10 Y10
G0 F1440 X98.28 Y35.94
G0 X98.84 Y35.58
M204 S1800
M205 X8 Y8
;TYPE:WALL-INNER
G1 F900 X98.84 Y21.26 E25.38505
G1 X111.16 Y21.26 E25.85833
G1 X111.16 Y35.58 E26.40844
G1 X98.84 Y35.58 E26.88171
M204 S3000
M205 X10 Y10
G0 F1440 X99.39 Y35.03
M204 S1800
M205 X8 Y8
;TYPE:SKIN
G1 F900 X99.39 Y21.81 E27.38957
G1 X110.61 Y21.81 E27.82059
G1 X110.61 Y35.03 E28.32844
G1 X99.39 Y35.03 E28.75946
M204 S3000
M205 X10 Y10
G0 F1440 X100.502 Y34.769
M204 S1800
M205 X8 Y8
G1 F900 X99.649 Y33.917 E28.80578
M204 S3000
M205 X10 Y10
G0 F1440 X99.649 Y33.125
M204 S1800
M205 X8 Y8
G1 F900 X101.294 Y34.769 E28.89512
M204 S3000
M205 X10 Y10
G0 F1440 X102.086 Y34.769
M204 S1800
M205 X8 Y8
G1 F900 X99.649 Y32.333 E29.02749
M204 S3000
M205 X10 Y10
G0 F1440 X99.649 Y31.541
M204 S1800
M205 X8 Y8
G1 F900 X102.878 Y34.769 E29.20288
M204 S3000
M205 X10 Y10
G0 F1440 X103.67 Y34.769
M204 S1800
M205 X8 Y8
G1 F900 X99.649 Y30.749 E29.42131
M204 S3000
M205 X10 Y10
G0 F1440 X99.649 Y29.957
M204 S1800
M205 X8 Y8
G1 F900 X104.462 Y34.769 E29.68276
M204 S3000
M205 X10 Y10
G0 F1440 X105.254 Y34.769
M204 S1800
M205 X8 Y8
G1 F900 X99.649 Y29.165 E29.98724
M204 S3000
M205 X10 Y10
G0 F1440 X99.649 Y28.373
M204 S1800
M205 X8 Y8
G1 F900 X106.046 Y34.769 E30.33475
M204 S3000
M205 X10 Y10
G0 F1440 X106.838 Y34.769
M204 S1800
M205 X8 Y8
G1 F900 X99.649 Y27.581 E30.72528
M204 S3000
M205 X10 Y10
G0 F1440 X99.649 Y26.789
M204 S1800
M205 X8 Y8
G1 F900 X107.63 Y34.769 E31.15884
M204 S3000
M205 X10 Y10
G0 F1440 X108.422 Y34.769
M204 S1800
M205 X8 Y8
G1 F900 X99.649 Y25.997 E31.63543
M204 S3000
M205 X10 Y10
G0 F1440 X99.649 Y25.205
M204 S1800
M205 X8 Y8
G1 F900 X109.214 Y34.769 E32.15505
M204 S3000
M205 X10 Y10
G0 F1440 X110.006 Y34.769
M204 S1800
M205 X8 Y8
G1 F900 X99.649 Y24.413 E32.71769
M204 S3000
M205 X10 Y10
G0 F1440 X99.649 Y23.621
M204 S1800
M205 X8 Y8
G1 F900 X110.349 Y34.321 E33.299
M204 S3000
M205 X10 Y10
G0 F1440 X110.349 Y33.529
M204 S1800
M205 X8 Y8
G1 F900 X99.649 Y22.829 E33.88031
M204 S3000
M205 X10 Y10
G0 F1440 X99.682 Y22.07
M204 S1800
M205 X8 Y8
G1 F900 X110.349 Y32.737 E34.45982
M204 S3000
M205 X10 Y10
G0 F1440 X110.349 Y31.945
M204 S1800
M205 X8 Y8
G1 F900 X100.474 Y22.07 E34.9963
M204 S3000
M205 X10 Y10
G0 F1440 X101.266 Y22.07
M204 S1800
M205 X8 Y8
G1 F900 X110.349 Y31.153 E35.48976
M204 S3000
M205 X10 Y10
G0 F1440 X110.349 Y30.361
M204 S1800
M205 X8 Y8
G1 F900 X102.058 Y22.07 E35.94019
M204 S3000
M205 X10 Y10
G0 F1440 X102.85 Y22.07
M204 S1800
M205 X8 Y8
G1 F900 X110.349 Y29.569 E36.3476
M204 S3000
M205 X10 Y10
G0 F1440 X110.349 Y28.777
M204 S1800
M205 X8 Y8
G1 F900 X103.642 Y22.07 E36.71197
M204 S3000
M205 X10 Y10
G0 F1440 X104.434 Y22.07
M204 S1800
M205 X8 Y8
G1 F900 X110.349 Y27.985 E37.03332
M204 S3000
M205 X10 Y10
G0 F1440 X110.349 Y27.193
M204 S1800
M205 X8 Y8
G1 F900 X105.225 Y22.07 E37.31167
M204 S3000
M205 X10 Y10
G0 F1440 X106.017 Y22.07
M204 S1800
M205 X8 Y8
G1 F900 X110.349 Y26.401 E37.54699
M204 S3000
M205 X10 Y10
G0 F1440 X110.349 Y25.609
M204 S1800
M205 X8 Y8
G1 F900 X106.809 Y22.07 E37.73928
M204 S3000
M205 X10 Y10
G0 F1440 X107.601 Y22.07
M204 S1800
M205 X8 Y8
G1 F900 X110.349 Y24.818 E37.88857
M204 S3000
M205 X10 Y10
G0 F1440 X110.349 Y24.026
M204 S1800
M205 X8 Y8
G1 F900 X108.393 Y22.07 E37.99484
M204 S3000
M205 X10 Y10
G0 F1440 X109.185 Y22.07
M204 S1800
M205 X8 Y8
G1 F900 X110.349 Y23.234 E38.05808
M204 S3000
M205 X10 Y10
G0 F1440 X110.349 Y22.442
M204 S1800
M205 X8 Y8
G1 F900 X109.977 Y22.07 E38.07829
M204 S3000
M205 X10 Y10
G1 F2400 E32.07829
;MESH:NONMESH
G0 F600 X109.977 Y22.07 Z0.45
G0 F1440 X98.91 Y35.51
G0 X98.6 Y35.82
;TIME_ELAPSED:50.464599
;LAYER:1
M140 S60
M204 S1800
M205 X8 Y8
;TYPE:WALL-INNER
;MESH:cluster-3.0.stl
G1 F2400 E38.07829
G1 F1950 X98.6 Y21.02 E38.8905
G1 X111.4 Y21.02 E39.59295
G1 X111.4 Y35.82 E40.40516
G1 X98.6 Y35.82 E41.10762
M204 S3000
M205 X10 Y10
G0 F3120 X98.2 Y36.22
M204 S1800
M205 X8 Y8
;TYPE:WALL-OUTER
G1 F1950 X98.2 Y20.62 E41.96373
G1 X111.8 Y20.62 E42.71009
G1 X111.8 Y36.22 E43.56621
G1 X98.2 Y36.22 E44.31256
M204 S3000
M205 X10 Y10
G0 F3120 X98.2 Y36.02
G0 X98.99 Y35.43
M204 S1800
M205 X8 Y8
;TYPE:SKIN
G1 F1050 X98.99 Y21.41 E45.08197
G1 X111.01 Y21.41 E45.74162
G1 X111.01 Y35.43 E46.51103
G1 X98.99 Y35.43 E47.17067
M204 S3000
M205 X10 Y10
G0 F3120 X110.829 Y35.117
M204 S1800
M205 X8 Y8
G1 F1050 X110.696 Y35.249 E47.18096
M204 S3000
M205 X10 Y10
G0 F3120 X110.131 Y35.249
M204 S1800
M205 X8 Y8
G1 F1050 X110.829 Y34.551 E47.23513
M204 S3000
M205 X10 Y10
G0 F3120 X110.829 Y33.985
M204 S1800
M205 X8 Y8
G1 F1050 X109.565 Y35.249 E47.33323
M204 S3000
M205 X10 Y10
G0 F3120 X108.999 Y35.249
M204 S1800
M205 X8 Y8
G1 F1050 X110.829 Y33.419 E47.47526
M204 S3000
M205 X10 Y10
G0 F3120 X110.829 Y32.854
M204 S1800
M205 X8 Y8
G1 F1050 X108.434 Y35.249 E47.66114
M204 S3000
M205 X10 Y10
G0 F3120 X107.868 Y35.249
M204 S1800
M205 X8 Y8
G1 F1050 X110.829 Y32.288 E47.89094
M204 S3000
M205 X10 Y10
G0 F3120 X110.829 Y31.722
M204 S1800
M205 X8 Y8
G1 F1050 X107.302 Y35.249 E48.16468
M204 S3000
M205 X10 Y10
G0 F3120 X106.737 Y35.249
M204 S1800
M205 X8 Y8
G1 F1050 X110.829 Y31.157 E48.48226
M204 S3000
M205 X10 Y10
G0 F3120 X110.829 Y30.591
M204 S1800
M205 X8 Y8
G1 F1050 X106.171 Y35.249 E48.84377
M204 S3000
M205 X10 Y10
G0 F3120 X105.605 Y35.249
M204 S1800
M205 X8 Y8
G1 F1050 X110.829 Y30.025 E49.24921
M204 S3000
M205 X10 Y10
G0 F3120 X110.829 Y29.46
M204 S1800
M205 X8 Y8
G1 F1050 X105.04 Y35.249 E49.6985
M204 S3000
M205 X10 Y10
G0 F3120 X104.474 Y35.249
M204 S1800
M205 X8 Y8
G1 F1050 X110.829 Y28.894 E50.19172
M204 S3000
M205 X10 Y10
G0 F3120 X110.829 Y28.328
M204 S1800
M205 X8 Y8
G1 F1050 X103.908 Y35.249 E50.72886
M204 S3000
M205 X10 Y10
G0 F3120 X103.342 Y35.249
M204 S1800
M205 X8 Y8
G1 F1050 X110.829 Y27.763 E51.3099
M204 S3000
M205 X10 Y10
G0 F3120 X110.829 Y27.197
M204 S1800
M205 X8 Y8
G1 F1050 X102.777 Y35.249 E51.93482
M204 S3000
M205 X10 Y10
G0 F3120 X102.211 Y35.249
M204 S1800
M205 X8 Y8
G1 F1050 X110.829 Y26.631 E52.60367
M204 S3000
M205 X10 Y10
G0 F3120 X110.829 Y26.066
M204 S1800
M205 X8 Y8
G1 F1050 X101.645 Y35.249 E53.31641
M204 S3000
M205 X10 Y10
G0 F3120 X101.08 Y35.249
M204 S1800
M205 X8 Y8
G1 F1050 X110.829 Y25.5 E54.07304
M204 S3000
M205 X10 Y10
G0 F3120 X110.829 Y24.934
M204 S1800
M205 X8 Y8
G1 F1050 X100.514 Y35.249 E54.8736
M204 S3000
M205 X10 Y10
G0 F3120 X99.948 Y35.249
M204 S1800
M205 X8 Y8
G1 F1050 X110.829 Y24.369 E55.71805
M204 S3000
M205 X10 Y10
G0 F3120 X110.829 Y23.803
M204 S1800
M205 X8 Y8
G1 F1050 X99.383 Y35.249 E56.60638
M204 S3000
M205 X10 Y10
G0 F3120 X99.169 Y34.897
M204 S1800
M205 X8 Y8
G1 F1050 X110.829 Y23.237 E57.51132
M204 S3000
M205 X10 Y10
G0 F3120 X110.829 Y22.671
M204 S1800
M205 X8 Y8
G1 F1050 X99.169 Y34.332 E58.41631
M204 S3000
M205 X10 Y10
G0 F3120 X99.169 Y33.766
M204 S1800
M205 X8 Y8
G1 F1050 X110.829 Y22.106 E59.32125
M204 S3000
