;FLAVOR:Marlin
;TIME:1167
;Filament used: 0.817232m
;Layer height: 0.18
;MINX:73.321
;MINY:11.545
;MINZ:0.15
;MAXX:136.693
;MAXY:29.901
;MAXZ:7.065
;Generated with Cura_SteamEngine 4.5.0
M140 S60
M105
M190 S60
M104 S205
M105
M109 S205
M82 ;absolute extrusion mode
G21 ;metric values
G90 ;absolute positioning
M82 ;set extruder to absolute mode
M107 ;start with the fan off
G28 X0 Y0 ;move X/Y to min endstops
G28 Z0 ;move Z to min endstops
G1 Z15.0 F80 ;move the platform down 15mm
G92 E0 ;zero the extruded length
G1 F200 E3 ;extrude 3mm of feed stock
G92 E0 ;zero the extruded length again
G1 F80
G0 Y20 F80
M117 Printing...
G5
G92 E0
G92 E0
G1 F2400 E-6
;LAYER_COUNT:39
;LAYER:0
M106 S255
M204 S3000
M205 X10 Y10
G1 F600 Z0.225
G0 F1440 X73.573 Y18.547 Z0.225
M204 S1800
M205 X8 Y8
;TYPE:SKIRT
G1 F600 Z0.15
G1 F2400 E0
G1 X73.854 Y17.613 E0.03747
G1 X74.166 Y16.855 E0.06896
G1 X74.627 Y15.986 E0.10675
G1 X75.083 Y15.298 E0.13846
G1 X75.7 Y14.542 E0.17594
G1 X76.281 Y13.958 E0.20759
G1 X77.036 Y13.335 E0.24519
G1 X77.72 Y12.876 E0.27684
G1 X78.585 Y12.411 E0.31456
G1 X79.15 Y12.159 E0.33833
G1 X79.63 Y11.986 E0.35793
G1 X80.239 Y11.817 E0.38221
G1 X81.179 Y11.631 E0.41902
G1 X81.968 Y11.551 E0.44948
G1 X82.941 Y11.545 E0.48686
G1 X83.771 Y11.623 E0.51889
G1 X84.735 Y11.811 E0.55662
G1 X85.522 Y12.046 E0.58817
G1 X86.436 Y12.42 E0.62611
G1 X87.007 Y12.706 E0.65064
G1 X87.45 Y12.972 E0.67049
G1 X87.95 Y13.324 E0.69398
G1 X88.686 Y13.927 E0.73053
G1 X89.264 Y14.503 E0.76188
G1 X89.887 Y15.258 E0.79948
G1 X90 Y15.426 E0.80726
G1 X90.701 Y14.543 E0.85057
G1 X91.283 Y13.958 E0.88227
G1 X92.035 Y13.337 E0.91974
G1 X92.72 Y12.876 E0.95145
G1 X93.585 Y12.411 E0.98918
G1 X94.15 Y12.159 E1.01295
G1 X94.63 Y11.986 E1.03255
G1 X95.239 Y11.817 E1.05683
G1 X96.179 Y11.631 E1.09364
G1 X96.968 Y11.551 E1.1241
G1 X97.941 Y11.545 E1.16148
G1 X98.771 Y11.623 E1.19351
G1 X99.735 Y11.811 E1.23124
G1 X100.52 Y12.045 E1.2627
G1 X101.43 Y12.417 E1.30047
G1 X102.164 Y12.806 E1.33238
G1 X102.985 Y13.351 E1.37024
G1 X103.623 Y13.872 E1.40188
G1 X104.314 Y14.559 E1.43931
G1 X104.84 Y15.195 E1.47102
G1 X104.997 Y15.429 E1.48184
G1 X105.701 Y14.543 E1.52532
G1 X106.283 Y13.958 E1.55702
G1 X107.035 Y13.337 E1.59448
G1 X107.72 Y12.876 E1.6262
G1 X108.585 Y12.411 E1.66393
G1 X109.15 Y12.159 E1.68769
G1 X109.63 Y11.986 E1.70729
G1 X110.239 Y11.817 E1.73157
G1 X111.179 Y11.631 E1.76838
G1 X111.968 Y11.551 E1.79885
G1 X112.941 Y11.545 E1.83623
G1 X113.771 Y11.623 E1.86825
G1 X114.735 Y11.811 E1.90598
G1 X115.522 Y12.046 E1.93753
G1 X116.436 Y12.42 E1.97547
G1 X117.007 Y12.706 E2
G1 X117.45 Y12.972 E2.01986
G1 X117.95 Y13.324 E2.04335
G1 X118.686 Y13.927 E2.0799
G1 X119.262 Y14.501 E2.11114
G1 X119.884 Y15.254 E2.14865
G1 X120.002 Y15.42 E2.15648
G1 X120.7 Y14.542 E2.19957
G1 X121.281 Y13.958 E2.23121
G1 X122.036 Y13.335 E2.26882
G1 X122.72 Y12.876 E2.30046
G1 X123.585 Y12.411 E2.33819
G1 X124.15 Y12.159 E2.36195
G1 X124.63 Y11.986 E2.38155
G1 X125.239 Y11.817 E2.40583
G1 X126.179 Y11.631 E2.44264
G1 X126.968 Y11.551 E2.47311
G1 X127.941 Y11.545 E2.51049
G1 X128.771 Y11.623 E2.54251
G1 X129.735 Y11.811 E2.58024
G1 X130.522 Y12.046 E2.61179
G1 X131.431 Y12.418 E2.64952
G1 X132.159 Y12.803 E2.68116
G1 X132.976 Y13.344 E2.7188
G1 X133.46 Y13.718 E2.7423
G1 X133.836 Y14.055 E2.7617
G1 X134.279 Y14.518 E2.78631
G1 X134.893 Y15.266 E2.82349
G1 X135.346 Y15.943 E2.85478
G1 X135.812 Y16.81 E2.89259
G1 X136.127 Y17.562 E2.92392
G1 X136.414 Y18.494 E2.96138
G1 X136.579 Y19.309 E2.99332
G1 X136.677 Y20.282 E3.03089
G1 X136.693 Y20.898 E3.05456
G1 X136.669 Y21.415 E3.07444
G1 X136.594 Y22.038 E3.09855
G1 X136.409 Y22.97 E3.13505
G1 X136.177 Y23.741 E3.16598
G1 X135.805 Y24.651 E3.20375
G1 X135.419 Y25.381 E3.23547
G1 X134.878 Y26.198 E3.27311
G1 X134.501 Y26.685 E3.29677
G1 X133.711 Y27.494 E3.34021
G1 X132.96 Y28.112 E3.37757
G1 X132.279 Y28.568 E3.40906
G1 X131.412 Y29.034 E3.44687
G1 X130.659 Y29.349 E3.47822
G1 X129.726 Y29.636 E3.51572
G1 X128.91 Y29.801 E3.5477
G1 X127.933 Y29.899 E3.58542
G1 X127.116 Y29.901 E3.61681
G1 X126.138 Y29.808 E3.65455
G1 X125.327 Y29.649 E3.6863
G1 X124.392 Y29.368 E3.7238
G1 X123.633 Y29.056 E3.75533
G1 X122.764 Y28.595 E3.79312
G1 X122.075 Y28.138 E3.82488
G1 X121.317 Y27.519 E3.86247
G1 X120.733 Y26.937 E3.89415
G1 X120.11 Y26.181 E3.93178
G1 X119.998 Y26.015 E3.93947
G1 X119.346 Y26.849 E3.98014
G1 X118.662 Y27.536 E4.01738
G1 X118.205 Y27.934 E4.04066
G1 X117.802 Y28.236 E4.06001
G1 X117.266 Y28.578 E4.08443
G1 X116.407 Y29.038 E4.12186
G1 X115.659 Y29.349 E4.15298
G1 X114.726 Y29.636 E4.19048
G1 X113.91 Y29.801 E4.22246
G1 X112.933 Y29.899 E4.26018
G1 X112.116 Y29.901 E4.29157
G1 X111.138 Y29.808 E4.32931
G1 X110.327 Y29.649 E4.36106
G1 X109.392 Y29.368 E4.39856
G1 X108.632 Y29.056 E4.43012
G1 X107.767 Y28.597 E4.46774
G1 X107.087 Y28.146 E4.49909
G1 X106.328 Y27.529 E4.53666
G1 X105.865 Y27.09 E4.56117
G1 X105.527 Y26.717 E4.58051
G1 X105.15 Y26.235 E4.60402
G1 X105.005 Y26.019 E4.61401
G1 X104.295 Y26.908 E4.65772
G1 X103.719 Y27.486 E4.68907
G1 X102.964 Y28.109 E4.72667
G1 X102.279 Y28.568 E4.75834
G1 X101.412 Y29.034 E4.79616
G1 X100.659 Y29.349 E4.82751
G1 X99.726 Y29.636 E4.86501
G1 X98.91 Y29.801 E4.89699
G1 X97.933 Y29.899 E4.93471
G1 X97.116 Y29.901 E4.9661
G1 X96.138 Y29.808 E5.00384
G1 X95.327 Y29.649 E5.03559
G1 X94.392 Y29.368 E5.07309
G1 X93.632 Y29.056 E5.10465
G1 X92.767 Y28.597 E5.14227
G1 X92.087 Y28.146 E5.17362
G1 X91.328 Y27.529 E5.21119
G1 X90.865 Y27.09 E5.2357
G1 X90.527 Y26.717 E5.25504
G1 X90.15 Y26.235 E5.27855
G1 X90.01 Y26.026 E5.28821
G1 X89.341 Y26.855 E5.32913
G1 X88.66 Y27.538 E5.36618
G1 X88.205 Y27.934 E5.38936
G1 X87.802 Y28.236 E5.4087
G1 X87.266 Y28.578 E5.43313
G1 X86.407 Y29.038 E5.47056
G1 X85.659 Y29.349 E5.50168
G1 X84.726 Y29.636 E5.53918
G1 X83.91 Y29.801 E5.57116
G1 X82.933 Y29.899 E5.60888
G1 X82.116 Y29.901 E5.64027
G1 X81.138 Y29.808 E5.67801
G1 X80.327 Y29.649 E5.70975
G1 X79.392 Y29.368 E5.74726
G1 X78.633 Y29.056 E5.77878
G1 X77.764 Y28.595 E5.81657
G1 X77.075 Y28.138 E5.84833
G1 X76.317 Y27.519 E5.88593
G1 X75.733 Y26.937 E5.9176
G1 X75.11 Y26.181 E5.95524
G1 X74.651 Y25.497 E5.98688
G1 X74.187 Y24.633 E6.02455
G1 X73.873 Y23.881 E6.05586
G1 X73.586 Y22.948 E6.09336
G1 X73.421 Y22.133 E6.1253
G1 X73.323 Y21.158 E6.16295
G1 X73.321 Y20.342 E6.19429
G1 X73.414 Y19.361 E6.23215
G1 X73.573 Y18.547 E6.26401
M204 S3000
M205 X10 Y10
G0 F1440 X74.109 Y18.708
M204 S1800
M205 X8 Y8
G1 F2400 X74.39 Y17.774 E6.30148
G1 X74.66 Y17.117 E6.32876
G1 X75.121 Y16.248 E6.36655
G1 X75.517 Y15.652 E6.39404
G1 X76.134 Y14.896 E6.43153
G1 X76.637 Y14.39 E6.45894
G1 X77.392 Y13.767 E6.49654
G1 X77.985 Y13.369 E6.52398
G1 X78.85 Y12.904 E6.5617
G1 X79.34 Y12.686 E6.58231
G1 X79.82 Y12.513 E6.60191
G1 X80.347 Y12.366 E6.62292
G1 X81.287 Y12.18 E6.65973
G1 X81.972 Y12.111 E6.68618
G1 X82.945 Y12.105 E6.72356
G1 X83.664 Y12.172 E6.7513
G1 X84.628 Y12.36 E6.78903
G1 X85.31 Y12.564 E6.81638
G1 X86.224 Y12.938 E6.85432
G1 X86.719 Y13.186 E6.87558
G1 X87.162 Y13.452 E6.89543
G1 X87.595 Y13.757 E6.91578
G1 X88.331 Y14.36 E6.95233
G1 X88.832 Y14.859 E6.9795
G1 X89.455 Y15.614 E7.0171
G1 X89.853 Y16.208 E7.04457
G1 X89.999 Y16.48 E7.05643
G1 X90.514 Y15.658 E7.09369
G1 X91.135 Y14.896 E7.13145
G1 X91.639 Y14.389 E7.15891
G1 X92.391 Y13.768 E7.19638
G1 X92.985 Y13.369 E7.22387
G1 X93.85 Y12.904 E7.26159
G1 X94.34 Y12.686 E7.2822
G1 X94.82 Y12.513 E7.3018
G1 X95.347 Y12.366 E7.32282
G1 X96.287 Y12.18 E7.35963
G1 X96.972 Y12.111 E7.38607
G1 X97.945 Y12.105 E7.42345
G1 X98.664 Y12.172 E7.45119
G1 X99.628 Y12.36 E7.48892
G1 X100.308 Y12.564 E7.5162
G1 X101.218 Y12.936 E7.55396
G1 X101.854 Y13.272 E7.58159
G1 X102.675 Y13.817 E7.61945
G1 X103.228 Y14.269 E7.64689
G1 X103.919 Y14.956 E7.68432
G1 X104.375 Y15.508 E7.71182
G1 X104.921 Y16.321 E7.74945
G1 X105.003 Y16.473 E7.75608
G1 X105.514 Y15.658 E7.79303
G1 X106.135 Y14.896 E7.8308
G1 X106.639 Y14.389 E7.85826
G1 X107.391 Y13.768 E7.89572
G1 X107.985 Y13.369 E7.92321
G1 X108.85 Y12.904 E7.96094
G1 X109.34 Y12.686 E7.98154
G1 X109.82 Y12.513 E8.00114
G1 X110.347 Y12.366 E8.02216
G1 X111.287 Y12.18 E8.05897
G1 X111.972 Y12.111 E8.08542
G1 X112.945 Y12.105 E8.1228
G1 X113.664 Y12.172 E8.15054
G1 X114.628 Y12.36 E8.18827
G1 X115.31 Y12.564 E8.21561
G1 X116.224 Y12.938 E8.25355
G1 X116.719 Y13.186 E8.27482
G1 X117.162 Y13.452 E8.29467
G1 X117.595 Y13.757 E8.31502
G1 X118.331 Y14.36 E8.35157
G1 X118.83 Y14.858 E8.37865
G1 X119.452 Y15.611 E8.41617
G1 X119.765 Y16.052 E8.43694
G1 X120.009 Y16.458 E8.45514
G1 X120.517 Y15.652 E8.49174
G1 X121.134 Y14.896 E8.52923
G1 X121.637 Y14.39 E8.55664
G1 X122.392 Y13.767 E8.59424
G1 X122.985 Y13.369 E8.62167
G1 X123.85 Y12.904 E8.6594
G1 X124.34 Y12.686 E8.68
G1 X124.82 Y12.513 E8.6996
G1 X125.347 Y12.366 E8.72062
G1 X126.287 Y12.18 E8.75743
G1 X126.972 Y12.111 E8.78388
G1 X127.945 Y12.105 E8.82126
G1 X128.664 Y12.172 E8.849
G1 X129.628 Y12.36 E8.88673
G1 X130.31 Y12.564 E8.91408
G1 X131.219 Y12.936 E8.95181
G1 X131.85 Y13.27 E8.97923
G1 X132.667 Y13.811 E9.01688
G1 X133.086 Y14.135 E9.03722
G1 X133.462 Y14.472 E9.05662
G1 X133.847 Y14.874 E9.078
G1 X134.461 Y15.622 E9.11518
G1 X134.853 Y16.208 E9.14226
G1 X135.319 Y17.075 E9.18007
G1 X135.592 Y17.727 E9.20723
G1 X135.879 Y18.659 E9.24469
G1 X136.022 Y19.365 E9.27236
G1 X136.12 Y20.338 E9.30993
G1 X136.134 Y20.872 E9.33045
G1 X136.11 Y21.389 E9.35033
G1 X136.044 Y21.929 E9.37123
G1 X135.859 Y22.861 E9.40773
G1 X135.658 Y23.529 E9.43453
G1 X135.286 Y24.439 E9.4723
G1 X134.952 Y25.072 E9.49979
G1 X134.411 Y25.889 E9.53743
G1 X134.084 Y26.311 E9.55794
G1 X133.355 Y27.062 E9.59815
G1 X132.604 Y27.68 E9.63551
G1 X132.014 Y28.075 E9.66279
G1 X131.147 Y28.541 E9.7006
G1 X130.494 Y28.814 E9.72779
G1 X129.561 Y29.101 E9.76529
G1 X128.854 Y29.244 E9.793
G1 X127.877 Y29.342 E9.83072
G1 X127.169 Y29.344 E9.85792
G1 X126.191 Y29.251 E9.89566
G1 X125.488 Y29.113 E9.92318
G1 X124.553 Y28.832 E9.96068
G1 X123.895 Y28.562 E9.98801
G1 X123.026 Y28.101 E10.0258
G1 X122.43 Y27.704 E10.05331
G1 X121.672 Y27.085 E10.0909
G1 X121.165 Y26.581 E10.11836
G1 X120.542 Y25.825 E10.156
G1 X120.144 Y25.232 E10.18343
G1 X120.006 Y24.975 E10.19464
G1 X119.399 Y25.904 E10.23727
G1 X118.949 Y26.454 E10.26457
G1 X118.265 Y27.141 E10.30181
G1 X117.869 Y27.486 E10.32199
G1 X117.466 Y27.788 E10.34133
G1 X117.001 Y28.084 E10.36251
G1 X116.142 Y28.544 E10.39994
G1 X115.494 Y28.814 E10.42691
G1 X114.561 Y29.101 E10.46441
G1 X113.854 Y29.244 E10.49212
G1 X112.877 Y29.342 E10.52984
G1 X112.169 Y29.344 E10.55703
G1 X111.191 Y29.251 E10.59477
G1 X110.488 Y29.113 E10.6223
G1 X109.553 Y28.832 E10.6598
G1 X108.895 Y28.561 E10.68714
G1 X108.03 Y28.102 E10.72476
G1 X107.44 Y27.711 E10.75195
G1 X106.681 Y27.094 E10.78952
G1 X106.28 Y26.714 E10.81075
G1 X105.942 Y26.341 E10.83008
G1 X105.615 Y25.923 E10.85047
G1 X105.073 Y25.114 E10.88788
G1 X105.007 Y24.99 E10.89327
G1 X104.465 Y25.817 E10.93126
G1 X103.862 Y26.553 E10.96781
G1 X103.363 Y27.054 E10.99497
G1 X102.608 Y27.677 E11.03258
G1 X102.014 Y28.075 E11.06004
G1 X101.147 Y28.541 E11.09786
G1 X100.494 Y28.814 E11.12505
G1 X99.561 Y29.101 E11.16255
G1 X98.854 Y29.244 E11.19025
G1 X97.877 Y29.342 E11.22798
G1 X97.169 Y29.344 E11.25517
G1 X96.191 Y29.251 E11.29291
G1 X95.488 Y29.113 E11.32043
G1 X94.553 Y28.832 E11.35794
G1 X93.895 Y28.561 E11.38528
G1 X93.03 Y28.102 E11.4229
G1 X92.44 Y27.711 E11.45009
G1 X91.681 Y27.094 E11.48766
G1 X91.28 Y26.714 E11.50888
G1 X90.942 Y26.341 E11.52822
G1 X90.615 Y25.923 E11.54861
G1 X90.073 Y25.114 E11.58602
G1 X89.997 Y24.973 E11.59217
G1 X89.597 Y25.643 E11.62215
G1 X89.297 Y26.05 E11.64157
G1 X88.945 Y26.46 E11.66233
G1 X88.264 Y27.143 E11.69938
G1 X87.869 Y27.486 E11.71948
G1 X87.466 Y27.788 E11.73882
G1 X87.001 Y28.084 E11.76
G1 X86.142 Y28.544 E11.79743
G1 X85.494 Y28.814 E11.8244
G1 X84.561 Y29.101 E11.8619
G1 X83.854 Y29.244 E11.88961
G1 X82.877 Y29.342 E11.92733
G1 X82.169 Y29.344 E11.95453
G1 X81.191 Y29.251 E11.99227
G1 X80.488 Y29.113 E12.01979
G1 X79.553 Y28.832 E12.05729
G1 X78.895 Y28.562 E12.08461
G1 X78.026 Y28.101 E12.1224
G1 X77.43 Y27.704 E12.14991
G1 X76.672 Y27.085 E12.18751
G1 X76.165 Y26.581 E12.21497
G1 X75.542 Y25.825 E12.2526
G1 X75.144 Y25.232 E12.28004
G1 X74.68 Y24.368 E12.31771
G1 X74.408 Y23.716 E12.34485
G1 X74.121 Y22.783 E12.38235
G1 X73.978 Y22.077 E12.41002
G1 X73.88 Y21.102 E12.44767
G1 X73.878 Y20.394 E12.47487
G1 X73.971 Y19.413 E12.51272
G1 X74.109 Y18.708 E12.54032
M204 S3000
M205 X10 Y10
G0 F1440 X74.646 Y18.87
M204 S1800
M205 X8 Y8
G1 F2400 X74.927 Y17.936 E12.57779
G1 X75.155 Y17.38 E12.60087
G1 X75.616 Y16.511 E12.63866
G1 X75.951 Y16.007 E12.66191
G1 X76.568 Y15.251 E12.6994
G1 X76.994 Y14.822 E12.72262
G1 X77.749 Y14.199 E12.76022
G1 X78.251 Y13.862 E12.78345
G1 X79.116 Y13.397 E12.82118
G1 X80.01 Y13.039 E12.85817
G1 X81.396 Y12.73 E12.91272
G1 X81.975 Y12.671 E12.93508
G1 X82.948 Y12.665 E12.97246
G1 X83.557 Y12.722 E12.99596
G1 X84.521 Y12.91 E13.03369
G1 X85.097 Y13.082 E13.05678
G1 X86.011 Y13.456 E13.09472
G1 X86.874 Y13.932 E13.13258
G1 X87.976 Y14.794 E13.18633
G1 X88.4 Y15.216 E13.20931
G1 X89.023 Y15.971 E13.24691
G1 X89.36 Y16.473 E13.27014
G1 X89.826 Y17.34 E13.30795
G1 X90 Y17.757 E13.32531
G1 X90.157 Y17.377 E13.3411
G1 X90.617 Y16.512 E13.37874
G1 X90.948 Y16.012 E13.40177
G1 X91.569 Y15.25 E13.43953
G1 X91.996 Y14.821 E13.46279
G1 X92.748 Y14.2 E13.50025
G1 X93.251 Y13.862 E13.52353
G1 X94.116 Y13.397 E13.56126
G1 X95.01 Y13.039 E13.59825
G1 X96.396 Y12.73 E13.65281
G1 X96.975 Y12.671 E13.67516
G1 X97.948 Y12.665 E13.71254
G1 X98.557 Y12.722 E13.73604
G1 X99.521 Y12.91 E13.77377
G1 X100.096 Y13.082 E13.79683
G1 X101.006 Y13.454 E13.83459
G1 X101.544 Y13.739 E13.85798
G1 X102.365 Y14.284 E13.89584
G1 X102.834 Y14.666 E13.91907
G1 X103.525 Y15.353 E13.9565
G1 X103.91 Y15.82 E13.97975
G1 X104.456 Y16.633 E14.01738
G1 X104.74 Y17.161 E14.04041
G1 X104.995 Y17.77 E14.06577
G1 X105.157 Y17.377 E14.0821
G1 X105.617 Y16.512 E14.11974
G1 X105.948 Y16.012 E14.14277
G1 X106.569 Y15.25 E14.18053
G1 X106.996 Y14.821 E14.20379
G1 X107.748 Y14.2 E14.24125
G1 X108.251 Y13.862 E14.26453
G1 X109.116 Y13.397 E14.30226
G1 X110.01 Y13.039 E14.33925
G1 X111.396 Y12.73 E14.3938
G1 X111.975 Y12.671 E14.41616
G1 X112.948 Y12.665 E14.45354
G1 X113.557 Y12.722 E14.47704
G1 X114.521 Y12.91 E14.51477
G1 X115.097 Y13.082 E14.53786
G1 X116.011 Y13.456 E14.5758
G1 X116.874 Y13.932 E14.61366
G1 X117.976 Y14.794 E14.66741
G1 X118.399 Y15.214 E14.6903
G1 X119.021 Y15.967 E14.72782
G1 X119.554 Y16.788 E14.76543
G1 X119.996 Y17.767 E14.80669
G1 X120.155 Y17.38 E14.82276
G1 X120.616 Y16.511 E14.86055
G1 X120.951 Y16.007 E14.8838
G1 X121.568 Y15.251 E14.92129
G1 X121.994 Y14.822 E14.94451
G1 X122.749 Y14.199 E14.98212
G1 X123.251 Y13.862 E15.00534
G1 X124.116 Y13.397 E15.04307
G1 X125.01 Y13.039 E15.08006
G1 X126.396 Y12.73 E15.13462
G1 X126.975 Y12.671 E15.15697
G1 X127.948 Y12.665 E15.19435
G1 X128.557 Y12.722 E15.21785
G1 X129.521 Y12.91 E15.25558
G1 X130.098 Y13.082 E15.27871
G1 X131.007 Y13.454 E15.31644
G1 X131.54 Y13.737 E15.33962
G1 X132.357 Y14.278 E15.37726
G1 X133.089 Y14.889 E15.41389
G1 X134.028 Y15.977 E15.4691
G1 X134.36 Y16.473 E15.49203
G1 X134.826 Y17.34 E15.52984
G1 X135.057 Y17.892 E15.55283
G1 X135.344 Y18.824 E15.59029
G1 X135.464 Y19.421 E15.61369
G1 X135.562 Y20.394 E15.65125
G1 X135.551 Y21.363 E15.68848
G1 X135.31 Y22.752 E15.74264
G1 X135.14 Y23.317 E15.7653
G1 X134.768 Y24.227 E15.80307
G1 X134.485 Y24.762 E15.82632
G1 X133.944 Y25.579 E15.86396
G1 X133.334 Y26.309 E15.90051
G1 X132.248 Y27.247 E15.95563
G1 X131.749 Y27.582 E15.97872
G1 X130.882 Y28.048 E16.01653
G1 X130.33 Y28.279 E16.03952
G1 X129.397 Y28.566 E16.07702
G1 X128.798 Y28.687 E16.1005
G1 X127.821 Y28.785 E16.13822
G1 X127.222 Y28.786 E16.16123
G1 X126.244 Y28.693 E16.19897
G1 X125.65 Y28.577 E16.22222
G1 X124.715 Y28.296 E16.25972
G1 X124.158 Y28.067 E16.28286
G1 X123.289 Y27.606 E16.32065
G1 X122.784 Y27.271 E16.34393
G1 X122.026 Y26.652 E16.38152
G1 X121.597 Y26.225 E16.40478
G1 X120.974 Y25.469 E16.44241
