;FLAVOR:Marlin
;TIME:4601
;Filament used: 5.31396m
;Layer height: 0.3
;MINX:28.3
;MINY:23.379
;MINZ:0.15
;MAXX:181.7
;MAXY:48.779
;MAXZ:6.825
;Generated with Cura_SteamEngine 4.5.0
M140 S60
M105
M190 S60
M104 S205
M105
M109 S205
M82 ;absolute extrusion mode
G21 ;metric values
G90 ;absolute positioning
M82 ;set extruder to absolute mode
M107 ;start with the fan off
G28 X0 Y0 ;move X/Y to min endstops
G28 Z0 ;move Z to min endstops
G1 Z15.0 F80 ;move the platform down 15mm
G92 E0 ;zero the extruded length
G1 F200 E3 ;extrude 3mm of feed stock
G92 E0 ;zero the extruded length again
G1 F80
G0 Y20 F80
M117 Printing...
G5
G92 E0
G92 E0
G1 F2400 E-6
;LAYER_COUNT:23
;LAYER:0
M106 S255
M204 S3000
M205 X10 Y10
G1 F600 Z0.225
G0 F1440 X29.261 Y25.07 Z0.225
M204 S1800
M205 X8 Y8
;TYPE:SKIRT
G1 F600 Z0.15
G1 F2400 E0
G1 X29.694 Y24.609 E0.0243
G1 X30.131 Y24.229 E0.04654
G1 X30.616 Y23.912 E0.0688
G1 X31.14 Y23.665 E0.09106
G1 X31.693 Y23.493 E0.1133
G1 X32.265 Y23.398 E0.13558
G1 X177.332 Y23.379 E5.70839
G1 X177.91 Y23.419 E5.73065
G1 X178.477 Y23.538 E5.75291
G1 X179.022 Y23.734 E5.77516
G1 X179.535 Y24.003 E5.79741
G1 X180.006 Y24.34 E5.81966
G1 X180.426 Y24.739 E5.84191
G1 X180.788 Y25.192 E5.86419
G1 X181.083 Y25.69 E5.88642
G1 X181.308 Y26.224 E5.90868
G1 X181.456 Y26.784 E5.93093
G1 X181.532 Y27.537 E5.96001
G1 X181.7 Y44.373 E6.6068
G1 X181.666 Y44.951 E6.62904
G1 X181.552 Y45.519 E6.6513
G1 X181.362 Y46.067 E6.67358
G1 X181.098 Y46.582 E6.69581
G1 X180.765 Y47.057 E6.7181
G1 X180.306 Y47.549 E6.74395
G1 X179.869 Y47.929 E6.76619
G1 X179.384 Y48.246 E6.78845
G1 X178.86 Y48.493 E6.8107
G1 X178.307 Y48.665 E6.83295
G1 X177.735 Y48.76 E6.85523
G1 X32.669 Y48.779 E12.428
G1 X32.091 Y48.739 E12.45026
G1 X31.524 Y48.62 E12.47252
G1 X30.979 Y48.424 E12.49477
G1 X30.466 Y48.155 E12.51702
G1 X29.995 Y47.818 E12.53927
G1 X29.535 Y47.385 E12.56353
G1 X29.155 Y46.948 E12.58578
G1 X28.838 Y46.463 E12.60804
G1 X28.591 Y45.939 E12.63029
G1 X28.419 Y45.386 E12.65254
G1 X28.324 Y44.814 E12.67482
G1 X28.3 Y27.744 E13.33057
G1 X28.34 Y27.166 E13.35283
G1 X28.459 Y26.599 E13.37508
G1 X28.655 Y26.054 E13.39733
G1 X28.923 Y25.541 E13.41957
G1 X29.261 Y25.07 E13.44184
M204 S3000
M205 X10 Y10
G0 F1440 X29.926 Y25.169
M204 S1800
M205 X8 Y8
G1 F2400 X30.499 Y24.653 E13.47146
G1 X30.955 Y24.365 E13.49218
G1 X31.448 Y24.148 E13.51287
G1 X31.968 Y24.006 E13.53358
G1 X32.664 Y23.939 E13.56044
G1 X177.332 Y23.939 E19.11792
G1 X177.87 Y23.979 E19.13865
G1 X178.396 Y24.098 E19.15937
G1 X178.898 Y24.293 E19.18005
G1 X179.367 Y24.561 E19.20081
G1 X179.79 Y24.894 E19.22149
G1 X180.16 Y25.287 E19.24222
G1 X180.467 Y25.73 E19.26293
G1 X180.706 Y26.214 E19.28366
G1 X180.871 Y26.727 E19.30436
G1 X180.958 Y27.259 E19.32507
G1 X181.14 Y44.379 E19.98278
G1 X181.105 Y44.917 E20.00349
G1 X180.992 Y45.444 E20.0242
G1 X180.801 Y45.949 E20.04494
G1 X180.538 Y46.419 E20.06563
G1 X180.074 Y46.989 E20.09386
G1 X179.501 Y47.505 E20.12349
G1 X179.045 Y47.793 E20.1442
G1 X178.552 Y48.01 E20.1649
G1 X178.032 Y48.152 E20.1856
G1 X177.336 Y48.219 E20.21247
G1 X32.669 Y48.219 E25.76991
G1 X32.131 Y48.179 E25.79064
G1 X31.605 Y48.06 E25.81136
G1 X31.103 Y47.865 E25.83204
G1 X30.634 Y47.597 E25.8528
G1 X30.095 Y47.153 E25.87962
G1 X29.579 Y46.58 E25.90924
G1 X29.291 Y46.124 E25.92996
G1 X29.074 Y45.631 E25.95065
G1 X28.932 Y45.111 E25.97136
G1 X28.865 Y44.416 E25.99818
G1 X28.86 Y27.744 E26.63865
G1 X28.9 Y27.206 E26.65937
G1 X29.019 Y26.68 E26.68009
G1 X29.214 Y26.178 E26.70078
G1 X29.481 Y25.709 E26.72151
G1 X29.926 Y25.169 E26.74839
M204 S3000
M205 X10 Y10
G0 F1440 X30.038 Y25.892
M204 S1800
M205 X8 Y8
G1 F2400 X30.486 Y25.401 E26.77392
G1 X30.864 Y25.08 E26.79297
G1 X31.288 Y24.823 E26.81202
G1 X31.749 Y24.638 E26.8311
G1 X32.232 Y24.529 E26.85012
G1 X32.664 Y24.499 E26.86676
G1 X177.332 Y24.499 E32.42425
G1 X178.308 Y24.658 E32.46223
G1 X178.764 Y24.852 E32.48127
G1 X179.183 Y25.117 E32.50032
G1 X179.554 Y25.447 E32.51939
G1 X179.868 Y25.831 E32.53845
G1 X180.116 Y26.261 E32.55752
G1 X180.291 Y26.724 E32.57653
G1 X180.39 Y27.211 E32.59562
G1 X180.58 Y44.384 E33.25537
G1 X180.545 Y44.879 E33.27443
G1 X180.431 Y45.362 E33.2935
G1 X180.241 Y45.82 E33.31255
G1 X179.98 Y46.242 E33.33161
G1 X179.514 Y46.757 E33.35829
G1 X179.136 Y47.078 E33.37734
G1 X178.712 Y47.335 E33.39639
G1 X178.251 Y47.52 E33.41547
G1 X177.768 Y47.629 E33.43449
G1 X177.336 Y47.659 E33.45112
G1 X32.669 Y47.659 E39.00857
G1 X32.175 Y47.619 E39.02761
G1 X31.693 Y47.5 E39.04668
G1 X31.237 Y47.306 E39.06572
G1 X30.818 Y47.041 E39.08477
G1 X30.327 Y46.593 E39.1103
G1 X30.006 Y46.215 E39.12935
G1 X29.749 Y45.791 E39.1484
G1 X29.564 Y45.33 E39.16748
G1 X29.455 Y44.847 E39.1865
G1 X29.425 Y44.416 E39.2031
G1 X29.42 Y27.744 E39.84356
G1 X29.46 Y27.25 E39.8626
G1 X29.578 Y26.768 E39.88166
G1 X29.773 Y26.312 E39.90071
G1 X30.038 Y25.892 E39.91979
M204 S3000
M205 X10 Y10
G0 F1440 X30.718 Y25.961
M204 S1800
M205 X8 Y8
G1 F2400 X31.226 Y25.509 E39.94591
G1 X31.616 Y25.287 E39.96315
G1 X32.039 Y25.138 E39.98038
G1 X32.664 Y25.059 E40.00458
G1 X177.332 Y25.059 E45.56207
G1 X178.211 Y25.217 E45.59638
G1 X178.616 Y25.411 E45.61363
G1 X178.98 Y25.673 E45.63086
G1 X179.292 Y25.995 E45.64808
G1 X179.542 Y26.368 E45.66533
G1 X179.722 Y26.779 E45.68257
G1 X179.826 Y27.215 E45.69979
G1 X180.02 Y44.39 E46.35961
G1 X179.984 Y44.837 E46.37684
G1 X179.87 Y45.271 E46.39408
G1 X179.681 Y45.677 E46.41128
G1 X179.282 Y46.197 E46.43646
G1 X178.774 Y46.649 E46.46258
G1 X178.384 Y46.871 E46.47982
G1 X177.961 Y47.02 E46.49705
G1 X177.336 Y47.099 E46.52125
G1 X32.669 Y47.099 E52.0787
G1 X32.222 Y47.059 E52.09594
G1 X31.79 Y46.941 E52.11315
G1 X31.385 Y46.747 E52.1304
G1 X30.887 Y46.361 E52.1546
G1 X30.435 Y45.853 E52.18072
G1 X30.213 Y45.463 E52.19796
G1 X30.064 Y45.04 E52.21519
G1 X29.985 Y44.416 E52.23935
G1 X29.98 Y27.744 E52.87982
G1 X30.02 Y27.297 E52.89706
G1 X30.138 Y26.864 E52.9143
G1 X30.331 Y26.46 E52.9315
G1 X30.718 Y25.961 E52.95575
M204 S3000
M205 X10 Y10
G0 F1440 X30.889 Y26.627
M204 S1800
M205 X8 Y8
G1 F2400 X31.278 Y26.193 E52.97814
G1 X31.584 Y25.943 E52.99332
G1 X31.935 Y25.76 E53.00853
G1 X32.315 Y25.65 E53.02373
G1 X32.664 Y25.619 E53.03719
G1 X177.332 Y25.619 E58.59467
G1 X178.103 Y25.777 E58.62491
G1 X178.449 Y25.968 E58.64009
G1 X178.75 Y26.225 E58.65529
G1 X178.992 Y26.538 E58.67049
G1 X179.168 Y26.892 E58.68568
G1 X179.268 Y27.275 E58.70089
G1 X179.46 Y44.395 E59.3586
G1 X179.424 Y44.789 E59.3738
G1 X179.31 Y45.168 E59.389
G1 X179.122 Y45.516 E59.4042
G1 X178.722 Y45.965 E59.4273
G1 X178.416 Y46.215 E59.44248
G1 X178.065 Y46.398 E59.45768
G1 X177.685 Y46.508 E59.47288
G1 X177.336 Y46.539 E59.48634
G1 X32.669 Y46.539 E65.04379
G1 X32.276 Y46.499 E65.05897
G1 X31.898 Y46.381 E65.07418
G1 X31.552 Y46.19 E65.08936
G1 X31.119 Y45.801 E65.11172
G1 X30.869 Y45.495 E65.1269
G1 X30.686 Y45.144 E65.14211
G1 X30.576 Y44.764 E65.1573
G1 X30.545 Y44.416 E65.17073
G1 X30.54 Y27.744 E65.81119
G1 X30.58 Y27.35 E65.8264
G1 X30.698 Y26.973 E65.84158
G1 X30.889 Y26.627 E65.85676
M204 S3000
M205 X10 Y10
G0 F1440 X31.257 Y27.099
M204 S1800
M205 X8 Y8
G1 F2400 X31.674 Y26.589 E65.88207
G1 X31.937 Y26.383 E65.8949
G1 X32.241 Y26.244 E65.90774
G1 X32.664 Y26.179 E65.92418
G1 X177.332 Y26.179 E71.48167
G1 X177.976 Y26.336 E71.50713
G1 X178.253 Y26.524 E71.51999
G1 X178.476 Y26.772 E71.53281
G1 X178.635 Y27.066 E71.54565
G1 X178.732 Y27.565 E71.56517
G1 X178.9 Y44.401 E72.21197
G1 X178.863 Y44.733 E72.2248
G1 X178.749 Y45.047 E72.23763
G1 X178.326 Y45.569 E72.26344
G1 X178.063 Y45.775 E72.27628
G1 X177.759 Y45.914 E72.28912
G1 X177.336 Y45.979 E72.30556
G1 X32.669 Y45.979 E77.86301
G1 X32.337 Y45.939 E77.87586
G1 X32.025 Y45.822 E77.88866
G1 X31.515 Y45.405 E77.91396
G1 X31.309 Y45.142 E77.9268
G1 X31.17 Y44.838 E77.93964
G1 X31.105 Y44.415 E77.95608
G1 X31.1 Y27.743 E78.59654
G1 X31.14 Y27.412 E78.60935
G1 X31.257 Y27.099 E78.62219
M204 S3000
M205 X10 Y10
G0 F1440 X31.906 Y27.149
M204 S1800
M205 X8 Y8
G1 F2400 X32.279 Y26.833 E78.64097
G1 X32.664 Y26.739 E78.65619
G1 X177.332 Y26.739 E84.21368
G1 X177.819 Y26.894 E84.23331
G1 X178.004 Y27.075 E84.24325
G1 X178.125 Y27.303 E84.25317
G1 X178.172 Y27.571 E84.26362
G1 X178.34 Y44.407 E84.91042
G1 X178.303 Y44.662 E84.92031
G1 X178.094 Y45.009 E84.93588
G1 X177.721 Y45.325 E84.95466
G1 X177.336 Y45.419 E84.96988
G1 X32.669 Y45.419 E90.52733
G1 X32.414 Y45.379 E90.53724
G1 X32.075 Y45.173 E90.55248
G1 X31.759 Y44.8 E90.57126
G1 X31.665 Y44.415 E90.58649
G1 X31.66 Y27.743 E91.22695
G1 X31.7 Y27.488 E91.23687
G1 X31.906 Y27.149 E91.2521
M204 S3000
M205 X10 Y10
G0 F1440 X32.302 Y27.545
M204 S1800
M205 X8 Y8
G1 F2400 X32.466 Y27.381 E91.26101
G1 X32.664 Y27.299 E91.26925
G1 X177.332 Y27.299 E96.82673
G1 X177.578 Y27.445 E96.83772
G1 X177.612 Y27.576 E96.84292
G1 X177.78 Y44.412 E97.48972
G1 X177.698 Y44.613 E97.49806
G1 X177.534 Y44.777 E97.50697
G1 X177.336 Y44.859 E97.5152
G1 X32.669 Y44.859 E103.07265
G1 X32.471 Y44.777 E103.08088
G1 X32.307 Y44.613 E103.08979
G1 X32.225 Y44.415 E103.09802
G1 X32.22 Y27.743 E103.73849
G1 X32.302 Y27.545 E103.74672
M204 S3000
M205 X10 Y10
G1 F2400 E97.74672
;MESH:cluster-3.0-botonera-delantera.stl
G0 F1440 X33.154 Y28.233
G0 X46.015 Y30.995
G0 X46.988 Y31.289
G0 X47.884 Y31.77
G0 X48.671 Y32.418
G0 X49.31 Y33.197
G0 X49.698 Y33.925
G0 X50.134 Y35.021
G0 X49.694 Y35.153
M204 S1800
M205 X8 Y8
;TYPE:WALL-OUTER
G1 F2400 E103.74672
G1 F900 X49.42 Y34.248 E103.78304
G1 X48.978 Y33.422 E103.81903
G1 X48.387 Y32.701 E103.85484
G1 X47.663 Y32.105 E103.89087
G1 X46.831 Y31.659 E103.92713
G1 X45.939 Y31.389 E103.96293
G1 X45 Y31.296 E103.99918
G1 X44.067 Y31.387 E104.0352
G1 X43.175 Y31.656 E104.07099
G1 X42.348 Y32.098 E104.10701
G1 X41.617 Y32.696 E104.14329
G1 X41.026 Y33.417 E104.1791
G1 X40.583 Y34.243 E104.21511
G1 X40.31 Y35.14 E104.25113
G1 X40.217 Y36.072 E104.28711
G1 X40.306 Y37.005 E104.32311
G1 X40.577 Y37.905 E104.35922
G1 X41.022 Y38.736 E104.39543
G1 X41.617 Y39.462 E104.43149
G1 X42.343 Y40.057 E104.46755
G1 X43.164 Y40.496 E104.50332
G1 X44.061 Y40.769 E104.53934
G1 X45 Y40.863 E104.57559
G1 X45.927 Y40.773 E104.61137
G1 X46.826 Y40.502 E104.64744
G1 X47.657 Y40.057 E104.68365
G1 X48.383 Y39.462 E104.71971
G1 X48.974 Y38.741 E104.75552
G1 X49.42 Y37.91 E104.79175
G1 X49.69 Y37.018 E104.82756
G1 X49.782 Y36.086 E104.86353
G1 X49.694 Y35.153 E104.89953
M204 S3000
M205 X10 Y10
G0 F1440 X49.637 Y34.962
G0 X50.076 Y34.831
G0 X125.489 Y30.919
G0 X126.508 Y30.919
G0 X127.507 Y31.12
G0 X128.45 Y31.511
G0 X129.288 Y32.072
G0 X130.01 Y32.796
G0 X130.571 Y33.635
G0 X130.889 Y34.404
G0 X131.22 Y35.619
G0 X130.761 Y35.617
M204 S1800
M205 X8 Y8
G1 F900 X130.579 Y34.697 E104.93556
G1 X130.218 Y33.824 E104.97185
G1 X129.701 Y33.05 E105.00761
G1 X129.034 Y32.382 E105.04387
G1 X128.259 Y31.863 E105.0797
G1 X127.393 Y31.504 E105.11572
G1 X126.468 Y31.318 E105.15196
G1 X125.531 Y31.318 E105.18796
G1 X124.616 Y31.499 E105.22379
G1 X123.744 Y31.86 E105.26004
G1 X122.965 Y32.381 E105.29605
G1 X122.306 Y33.039 E105.33182
G1 X121.783 Y33.819 E105.3679
G1 X121.424 Y34.685 E105.40391
G1 X121.238 Y35.61 E105.44016
G1 X121.237 Y36.541 E105.47592
G1 X121.419 Y37.461 E105.51195
G1 X121.78 Y38.334 E105.54824
G1 X122.297 Y39.108 E105.58399
G1 X122.964 Y39.776 E105.62026
G1 X123.739 Y40.295 E105.65609
G1 X124.605 Y40.654 E105.6921
G1 X125.524 Y40.838 E105.72811
G1 X126.467 Y40.84 E105.76433
G1 X127.382 Y40.659 E105.80016
G1 X128.254 Y40.298 E105.83642
G1 X129.033 Y39.777 E105.87242
G1 X129.692 Y39.119 E105.9082
G1 X130.218 Y38.334 E105.9445
G1 X130.574 Y37.473 E105.98029
G1 X130.758 Y36.554 E106.01629
G1 X130.761 Y35.617 E106.05229
M204 S3000
M205 X10 Y10
G0 F1440 X130.723 Y35.421
G0 X131.174 Y35.333
G0 X134.71 Y32.073
G0 X135.56 Y31.504
G0 X136.325 Y31.189
G0 X137.539 Y30.858
G0 X137.537 Y31.317
M204 S1800
M205 X8 Y8
G1 F900 X136.617 Y31.499 E106.08832
G1 X135.749 Y31.857 E106.12438
G1 X134.964 Y32.382 E106.16066
G1 X134.302 Y33.044 E106.19663
G1 X133.78 Y33.824 E106.23268
G1 X133.421 Y34.69 E106.2687
G1 X133.24 Y35.604 E106.30449
G1 X133.238 Y36.547 E106.34072
G1 X133.419 Y37.462 E106.37655
G1 X133.78 Y38.334 E106.4128
G1 X134.297 Y39.108 E106.44856
G1 X134.964 Y39.776 E106.48482
G1 X135.739 Y40.295 E106.52065
G1 X136.61 Y40.657 E106.55689
G1 X137.524 Y40.838 E106.59268
G1 X138.467 Y40.84 E106.62891
G1 X139.388 Y40.657 E106.66498
G1 X140.254 Y40.298 E106.70099
G1 X141.028 Y39.781 E106.73675
G1 X141.692 Y39.119 E106.77277
G1 X142.215 Y38.339 E106.80885
G1 X142.574 Y37.473 E106.84486
G1 X142.758 Y36.554 E106.88086
G1 X142.76 Y35.611 E106.91709
G1 X142.579 Y34.697 E106.95288
G1 X142.221 Y33.829 E106.98895
G1 X141.697 Y33.045 E107.02518
G1 X141.039 Y32.386 E107.06095
G1 X140.254 Y31.86 E107.09725
G1 X139.393 Y31.504 E107.13304
G1 X138.474 Y31.32 E107.16905
G1 X137.537 Y31.317 E107.20504
M204 S3000
M205 X10 Y10
G0 F1440 X137.341 Y31.355
G0 X137.253 Y30.904
G0 X138.514 Y30.921
G0 X139.506 Y31.12
G0 X140.447 Y31.509
G0 X141.291 Y32.074
G0 X141.869 Y32.654
G0 X144.778 Y36.539
G0 X145.237 Y36.541
M204 S1800
M205 X8 Y8
G1 F900 X145.421 Y37.468 E107.24135
G1 X145.777 Y38.329 E107.27714
G1 X146.301 Y39.113 E107.31337
G1 X146.959 Y39.772 E107.34914
G1 X147.739 Y40.295 E107.38522
G1 X148.605 Y40.654 E107.42123
G1 X149.524 Y40.838 E107.45724
G1 X150.467 Y40.84 E107.49346
G1 X151.388 Y40.657 E107.52953
G1 X152.249 Y40.301 E107.56532
G1 X153.028 Y39.781 E107.60131
G1 X153.692 Y39.119 E107.63732
G1 X154.215 Y38.339 E107.6734
G1 X154.574 Y37.473 E107.70941
G1 X154.758 Y36.554 E107.74542
G1 X154.761 Y35.617 E107.78141
G1 X154.579 Y34.697 E107.81744
G1 X154.218 Y33.824 E107.85373
G1 X153.701 Y33.05 E107.88949
G1 X153.034 Y32.382 E107.92575
G1 X152.259 Y31.863 E107.96158
G1 X151.393 Y31.504 E107.9976
G1 X150.474 Y31.32 E108.0336
G1 X149.531 Y31.318 E108.06983
G1 X148.617 Y31.499 E108.10562
G1 X147.75 Y31.857 E108.14165
G1 X146.97 Y32.377 E108.17767
G1 X146.302 Y33.044 E108.21393
G1 X145.783 Y33.819 E108.24976
G1 X145.421 Y34.69 E108.286
G1 X145.24 Y35.604 E108.32179
G1 X145.237 Y36.541 E108.35779
M204 S3000
M205 X10 Y10
G0 F1440 X145.275 Y36.737
G0 X144.824 Y36.825
G0 X144.841 Y35.563
G0 X145.036 Y34.575
G0 X145.429 Y33.63
G0 X145.992 Y32.79
G0 X146.716 Y32.068
G0 X147.561 Y31.503
G0 X148.506 Y31.113
G0 X149.303 Y30.957
G0 X160.644 Y30.831
G0 X160.982 Y31.141
M204 S1800
M205 X8 Y8
G1 F900 X160.534 Y31.748 E108.38677
G1 X160.14 Y32.401 E108.41606
G1 X159.809 Y33.101 E108.44581
G1 X159.556 Y33.811 E108.47477
G1 X159.366 Y34.56 E108.50445
G1 X159.256 Y35.307 E108.53346
G1 X159.216 Y36.079 E108.56315
G1 X159.253 Y36.832 E108.59211
G1 X159.364 Y37.588 E108.62147
G1 X159.552 Y38.338 E108.65117
G1 X159.805 Y39.049 E108.68016
G1 X160.135 Y39.748 E108.70986
G1 X160.523 Y40.394 E108.7388
G1 X160.976 Y41.01 E108.76818
G1 X161.496 Y41.582 E108.79787
G1 X162.054 Y42.09 E108.82686
G1 X162.675 Y42.55 E108.85655
G1 X163.322 Y42.938 E108.88553
G1 X164.021 Y43.269 E108.91524
G1 X164.731 Y43.522 E108.9442
G1 X165.48 Y43.712 E108.97388
G1 X165.667 Y43.74 E108.98115
G1 X166.227 Y43.822 E109.00289
G1 X166.989 Y43.861 E109.0322
G1 X167.752 Y43.825 E109.06154
G1 X168.33 Y43.74 E109.08399
G1 X168.517 Y43.712 E109.09125
G1 X169.249 Y43.529 E109.12024
G1 X169.977 Y43.269 E109.14993
G1 X170.668 Y42.943 E109.17928
G1 X171.314 Y42.555 E109.20823
G1 X171.93 Y42.102 E109.23761
G1 X172.502 Y41.582 E109.2673
G1 X173.016 Y41.017 E109.29664
G1 X173.47 Y40.403 E109.32598
G1 X173.858 Y39.756 E109.35496
G1 X174.189 Y39.057 E109.38467
G1 X174.442 Y38.347 E109.41363
G1 X174.632 Y37.598 E109.44331
G1 X174.742 Y36.851 E109.47232
G1 X174.781 Y36.079 E109.50201
G1 X174.744 Y35.317 E109.53132
G1 X174.632 Y34.56 E109.56072
G1 X174.449 Y33.829 E109.58966
G1 X174.193 Y33.109 E109.61902
G1 X173.863 Y32.41 E109.64871
G1 X173.475 Y31.763 E109.67769
G1 X173.016 Y31.141 E109.70739
G1 X172.502 Y30.576 E109.73673
G1 X171.944 Y30.068 E109.76572
G1 X171.323 Y29.608 E109.79541
G1 X170.676 Y29.22 E109.82439
G1 X169.977 Y28.889 E109.8541
G1 X169.267 Y28.636 E109.88306
G1 X168.518 Y28.446 E109.91274
G1 X168.331 Y28.418 E109.92001
