;FLAVOR:Marlin
;TIME:977
;Filament used: 0.551892m
;Layer height: 0.12
;MINX:93.8
;MINY:24.884
;MINZ:0.15
;MAXX:116.2
;MAXY:57.284
;MAXZ:8.43
;Generated with Cura_SteamEngine 4.5.0
M140 S60
M105
M190 S60
M104 S205
M105
M109 S205
M82 ;absolute extrusion mode
G21 ;metric values
G90 ;absolute positioning
M82 ;set extruder to absolute mode
M107 ;start with the fan off
G28 X0 Y0 ;move X/Y to min endstops
G28 Z0 ;move Z to min endstops
G1 Z15.0 F80 ;move the platform down 15mm
G92 E0 ;zero the extruded length
G1 F200 E3 ;extrude 3mm of feed stock
G92 E0 ;zero the extruded length again
G1 F80
G0 Y20 F80
M117 Printing...
G5
G92 E0
G92 E0
G1 F2400 E-6
;LAYER_COUNT:70
;LAYER:0
M106 S255
M204 S3000
M205 X10 Y10
G1 F600 Z0.225
G0 F1440 X93.959 Y28.103 Z0.225
M204 S1800
M205 X8 Y8
;TYPE:SKIRT
G1 F600 Z0.15
G1 F2400 E0
G1 X94.155 Y27.558 E0.02225
G1 X94.424 Y27.045 E0.0445
G1 X94.761 Y26.574 E0.06675
G1 X95.194 Y26.114 E0.09102
G1 X95.631 Y25.734 E0.11326
G1 X96.116 Y25.417 E0.13552
G1 X96.64 Y25.17 E0.15778
G1 X97.193 Y24.998 E0.18002
G1 X97.765 Y24.903 E0.2023
G1 X102.684 Y24.884 E0.39127
G1 X103.262 Y24.924 E0.41352
G1 X103.829 Y25.043 E0.43578
G1 X104.374 Y25.239 E0.45803
G1 X104.887 Y25.508 E0.48028
G1 X105.003 Y25.591 E0.48576
G1 X105.269 Y25.417 E0.49797
G1 X105.793 Y25.17 E0.52022
G1 X106.346 Y24.998 E0.54247
G1 X106.918 Y24.903 E0.56475
G1 X111.836 Y24.884 E0.75368
G1 X112.414 Y24.924 E0.77593
G1 X112.981 Y25.043 E0.79819
G1 X113.526 Y25.239 E0.82044
G1 X114.039 Y25.508 E0.84269
G1 X114.51 Y25.845 E0.86494
G1 X114.97 Y26.278 E0.88921
G1 X115.35 Y26.715 E0.91145
G1 X115.667 Y27.2 E0.93371
G1 X115.914 Y27.724 E0.95597
G1 X116.086 Y28.277 E0.97821
G1 X116.181 Y28.849 E1.00049
G1 X116.2 Y52.92 E1.92519
G1 X116.16 Y53.498 E1.94744
G1 X116.041 Y54.065 E1.9697
G1 X115.845 Y54.61 E1.99195
G1 X115.576 Y55.123 E2.0142
G1 X115.239 Y55.594 E2.03645
G1 X114.806 Y56.054 E2.06072
G1 X114.369 Y56.434 E2.08296
G1 X113.884 Y56.751 E2.10522
G1 X113.36 Y56.998 E2.12748
G1 X112.807 Y57.17 E2.14972
G1 X112.235 Y57.265 E2.172
G1 X98.164 Y57.284 E2.71254
G1 X97.586 Y57.244 E2.7348
G1 X97.019 Y57.125 E2.75706
G1 X96.474 Y56.929 E2.77931
G1 X95.961 Y56.66 E2.80156
G1 X95.49 Y56.323 E2.82381
G1 X95.03 Y55.89 E2.84807
G1 X94.65 Y55.453 E2.87032
G1 X94.333 Y54.968 E2.89258
G1 X94.086 Y54.444 E2.91483
G1 X93.914 Y53.891 E2.93708
G1 X93.819 Y53.319 E2.95936
G1 X93.8 Y29.248 E3.88405
G1 X93.84 Y28.67 E3.90631
G1 X93.959 Y28.103 E3.92857
M204 S3000
M205 X10 Y10
G0 F1440 X94.519 Y28.184
M204 S1800
M205 X8 Y8
G1 F2400 X94.714 Y27.682 E3.94926
G1 X94.982 Y27.213 E3.97001
G1 X95.426 Y26.674 E3.99683
G1 X95.999 Y26.158 E4.02646
G1 X96.455 Y25.87 E4.04717
G1 X96.948 Y25.653 E4.06787
G1 X97.468 Y25.511 E4.08857
G1 X98.164 Y25.444 E4.11543
G1 X102.684 Y25.444 E4.28907
G1 X103.222 Y25.484 E4.3098
G1 X103.748 Y25.603 E4.33051
G1 X104.25 Y25.798 E4.3512
G1 X104.719 Y26.066 E4.37195
G1 X104.995 Y26.293 E4.38568
G1 X105.608 Y25.87 E4.41429
G1 X106.101 Y25.653 E4.43499
G1 X106.621 Y25.511 E4.45569
G1 X107.317 Y25.444 E4.48255
G1 X111.836 Y25.444 E4.65615
G1 X112.374 Y25.484 E4.67688
G1 X112.9 Y25.603 E4.69759
G1 X113.402 Y25.798 E4.71828
G1 X113.871 Y26.066 E4.73903
G1 X114.41 Y26.51 E4.76586
G1 X114.926 Y27.083 E4.79548
G1 X115.214 Y27.539 E4.8162
G1 X115.431 Y28.032 E4.83689
G1 X115.573 Y28.552 E4.8576
G1 X115.64 Y29.248 E4.88446
G1 X115.64 Y52.92 E5.79383
G1 X115.6 Y53.458 E5.81456
G1 X115.481 Y53.984 E5.83527
G1 X115.286 Y54.486 E5.85596
G1 X115.018 Y54.955 E5.87671
G1 X114.574 Y55.494 E5.90354
G1 X114.001 Y56.01 E5.93316
G1 X113.545 Y56.298 E5.95388
G1 X113.052 Y56.515 E5.97457
G1 X112.532 Y56.657 E5.99528
G1 X111.836 Y56.724 E6.02214
G1 X98.164 Y56.724 E6.54736
G1 X97.626 Y56.684 E6.56808
G1 X97.1 Y56.565 E6.5888
G1 X96.598 Y56.37 E6.60949
G1 X96.129 Y56.102 E6.63024
G1 X95.59 Y55.658 E6.65706
G1 X95.074 Y55.085 E6.68669
G1 X94.786 Y54.629 E6.70741
G1 X94.569 Y54.136 E6.7281
G1 X94.427 Y53.616 E6.7488
G1 X94.36 Y52.92 E6.77567
G1 X94.36 Y29.248 E7.68504
G1 X94.4 Y28.71 E7.70576
G1 X94.519 Y28.184 E7.72648
M204 S3000
M205 X10 Y10
G0 F1440 X95.079 Y28.272
M204 S1800
M205 X8 Y8
G1 F2400 X95.273 Y27.816 E7.74551
G1 X95.538 Y27.397 E7.76456
G1 X95.986 Y26.906 E7.79009
G1 X96.364 Y26.585 E7.80914
G1 X96.788 Y26.328 E7.82819
G1 X97.249 Y26.143 E7.84727
G1 X97.732 Y26.034 E7.86629
G1 X98.164 Y26.004 E7.88293
G1 X102.684 Y26.004 E8.05657
G1 X103.66 Y26.163 E8.09456
G1 X104.116 Y26.357 E8.11359
G1 X104.535 Y26.622 E8.13264
G1 X105.001 Y27.045 E8.15681
G1 X105.517 Y26.585 E8.18337
G1 X105.941 Y26.328 E8.20242
G1 X106.402 Y26.143 E8.2215
G1 X106.885 Y26.034 E8.24052
G1 X107.317 Y26.004 E8.25716
G1 X111.836 Y26.004 E8.43076
G1 X112.33 Y26.044 E8.44979
G1 X112.812 Y26.163 E8.46887
G1 X113.268 Y26.357 E8.4879
G1 X113.687 Y26.622 E8.50695
G1 X114.178 Y27.07 E8.53248
G1 X114.499 Y27.448 E8.55153
G1 X114.756 Y27.872 E8.57058
G1 X114.941 Y28.333 E8.58966
G1 X115.05 Y28.816 E8.60868
G1 X115.08 Y29.248 E8.62532
G1 X115.08 Y52.92 E9.53469
G1 X115.04 Y53.414 E9.55373
G1 X114.921 Y53.896 E9.5728
G1 X114.727 Y54.352 E9.59184
G1 X114.462 Y54.771 E9.61088
G1 X114.014 Y55.262 E9.63642
G1 X113.636 Y55.583 E9.65547
G1 X113.212 Y55.84 E9.67451
G1 X112.751 Y56.025 E9.6936
G1 X112.268 Y56.134 E9.71262
G1 X111.836 Y56.164 E9.72925
G1 X98.164 Y56.164 E10.25447
G1 X97.67 Y56.124 E10.27351
G1 X97.188 Y56.005 E10.29258
G1 X96.732 Y55.811 E10.31162
G1 X96.313 Y55.546 E10.33066
G1 X95.822 Y55.098 E10.3562
G1 X95.501 Y54.72 E10.37525
G1 X95.244 Y54.296 E10.39429
G1 X95.059 Y53.835 E10.41338
G1 X94.95 Y53.352 E10.4324
G1 X94.92 Y52.92 E10.44903
G1 X94.92 Y29.248 E11.3584
G1 X94.96 Y28.754 E11.37744
G1 X95.079 Y28.272 E11.39651
M204 S3000
M205 X10 Y10
G0 F1440 X95.638 Y28.369
M204 S1800
M205 X8 Y8
G1 F2400 X95.832 Y27.964 E11.41377
G1 X96.218 Y27.466 E11.43797
G1 X96.726 Y27.014 E11.46409
G1 X97.116 Y26.792 E11.48133
G1 X97.539 Y26.643 E11.49856
G1 X98.164 Y26.564 E11.52276
G1 X102.684 Y26.564 E11.6964
G1 X103.563 Y26.722 E11.73071
G1 X103.968 Y26.916 E11.74796
G1 X104.466 Y27.302 E11.77216
G1 X104.918 Y27.81 E11.79828
G1 X104.997 Y27.948 E11.80439
G1 X105.371 Y27.466 E11.82783
G1 X105.879 Y27.014 E11.85395
G1 X106.269 Y26.792 E11.87119
G1 X106.692 Y26.643 E11.88842
G1 X107.317 Y26.564 E11.91262
G1 X111.836 Y26.564 E12.08622
G1 X112.283 Y26.604 E12.10346
G1 X112.715 Y26.722 E12.12066
G1 X113.12 Y26.916 E12.13791
G1 X113.618 Y27.302 E12.16212
G1 X114.07 Y27.81 E12.18824
G1 X114.292 Y28.2 E12.20548
G1 X114.441 Y28.623 E12.22271
G1 X114.52 Y29.248 E12.24691
G1 X114.52 Y52.92 E13.15628
G1 X114.48 Y53.367 E13.17352
G1 X114.362 Y53.799 E13.19072
G1 X114.168 Y54.204 E13.20797
G1 X113.782 Y54.702 E13.23218
G1 X113.274 Y55.154 E13.2583
G1 X112.884 Y55.376 E13.27554
G1 X112.461 Y55.525 E13.29277
G1 X111.836 Y55.604 E13.31697
G1 X98.164 Y55.604 E13.84218
G1 X97.717 Y55.564 E13.85942
G1 X97.285 Y55.446 E13.87663
G1 X96.88 Y55.252 E13.89388
G1 X96.382 Y54.866 E13.91808
G1 X95.93 Y54.358 E13.94421
G1 X95.708 Y53.968 E13.96144
G1 X95.559 Y53.545 E13.97867
G1 X95.48 Y52.92 E14.00287
G1 X95.48 Y29.248 E14.91224
G1 X95.52 Y28.801 E14.92948
G1 X95.638 Y28.369 E14.94669
M204 S3000
M205 X10 Y10
G0 F1440 X96.08 Y28.855
M204 S1800
M205 X8 Y8
G1 F2400 X96.198 Y28.477 E14.9619
G1 X96.389 Y28.131 E14.97708
G1 X96.778 Y27.698 E14.99944
G1 X97.084 Y27.448 E15.01462
G1 X97.435 Y27.265 E15.02983
G1 X97.815 Y27.155 E15.04503
G1 X98.164 Y27.124 E15.05849
G1 X102.684 Y27.124 E15.23212
G1 X103.455 Y27.282 E15.26236
G1 X103.801 Y27.473 E15.27754
G1 X104.234 Y27.862 E15.2999
G1 X104.484 Y28.168 E15.31508
G1 X104.667 Y28.519 E15.33029
G1 X104.777 Y28.899 E15.34548
G1 X104.808 Y29.248 E15.35894
G1 X104.808 Y39.782 E15.76361
G1 X104.768 Y40.175 E15.77879
G1 X104.49 Y40.931 E15.80973
G1 X104.47 Y41.131 E15.81745
G1 X104.53 Y41.334 E15.82558
G1 X104.657 Y41.492 E15.83337
G1 X104.839 Y41.591 E15.84133
G1 X105.046 Y41.614 E15.84933
G1 X105.251 Y41.554 E15.85754
G1 X105.407 Y41.427 E15.86526
G1 X105.507 Y41.247 E15.87318
G1 X105.53 Y41.034 E15.88141
G1 X105.251 Y40.262 E15.91294
G1 X105.205 Y39.843 E15.92913
G1 X105.193 Y29.25 E16.33607
G1 X105.232 Y28.857 E16.35124
G1 X105.35 Y28.479 E16.36645
G1 X105.541 Y28.133 E16.38163
G1 X105.931 Y27.698 E16.40408
G1 X106.237 Y27.448 E16.41926
G1 X106.588 Y27.265 E16.43446
G1 X106.968 Y27.155 E16.44966
G1 X107.317 Y27.124 E16.46312
G1 X111.836 Y27.124 E16.63672
G1 X112.229 Y27.164 E16.65189
G1 X112.607 Y27.282 E16.66711
G1 X112.953 Y27.473 E16.68229
G1 X113.386 Y27.862 E16.70465
G1 X113.636 Y28.168 E16.71983
G1 X113.819 Y28.519 E16.73504
G1 X113.929 Y28.899 E16.75023
G1 X113.96 Y29.248 E16.76369
G1 X113.96 Y52.92 E17.67306
G1 X113.92 Y53.313 E17.68824
G1 X113.802 Y53.691 E17.70345
G1 X113.611 Y54.037 E17.71863
G1 X113.222 Y54.47 E17.74099
G1 X112.916 Y54.72 E17.75617
G1 X112.565 Y54.903 E17.77138
G1 X112.185 Y55.013 E17.78658
G1 X111.836 Y55.044 E17.80004
G1 X98.164 Y55.044 E18.32525
G1 X97.771 Y55.004 E18.34043
G1 X97.393 Y54.886 E18.35564
G1 X97.047 Y54.695 E18.37082
G1 X96.614 Y54.306 E18.39318
G1 X96.364 Y54 E18.40836
G1 X96.181 Y53.649 E18.42357
G1 X96.071 Y53.269 E18.43877
G1 X96.04 Y52.92 E18.45223
G1 X96.04 Y29.248 E19.3616
G1 X96.08 Y28.855 E19.37677
M204 S3000
M205 X10 Y10
G0 F1440 X96.64 Y28.916
M204 S1800
M205 X8 Y8
G1 F2400 X96.757 Y28.604 E19.38957
G1 X97.174 Y28.094 E19.41488
G1 X97.437 Y27.888 E19.42771
G1 X97.741 Y27.749 E19.44055
G1 X98.164 Y27.684 E19.457
G1 X102.684 Y27.684 E19.63063
G1 X103.328 Y27.841 E19.6561
G1 X103.838 Y28.258 E19.6814
G1 X104.044 Y28.521 E19.69424
G1 X104.183 Y28.825 E19.70708
G1 X104.248 Y29.248 E19.72352
G1 X104.248 Y39.782 E20.12819
G1 X104.208 Y40.114 E20.14103
G1 X103.953 Y40.766 E20.16793
G1 X103.91 Y41.185 E20.18411
G1 X104.032 Y41.597 E20.20062
G1 X104.298 Y41.926 E20.21687
G1 X104.68 Y42.131 E20.23352
G1 X105.101 Y42.174 E20.24978
G1 X105.517 Y42.05 E20.26646
G1 X105.841 Y41.786 E20.28251
G1 X106.047 Y41.402 E20.29925
G1 X106.09 Y40.982 E20.31547
G1 X106.05 Y40.779 E20.32342
G1 X105.787 Y40.091 E20.35171
G1 X105.753 Y29.25 E20.76818
G1 X105.792 Y28.918 E20.78102
G1 X105.909 Y28.605 E20.79386
G1 X106.327 Y28.094 E20.81922
G1 X106.59 Y27.888 E20.83205
G1 X106.894 Y27.749 E20.84489
G1 X107.317 Y27.684 E20.86133
G1 X111.836 Y27.684 E21.03493
G1 X112.168 Y27.724 E21.04778
G1 X112.48 Y27.841 E21.06058
G1 X112.99 Y28.258 E21.08589
G1 X113.196 Y28.521 E21.09872
G1 X113.335 Y28.825 E21.11156
G1 X113.4 Y29.248 E21.128
G1 X113.4 Y52.92 E22.03737
G1 X113.36 Y53.252 E22.05022
G1 X113.243 Y53.564 E22.06302
G1 X112.826 Y54.074 E22.08833
G1 X112.563 Y54.28 E22.10116
G1 X112.259 Y54.419 E22.114
G1 X111.836 Y54.484 E22.13044
G1 X98.164 Y54.484 E22.65566
G1 X97.832 Y54.444 E22.6685
G1 X97.52 Y54.327 E22.6813
G1 X97.01 Y53.91 E22.70661
G1 X96.804 Y53.647 E22.71944
G1 X96.665 Y53.343 E22.73229
G1 X96.6 Y52.92 E22.74873
G1 X96.6 Y29.248 E23.6581
G1 X96.64 Y28.916 E23.67094
M204 S3000
M205 X10 Y10
G0 F1440 X97.2 Y28.993
M204 S1800
M205 X8 Y8
G1 F2400 X97.406 Y28.654 E23.68618
G1 X97.779 Y28.338 E23.70496
G1 X98.164 Y28.244 E23.72019
G1 X102.684 Y28.244 E23.89382
G1 X102.939 Y28.284 E23.90374
G1 X103.278 Y28.49 E23.91898
G1 X103.594 Y28.863 E23.93776
G1 X103.688 Y29.248 E23.95298
G1 X103.688 Y39.782 E24.35765
G1 X103.622 Y40.108 E24.37043
G1 X103.413 Y40.603 E24.39107
G1 X103.35 Y40.924 E24.40364
G1 X103.35 Y41.24 E24.41578
G1 X103.416 Y41.57 E24.4287
G1 X103.538 Y41.865 E24.44097
G1 X103.723 Y42.142 E24.45376
G1 X103.945 Y42.364 E24.46582
G1 X104.218 Y42.547 E24.47845
G1 X104.516 Y42.669 E24.49082
G1 X104.843 Y42.734 E24.50363
G1 X105.158 Y42.734 E24.51573
G1 X105.486 Y42.668 E24.52858
G1 X105.781 Y42.546 E24.54084
G1 X106.056 Y42.363 E24.55353
G1 X106.279 Y42.139 E24.56568
G1 X106.463 Y41.864 E24.57839
G1 X106.585 Y41.566 E24.59076
G1 X106.65 Y41.241 E24.60349
G1 X106.65 Y40.924 E24.61567
G1 X106.589 Y40.613 E24.62784
G1 X106.397 Y40.182 E24.64597
G1 X106.325 Y39.842 E24.65932
G1 X106.313 Y29.249 E25.06625
G1 X106.352 Y28.994 E25.07616
G1 X106.559 Y28.654 E25.09145
G1 X106.932 Y28.338 E25.11023
G1 X107.317 Y28.244 E25.12546
G1 X111.836 Y28.244 E25.29906
G1 X112.091 Y28.284 E25.30897
G1 X112.43 Y28.49 E25.32421
G1 X112.746 Y28.863 E25.34299
G1 X112.84 Y29.248 E25.35822
G1 X112.84 Y52.92 E26.26759
G1 X112.8 Y53.175 E26.2775
G1 X112.594 Y53.514 E26.29274
G1 X112.221 Y53.83 E26.31152
G1 X111.836 Y53.924 E26.32675
G1 X98.164 Y53.924 E26.85196
G1 X97.909 Y53.884 E26.86188
G1 X97.57 Y53.678 E26.87712
G1 X97.254 Y53.305 E26.8959
G1 X97.16 Y52.92 E26.91112
G1 X97.16 Y29.248 E27.82049
G1 X97.2 Y28.993 E27.83041
M204 S3000
M205 X10 Y10
G0 F1440 X97.72 Y29.248
M204 S1800
M205 X8 Y8
G1 F2400 X97.802 Y29.05 E27.83864
G1 X97.966 Y28.886 E27.84755
G1 X98.164 Y28.804 E27.85578
G1 X102.684 Y28.804 E28.02942
G1 X103.046 Y29.05 E28.04623
G1 X103.128 Y29.248 E28.05447
G1 X103.128 Y39.782 E28.45914
G1 X102.876 Y40.438 E28.48613
G1 X102.79 Y40.872 E28.50313
G1 X102.79 Y41.295 E28.51938
G1 X102.878 Y41.734 E28.53658
G1 X103.041 Y42.13 E28.55303
G1 X103.287 Y42.499 E28.57006
G1 X103.586 Y42.797 E28.58628
G1 X103.957 Y43.045 E28.60342
G1 X104.351 Y43.207 E28.61979
G1 X104.79 Y43.294 E28.63698
G1 X105.213 Y43.294 E28.65323
G1 X105.65 Y43.206 E28.67036
G1 X106.046 Y43.043 E28.68681
G1 X106.413 Y42.798 E28.70376
G1 X106.712 Y42.498 E28.72003
G1 X106.961 Y42.126 E28.73723
G1 X107.123 Y41.731 E28.75363
G1 X107.21 Y41.294 E28.77074
G1 X107.21 Y40.872 E28.78696
G1 X107.125 Y40.441 E28.80383
G1 X106.909 Y39.955 E28.82426
G1 X106.873 Y29.248 E29.23558
G1 X106.955 Y29.05 E29.24381
G1 X107.119 Y28.886 E29.25272
G1 X107.317 Y28.804 E29.26095
G1 X111.836 Y28.804 E29.43455
G1 X112.034 Y28.886 E29.44279
G1 X112.198 Y29.05 E29.4517
G1 X112.28 Y29.248 E29.45993
G1 X112.28 Y52.92 E30.3693
G1 X112.198 Y53.118 E30.37753
G1 X112.034 Y53.282 E30.38644
G1 X111.836 Y53.364 E30.39467
G1 X98.164 Y53.364 E30.91989
G1 X97.966 Y53.282 E30.92812
G1 X97.802 Y53.118 E30.93703
G1 X97.72 Y52.92 E30.94527
G1 X97.72 Y29.248 E31.85464
M204 S3000
M205 X10 Y10
G1 F2400 E25.85464
;MESH:cluster-3.0-adaptador-hdmi.stl
G0 F1440 X98.854 Y29.938
G0 X101.734 Y40.005
G0 X102.336 Y40.273
M204 S1800
M205 X8 Y8
;TYPE:WALL-OUTER
G1 F2400 E31.85464
G1 F900 X102.23 Y40.812 E31.87574
G1 X102.23 Y41.357 E31.89668
G1 X102.337 Y41.894 E31.91771
G1 X102.545 Y42.397 E31.93862
G1 X102.85 Y42.853 E31.95969
G1 X103.234 Y43.236 E31.98053
G1 X103.687 Y43.539 E32.00147
G1 X104.193 Y43.748 E32.0225
G1 X104.73 Y43.854 E32.04352
G1 X105.275 Y43.854 E32.06446
G1 X105.81 Y43.747 E32.08542
G1 X106.313 Y43.539 E32.10633
G1 X106.767 Y43.235 E32.12732
G1 X107.151 Y42.85 E32.14821
G1 X107.456 Y42.395 E32.16925
G1 X107.664 Y41.891 E32.1902
G1 X107.77 Y41.354 E32.21122
G1 X107.77 Y40.812 E32.23204
G1 X107.664 Y40.273 E32.25315
G1 X107.433 Y39.754 E32.27497
G1 X107.433 Y29.364 E32.67411
G1 X111.72 Y29.364 E32.83879
G1 X111.72 Y52.804 E33.73925
G1 X98.28 Y52.804 E34.25556
G1 X98.28 Y29.364 E35.15601
G1 X102.568 Y29.364 E35.32074
G1 X102.568 Y39.752 E35.7198
G1 X102.336 Y40.273 E35.74171
M204 S3000
M205 X10 Y10
G0 F1440 X102.298 Y40.469
G0 X101.799 Y40.103
M204 S1800
M205 X8 Y8
;TYPE:WALL-INNER
G1 F900 X101.67 Y40.757 E35.76732
G1 X101.67 Y41.412 E35.79248
G1 X101.799 Y42.057 E35.81775
G1 X102.049 Y42.662 E35.84289
G1 X102.415 Y43.21 E35.86821
G1 X102.877 Y43.671 E35.89328
G1 X103.422 Y44.035 E35.91846
G1 X104.03 Y44.287 E35.94374
G1 X104.675 Y44.414 E35.969
G1 X105.33 Y44.414 E35.99416
G1 X105.973 Y44.285 E36.01935
G1 X106.578 Y44.035 E36.0445
G1 X107.124 Y43.67 E36.06973
G1 X107.586 Y43.207 E36.09486
G1 X107.952 Y42.66 E36.12014
G1 X108.203 Y42.054 E36.14534
G1 X108.33 Y41.409 E36.17059
G1 X108.33 Y40.757 E36.19564
G1 X108.201 Y40.103 E36.22124
G1 X107.993 Y39.634 E36.24095
G1 X107.993 Y29.924 E36.61397
G1 X111.16 Y29.924 E36.73563
G1 X111.16 Y52.244 E37.59306
G1 X98.84 Y52.244 E38.06634
G1 X98.84 Y29.924 E38.92377
G1 X102.008 Y29.924 E39.04547
G1 X102.008 Y39.632 E39.41841
G1 X101.799 Y40.103 E39.43821
M204 S3000
M205 X10 Y10
G0 F1440 X101.271 Y39.936
M204 S1800
M205 X8 Y8
;TYPE:SKIN
G1 F900 X101.12 Y40.704 E39.46827
G1 X101.12 Y41.467 E39.49759
