;FLAVOR:Marlin
;TIME:19135
;Filament used: 12.1104m
;Layer height: 0.18
;MINX:10.853
;MINY:10.853
;MINZ:0.15
;MAXX:199.147
;MAXY:199.147
;MAXZ:2.925
;Generated with Cura_SteamEngine 4.5.0
M140 S60
M105
M190 S60
M104 S205
M105
M109 S205
M82 ;absolute extrusion mode
G21 ;metric values
G90 ;absolute positioning
M82 ;set extruder to absolute mode
M107 ;start with the fan off
G28 X0 Y0 ;move X/Y to min endstops
G28 Z0 ;move Z to min endstops
G1 Z15.0 F80 ;move the platform down 15mm
G92 E0 ;zero the extruded length
G1 F200 E3 ;extrude 3mm of feed stock
G92 E0 ;zero the extruded length again
G1 F80
G0 Y20 F80
M117 Printing...
G5
G92 E0
G92 E0
G1 F2400 E-6
;LAYER_COUNT:16
;LAYER:0
M106 S255
M204 S3000
M205 X10 Y10
G1 F600 Z0.225
G0 F1440 X13.654 Y13.536 Z0.225
M204 S1800
M205 X8 Y8
;TYPE:SKIRT
G1 F600 Z0.15
G1 F2400 E0
G1 X14.245 Y13.003 E0.03057
G1 X14.768 Y12.601 E0.05591
G1 X15.443 Y12.162 E0.08685
G1 X16.023 Y11.847 E0.1122
G1 X16.752 Y11.522 E0.14286
G1 X17.375 Y11.301 E0.16826
G1 X18.155 Y11.092 E0.19928
G1 X18.8 Y10.972 E0.22448
G1 X19.594 Y10.888 E0.25515
G1 X46.271 Y10.854 E1.27996
G1 X189.823 Y10.853 E6.79458
G1 X190.822 Y10.919 E6.83304
G1 X191.367 Y10.999 E6.8542
G1 X192.158 Y11.168 E6.88527
G1 X192.78 Y11.352 E6.91019
G1 X193.528 Y11.638 E6.94095
G1 X194.124 Y11.921 E6.9663
G1 X194.81 Y12.316 E6.99671
G1 X195.357 Y12.692 E7.02221
G1 X195.988 Y13.203 E7.0534
G1 X196.464 Y13.654 E7.07859
G1 X196.997 Y14.245 E7.10916
G1 X197.399 Y14.768 E7.1345
G1 X197.838 Y15.443 E7.16543
G1 X198.153 Y16.023 E7.19079
G1 X198.477 Y16.75 E7.22137
G1 X198.697 Y17.371 E7.24667
G1 X198.907 Y18.153 E7.27778
G1 X199.028 Y18.799 E7.30303
G1 X199.112 Y19.591 E7.33362
G1 X199.146 Y46.271 E8.35855
G1 X199.147 Y189.823 E13.87316
G1 X199.081 Y190.822 E13.91162
G1 X199.002 Y191.365 E13.9327
G1 X198.834 Y192.153 E13.96366
G1 X198.649 Y192.776 E13.98862
G1 X198.362 Y193.527 E14.01951
G1 X198.079 Y194.124 E14.04489
G1 X197.684 Y194.81 E14.0753
G1 X197.308 Y195.357 E14.1008
G1 X196.797 Y195.988 E14.13199
G1 X196.346 Y196.464 E14.15718
G1 X195.755 Y196.997 E14.18775
G1 X195.232 Y197.399 E14.21309
G1 X194.557 Y197.838 E14.24402
G1 X193.977 Y198.153 E14.26938
G1 X193.248 Y198.478 E14.30004
G1 X192.625 Y198.699 E14.32543
G1 X191.845 Y198.908 E14.35645
G1 X191.2 Y199.028 E14.38166
G1 X190.406 Y199.112 E14.41233
G1 X46.274 Y199.147 E19.94923
G1 X20.177 Y199.146 E20.95175
G1 X19.184 Y199.081 E20.98998
G1 X18.633 Y199.001 E21.01137
G1 X17.842 Y198.832 E21.04244
G1 X17.22 Y198.648 E21.06736
G1 X16.472 Y198.362 E21.09813
G1 X15.876 Y198.079 E21.12347
G1 X15.19 Y197.684 E21.15388
G1 X14.643 Y197.308 E21.17938
G1 X14.012 Y196.797 E21.21057
G1 X13.536 Y196.346 E21.23576
G1 X13.003 Y195.755 E21.26633
G1 X12.601 Y195.232 E21.29167
G1 X12.162 Y194.557 E21.32261
G1 X11.846 Y193.975 E21.34805
G1 X11.521 Y193.245 E21.37874
G1 X11.301 Y192.625 E21.40402
G1 X11.092 Y191.846 E21.435
G1 X10.972 Y191.201 E21.4602
G1 X10.888 Y190.409 E21.4908
G1 X10.853 Y46.274 E27.02781
G1 X10.854 Y20.177 E28.03034
G1 X10.919 Y19.184 E28.06857
G1 X10.998 Y18.635 E28.08988
G1 X11.166 Y17.847 E28.12083
G1 X11.351 Y17.224 E28.14579
G1 X11.638 Y16.473 E28.17668
G1 X11.921 Y15.876 E28.20206
G1 X12.316 Y15.19 E28.23247
G1 X12.692 Y14.643 E28.25797
G1 X13.203 Y14.012 E28.28916
G1 X13.654 Y13.536 E28.31435
M204 S3000
M205 X10 Y10
G0 F1440 X14.029 Y13.952
M204 S1800
M205 X8 Y8
G1 F2400 X14.62 Y13.419 E28.34492
G1 X15.073 Y13.071 E28.36687
G1 X15.748 Y12.632 E28.3978
G1 X16.251 Y12.358 E28.4198
G1 X16.98 Y12.033 E28.45046
G1 X17.52 Y11.842 E28.47247
G1 X18.3 Y11.633 E28.50349
G1 X18.859 Y11.529 E28.52533
G1 X19.653 Y11.445 E28.556
G1 X46.271 Y11.414 E29.57855
G1 X189.823 Y11.413 E35.09316
G1 X190.778 Y11.477 E35.12993
G1 X192.041 Y11.715 E35.1793
G1 X192.58 Y11.875 E35.2009
G1 X193.328 Y12.161 E35.23167
G1 X193.844 Y12.407 E35.25363
G1 X194.53 Y12.802 E35.28404
G1 X195.005 Y13.127 E35.30614
G1 X195.636 Y13.638 E35.33734
G1 X196.048 Y14.029 E35.35916
G1 X196.581 Y14.62 E35.38973
G1 X196.929 Y15.073 E35.41167
G1 X197.368 Y15.748 E35.44261
G1 X197.642 Y16.251 E35.46461
G1 X197.966 Y16.978 E35.49519
G1 X198.156 Y17.516 E35.5171
G1 X198.366 Y18.298 E35.54821
G1 X198.471 Y18.858 E35.5701
G1 X198.555 Y19.65 E35.60069
G1 X198.586 Y46.271 E36.62335
G1 X198.587 Y189.823 E42.13797
G1 X198.523 Y190.778 E42.17474
G1 X198.286 Y192.036 E42.22391
G1 X198.126 Y192.576 E42.24555
G1 X197.839 Y193.327 E42.27643
G1 X197.593 Y193.844 E42.29843
G1 X197.198 Y194.53 E42.32884
G1 X196.873 Y195.005 E42.35095
G1 X196.362 Y195.636 E42.38214
G1 X195.971 Y196.048 E42.40396
G1 X195.38 Y196.581 E42.43453
G1 X194.927 Y196.929 E42.45648
G1 X194.252 Y197.368 E42.48741
G1 X193.749 Y197.642 E42.50941
G1 X193.02 Y197.967 E42.54007
G1 X192.48 Y198.158 E42.56208
G1 X191.7 Y198.367 E42.5931
G1 X191.141 Y198.471 E42.61494
G1 X190.347 Y198.555 E42.64561
G1 X46.274 Y198.587 E48.18024
G1 X20.177 Y198.586 E49.18277
G1 X19.228 Y198.523 E49.21931
G1 X17.959 Y198.285 E49.26891
G1 X17.42 Y198.125 E49.29051
G1 X16.672 Y197.839 E49.32127
G1 X16.156 Y197.593 E49.34323
G1 X15.47 Y197.198 E49.37364
G1 X14.995 Y196.873 E49.39575
G1 X14.364 Y196.362 E49.42694
G1 X13.952 Y195.971 E49.44876
G1 X13.419 Y195.38 E49.47933
G1 X13.071 Y194.927 E49.50128
G1 X12.632 Y194.252 E49.53221
G1 X12.358 Y193.747 E49.55428
G1 X12.033 Y193.017 E49.58498
G1 X11.842 Y192.48 E49.60687
G1 X11.633 Y191.701 E49.63786
G1 X11.529 Y191.142 E49.6597
G1 X11.445 Y190.35 E49.6903
G1 X11.413 Y46.274 E55.22504
G1 X11.414 Y20.177 E56.22757
G1 X11.477 Y19.228 E56.26411
G1 X11.714 Y17.964 E56.31351
G1 X11.874 Y17.424 E56.33515
G1 X12.161 Y16.673 E56.36603
G1 X12.407 Y16.156 E56.38802
G1 X12.802 Y15.47 E56.41843
G1 X13.127 Y14.995 E56.44054
G1 X13.638 Y14.364 E56.47174
G1 X14.029 Y13.952 E56.49356
M204 S3000
M205 X10 Y10
G0 F1440 X14.073 Y14.717
M204 S1800
M205 X8 Y8
G1 F2400 X14.995 Y13.835 E56.54257
G1 X16.054 Y13.101 E56.59207
G1 X17.208 Y12.545 E56.64128
G1 X18.445 Y12.174 E56.69089
G1 X19.712 Y12.002 E56.74001
G1 X46.272 Y11.974 E57.76032
G1 X189.823 Y11.973 E63.2749
G1 X190.733 Y12.036 E63.30994
G1 X191.924 Y12.263 E63.35652
G1 X193.128 Y12.684 E63.40552
G1 X194.251 Y13.287 E63.45448
G1 X195.283 Y14.073 E63.50432
G1 X196.165 Y14.995 E63.55333
G1 X196.899 Y16.054 E63.60283
G1 X197.454 Y17.206 E63.65195
G1 X197.826 Y18.443 E63.70158
G1 X197.998 Y19.709 E63.75066
G1 X198.026 Y46.272 E64.77109
G1 X198.027 Y189.823 E70.28566
G1 X197.964 Y190.733 E70.32071
G1 X197.738 Y191.919 E70.36709
G1 X197.316 Y193.127 E70.41624
G1 X196.713 Y194.251 E70.46524
G1 X195.927 Y195.283 E70.51508
G1 X195.005 Y196.165 E70.56409
G1 X193.946 Y196.899 E70.61359
G1 X192.792 Y197.455 E70.6628
G1 X191.555 Y197.826 E70.71241
G1 X190.288 Y197.998 E70.76153
G1 X46.274 Y198.027 E76.29389
G1 X20.177 Y198.026 E77.29642
G1 X19.271 Y197.965 E77.3313
G1 X18.076 Y197.737 E77.37804
G1 X16.872 Y197.316 E77.42704
G1 X15.749 Y196.713 E77.476
G1 X14.717 Y195.927 E77.52584
G1 X13.835 Y195.005 E77.57485
G1 X13.101 Y193.946 E77.62435
G1 X12.544 Y192.79 E77.67365
G1 X12.174 Y191.556 E77.72314
G1 X12.002 Y190.291 E77.77218
G1 X11.973 Y46.274 E83.30466
G1 X11.974 Y20.177 E84.30718
G1 X12.035 Y19.271 E84.34207
G1 X12.262 Y18.081 E84.38861
G1 X12.684 Y16.873 E84.43776
G1 X13.287 Y15.749 E84.48676
G1 X14.073 Y14.717 E84.5366
M204 S3000
M205 X10 Y10
G0 F1440 X14.509 Y15.069
M204 S1800
M205 X8 Y8
G1 F2400 X15.37 Y14.251 E84.58222
G1 X16.359 Y13.57 E84.62835
G1 X17.436 Y13.056 E84.67419
G1 X18.59 Y12.715 E84.72042
G1 X19.771 Y12.559 E84.76618
G1 X46.272 Y12.534 E85.78423
G1 X189.823 Y12.533 E91.29881
G1 X190.689 Y12.594 E91.33216
G1 X191.807 Y12.811 E91.37591
G1 X192.928 Y13.207 E91.42158
G1 X193.971 Y13.772 E91.46715
G1 X194.931 Y14.509 E91.51364
G1 X195.749 Y15.37 E91.55926
G1 X196.43 Y16.359 E91.60539
G1 X196.943 Y17.434 E91.65115
G1 X197.285 Y18.588 E91.69739
G1 X197.441 Y19.768 E91.74311
G1 X197.466 Y46.272 E92.76128
G1 X197.467 Y189.823 E98.27585
G1 X197.406 Y190.689 E98.3092
G1 X197.191 Y191.802 E98.35275
G1 X196.793 Y192.928 E98.39863
G1 X196.228 Y193.971 E98.4442
G1 X195.491 Y194.931 E98.49069
G1 X194.63 Y195.749 E98.53631
G1 X193.641 Y196.43 E98.58244
G1 X192.564 Y196.944 E98.62829
G1 X191.41 Y197.285 E98.67451
G1 X190.229 Y197.441 E98.72027
G1 X46.274 Y197.467 E104.25037
G1 X20.177 Y197.466 E105.2529
G1 X19.315 Y197.406 E105.28609
G1 X18.193 Y197.189 E105.33
G1 X17.072 Y196.793 E105.37567
G1 X16.029 Y196.228 E105.42124
G1 X15.069 Y195.491 E105.46773
G1 X14.251 Y194.63 E105.51335
G1 X13.57 Y193.641 E105.55948
G1 X13.056 Y192.562 E105.60539
G1 X12.715 Y191.411 E105.65151
G1 X12.559 Y190.232 E105.6972
G1 X12.533 Y46.274 E111.22741
G1 X12.534 Y20.177 E112.22994
G1 X12.594 Y19.315 E112.26313
G1 X12.809 Y18.198 E112.30683
G1 X13.207 Y17.072 E112.35271
G1 X13.772 Y16.029 E112.39828
G1 X14.509 Y15.069 E112.44477
M204 S3000
M205 X10 Y10
G0 F1440 X14.944 Y15.421
M204 S1800
M205 X8 Y8
G1 F2400 X15.745 Y14.666 E112.48705
G1 X16.664 Y14.04 E112.52977
G1 X17.664 Y13.568 E112.57225
G1 X18.735 Y13.256 E112.6151
G1 X19.83 Y13.116 E112.65751
G1 X46.272 Y13.094 E113.67329
G1 X189.822 Y13.093 E119.18783
G1 X190.644 Y13.152 E119.21949
G1 X191.69 Y13.358 E119.26044
G1 X192.728 Y13.73 E119.3028
G1 X193.692 Y14.257 E119.34501
G1 X194.579 Y14.944 E119.38811
G1 X195.334 Y15.745 E119.43039
G1 X195.96 Y16.664 E119.47311
G1 X196.431 Y17.662 E119.5155
G1 X196.744 Y18.734 E119.5584
G1 X196.884 Y19.827 E119.60073
G1 X196.906 Y46.272 E120.61663
G1 X196.907 Y189.822 E126.13117
G1 X196.848 Y190.644 E126.16283
G1 X196.643 Y191.686 E126.20363
G1 X196.27 Y192.728 E126.24614
G1 X195.743 Y193.692 E126.28835
G1 X195.056 Y194.579 E126.33145
G1 X194.255 Y195.334 E126.37373
G1 X193.336 Y195.96 E126.41645
G1 X192.336 Y196.432 E126.45893
G1 X191.265 Y196.744 E126.50178
G1 X190.17 Y196.884 E126.54419
G1 X46.274 Y196.907 E132.07202
G1 X20.177 Y196.906 E133.07455
G1 X19.358 Y196.848 E133.10609
G1 X18.31 Y196.642 E133.14712
G1 X17.272 Y196.27 E133.18948
G1 X16.308 Y195.743 E133.23168
G1 X15.421 Y195.056 E133.27478
G1 X14.666 Y194.255 E133.31707
G1 X14.04 Y193.336 E133.35978
G1 X13.567 Y192.334 E133.40235
G1 X13.256 Y191.266 E133.44508
G1 X13.116 Y190.173 E133.48741
G1 X13.093 Y46.274 E139.01536
G1 X13.094 Y20.177 E140.01788
G1 X13.152 Y19.358 E140.04943
G1 X13.357 Y18.314 E140.0903
G1 X13.73 Y17.272 E140.13281
G1 X14.257 Y16.308 E140.17502
G1 X14.944 Y15.421 E140.21812
M204 S3000
M205 X10 Y10
G0 F1440 X15.379 Y15.774
M204 S1800
M205 X8 Y8
G1 F2400 X16.12 Y15.082 E140.25707
G1 X16.97 Y14.509 E140.29645
G1 X17.892 Y14.079 E140.33553
G1 X18.88 Y13.797 E140.375
G1 X19.889 Y13.673 E140.41405
G1 X46.272 Y13.654 E141.42757
G1 X189.822 Y13.653 E146.9421
G1 X190.6 Y13.71 E146.97207
G1 X191.573 Y13.906 E147.0102
G1 X192.528 Y14.253 E147.04923
G1 X193.413 Y14.743 E147.0881
G1 X194.226 Y15.379 E147.12775
G1 X194.918 Y16.12 E147.1667
G1 X195.491 Y16.97 E147.20608
G1 X195.92 Y17.89 E147.24507
G1 X196.203 Y18.879 E147.28459
G1 X196.327 Y19.886 E147.32357
G1 X196.346 Y46.272 E148.3372
G1 X196.347 Y189.822 E153.85174
G1 X196.29 Y190.6 E153.8817
G1 X196.095 Y191.569 E153.91967
G1 X195.747 Y192.528 E153.95887
G1 X195.257 Y193.413 E153.99773
G1 X194.621 Y194.226 E154.03738
G1 X193.88 Y194.918 E154.07633
G1 X193.03 Y195.491 E154.11571
G1 X192.108 Y195.921 E154.15479
G1 X191.12 Y196.203 E154.19426
G1 X190.111 Y196.327 E154.23331
G1 X46.274 Y196.347 E159.75888
G1 X20.177 Y196.346 E160.7614
G1 X19.402 Y196.29 E160.79125
G1 X18.427 Y196.094 E160.82946
G1 X17.472 Y195.747 E160.86849
G1 X16.587 Y195.257 E160.90735
G1 X15.774 Y194.621 E160.94701
G1 X15.082 Y193.88 E160.98595
G1 X14.509 Y193.03 E161.02533
G1 X14.079 Y192.106 E161.06448
G1 X13.797 Y191.121 E161.10384
G1 X13.673 Y190.114 E161.14282
G1 X13.653 Y46.274 E166.6685
G1 X13.654 Y20.177 E167.67103
G1 X13.71 Y19.402 E167.70088
G1 X13.905 Y18.431 E167.73892
G1 X14.253 Y17.472 E167.77812
G1 X14.743 Y16.587 E167.81698
G1 X15.379 Y15.774 E167.85663
M204 S3000
M205 X10 Y10
G0 F1440 X15.814 Y16.126
M204 S1800
M205 X8 Y8
G1 F2400 X16.495 Y15.498 E167.89222
G1 X17.275 Y14.979 E167.92821
G1 X18.12 Y14.591 E167.96393
G1 X19.025 Y14.338 E168.00003
G1 X19.948 Y14.23 E168.03572
G1 X46.273 Y14.214 E169.04701
G1 X189.823 Y14.213 E174.56155
G1 X190.556 Y14.269 E174.58979
G1 X191.456 Y14.454 E174.62509
G1 X192.328 Y14.776 E174.6608
G1 X193.133 Y15.228 E174.69626
G1 X193.874 Y15.814 E174.73255
G1 X194.502 Y16.495 E174.76814
G1 X195.021 Y17.275 E174.80413
G1 X195.408 Y18.118 E174.83977
G1 X195.662 Y19.024 E174.87591
G1 X195.77 Y19.945 E174.91153
G1 X195.786 Y46.273 E175.92294
G1 X195.787 Y189.823 E181.43748
G1 X195.731 Y190.556 E181.46572
G1 X195.548 Y191.452 E181.50085
G1 X195.224 Y192.328 E181.53673
G1 X194.772 Y193.133 E181.57219
G1 X194.186 Y193.874 E181.60848
G1 X193.505 Y194.502 E181.64407
G1 X192.725 Y195.021 E181.68006
G1 X191.88 Y195.409 E181.71578
G1 X190.975 Y195.662 E181.75188
G1 X190.052 Y195.77 E181.78758
G1 X46.274 Y195.787 E187.31088
G1 X20.177 Y195.786 E188.31341
G1 X19.446 Y195.731 E188.34157
G1 X18.544 Y195.546 E188.37694
G1 X17.672 Y195.224 E188.41265
G1 X16.867 Y194.772 E188.44811
G1 X16.126 Y194.186 E188.4844
G1 X15.498 Y193.505 E188.51999
G1 X14.979 Y192.725 E188.55598
G1 X14.591 Y191.879 E188.59174
G1 X14.338 Y190.976 E188.62776
G1 X14.23 Y190.055 E188.66339
G1 X14.213 Y46.274 E194.1868
G1 X14.214 Y20.177 E195.18933
G1 X14.269 Y19.446 E195.21749
G1 X14.452 Y18.548 E195.25269
G1 X14.776 Y17.672 E195.28857
G1 X15.228 Y16.867 E195.32404
G1 X15.814 Y16.126 E195.36033
M204 S3000
M205 X10 Y10
G0 F1440 X16.249 Y16.479
M204 S1800
M205 X8 Y8
G1 F2400 X16.87 Y15.914 E195.39258
G1 X17.58 Y15.448 E195.42521
G1 X18.348 Y15.102 E195.45757
G1 X19.17 Y14.879 E195.49029
G1 X20.007 Y14.787 E195.52263
G1 X46.273 Y14.774 E196.53165
G1 X189.823 Y14.773 E202.04619
G1 X190.511 Y14.827 E202.0727
G1 X191.339 Y15.001 E202.10521
G1 X192.128 Y15.299 E202.13761
G1 X192.854 Y15.713 E202.16971
G1 X193.521 Y16.249 E202.20258
G1 X194.086 Y16.87 E202.23483
G1 X194.552 Y17.58 E202.26746
G1 X194.897 Y18.346 E202.29973
G1 X195.121 Y19.169 E202.3325
G1 X195.213 Y20.004 E202.36477
G1 X195.226 Y46.273 E203.37391
G1 X195.227 Y189.823 E208.88844
G1 X195.173 Y190.511 E208.91496
G1 X195 Y191.335 E208.9473
G1 X194.701 Y192.128 E208.97986
G1 X194.287 Y192.854 E209.01196
G1 X193.751 Y193.521 E209.04483
G1 X193.13 Y194.086 E209.07709
G1 X192.42 Y194.552 E209.10971
G1 X191.652 Y194.898 E209.14207
G1 X190.83 Y195.121 E209.17479
G1 X189.993 Y195.213 E209.20714
G1 X46.274 Y195.227 E214.72817
G1 X20.177 Y195.226 E215.7307
G1 X19.489 Y195.173 E215.7572
G1 X18.661 Y194.999 E215.78971
G1 X17.872 Y194.701 E215.82211
G1 X17.146 Y194.287 E215.85421
G1 X16.479 Y193.751 E215.88708
G1 X15.914 Y193.13 E215.91933
G1 X15.448 Y192.42 E215.95196
G1 X15.102 Y191.651 E215.98435
G1 X14.879 Y190.831 E216.017
G1 X14.787 Y189.996 E216.04927
G1 X14.773 Y46.274 E221.57042
G1 X14.774 Y20.177 E222.57294
G1 X14.827 Y19.489 E222.59945
G1 X15 Y18.665 E222.6318
G1 X15.299 Y17.872 E222.66435
G1 X15.713 Y17.146 E222.69646
G1 X16.249 Y16.479 E222.72933
M204 S3000
M205 X10 Y10
G1 F2400 E216.72933
;MESH:cluster-3.0 (3).stl
G0 F1440 X17.097 Y17.241
G0 X18.343 Y20.46
G0 X19.559 Y23.477
G0 X20.124 Y23.139
M204 S1800
M205 X8 Y8
;TYPE:WALL-OUTER
G1 F2400 E222.72933
G1 F900 X20.655 Y23.574 E222.7557
G1 X21.152 Y23.752 E222.77598
G1 X21.68 Y23.776 E222.79628
G1 X22.187 Y23.647 E222.81638
G1 X22.633 Y23.38 E222.83635
G1 X22.987 Y22.989 E222.85661
G1 X23.21 Y22.514 E222.87677
G1 X23.286 Y21.995 E222.89692
G1 X23.208 Y21.478 E222.91701
G1 X22.982 Y21.004 E222.93718
G1 X22.632 Y20.62 E222.95714
G1 X22.18 Y20.349 E222.97738
G1 X21.675 Y20.223 E222.99738
G1 X21.147 Y20.249 E223.01769
G1 X20.655 Y20.428 E223.0378
G1 X20.235 Y20.741 E223.05792
G1 X19.922 Y21.165 E223.07817
G1 X19.747 Y21.656 E223.09819
G1 X19.723 Y22.176 E223.11819
G1 X19.853 Y22.687 E223.13844
G1 X20.124 Y23.139 E223.15869
M204 S3000
M205 X10 Y10
G0 F1440 X20.278 Y23.265
G0 X19.859 Y23.774
G0 X30.558 Y178.783
G0 X31.218 Y178.783
M204 S1800
M205 X8 Y8
G1 F900 X178.783 Y178.783 E228.82747
G1 X178.783 Y31.218 E234.49624
G1 X31.218 Y31.218 E240.16502
