;FLAVOR:Marlin
;TIME:3952
;Filament used: 4.56898m
;Layer height: 0.3
;MINX:28.3
;MINY:22.286
;MINZ:0.15
;MAXX:181.7
;MAXY:47.686
;MAXZ:6.825
;Generated with Cura_SteamEngine 4.5.0
M140 S60
M105
M190 S60
M104 S205
M105
M109 S205
M82 ;absolute extrusion mode
G21 ;metric values
G90 ;absolute positioning
M82 ;set extruder to absolute mode
M107 ;start with the fan off
G28 X0 Y0 ;move X/Y to min endstops
G28 Z0 ;move Z to min endstops
G1 Z15.0 F80 ;move the platform down 15mm
G92 E0 ;zero the extruded length
G1 F200 E3 ;extrude 3mm of feed stock
G92 E0 ;zero the extruded length again
G1 F80
G0 Y20 F80
M117 Printing...
G5
G92 E0
G92 E0
G1 F2400 E-6
;LAYER_COUNT:23
;LAYER:0
M106 S255
M204 S3000
M205 X10 Y10
G1 F600 Z0.225
G0 F1440 X29.261 Y23.977 Z0.225
M204 S1800
M205 X8 Y8
;TYPE:SKIRT
G1 F600 Z0.15
G1 F2400 E0
G1 X29.694 Y23.516 E0.0243
G1 X30.131 Y23.136 E0.04654
G1 X30.616 Y22.819 E0.0688
G1 X31.14 Y22.572 E0.09106
G1 X31.693 Y22.4 E0.1133
G1 X32.265 Y22.305 E0.13558
G1 X177.332 Y22.286 E5.70839
G1 X177.91 Y22.326 E5.73065
G1 X178.477 Y22.445 E5.75291
G1 X179.022 Y22.641 E5.77516
G1 X179.535 Y22.91 E5.79741
G1 X180.006 Y23.247 E5.81966
G1 X180.426 Y23.646 E5.84191
G1 X180.788 Y24.099 E5.86419
G1 X181.083 Y24.597 E5.88642
G1 X181.308 Y25.131 E5.90868
G1 X181.456 Y25.691 E5.93093
G1 X181.532 Y26.444 E5.96001
G1 X181.7 Y43.28 E6.6068
G1 X181.666 Y43.858 E6.62904
G1 X181.552 Y44.426 E6.6513
G1 X181.362 Y44.974 E6.67358
G1 X181.098 Y45.489 E6.69581
G1 X180.765 Y45.964 E6.7181
G1 X180.306 Y46.456 E6.74395
G1 X179.869 Y46.836 E6.76619
G1 X179.384 Y47.153 E6.78845
G1 X178.86 Y47.4 E6.8107
G1 X178.307 Y47.572 E6.83295
G1 X177.735 Y47.667 E6.85523
G1 X32.669 Y47.686 E12.428
G1 X32.091 Y47.646 E12.45026
G1 X31.524 Y47.527 E12.47252
G1 X30.979 Y47.331 E12.49477
G1 X30.466 Y47.062 E12.51702
G1 X29.995 Y46.725 E12.53927
G1 X29.535 Y46.292 E12.56353
G1 X29.155 Y45.855 E12.58578
G1 X28.838 Y45.37 E12.60804
G1 X28.591 Y44.846 E12.63029
G1 X28.419 Y44.293 E12.65254
G1 X28.324 Y43.721 E12.67482
G1 X28.3 Y26.651 E13.33057
G1 X28.34 Y26.073 E13.35283
G1 X28.459 Y25.506 E13.37508
G1 X28.655 Y24.961 E13.39733
G1 X28.923 Y24.448 E13.41957
G1 X29.261 Y23.977 E13.44184
M204 S3000
M205 X10 Y10
G0 F1440 X29.926 Y24.076
M204 S1800
M205 X8 Y8
G1 F2400 X30.499 Y23.56 E13.47146
G1 X30.955 Y23.272 E13.49218
G1 X31.448 Y23.055 E13.51287
G1 X31.968 Y22.913 E13.53358
G1 X32.664 Y22.846 E13.56044
G1 X177.332 Y22.846 E19.11792
G1 X177.87 Y22.886 E19.13865
G1 X178.396 Y23.005 E19.15937
G1 X178.898 Y23.2 E19.18005
G1 X179.367 Y23.468 E19.20081
G1 X179.79 Y23.801 E19.22149
G1 X180.16 Y24.194 E19.24222
G1 X180.467 Y24.637 E19.26293
G1 X180.706 Y25.121 E19.28366
G1 X180.871 Y25.634 E19.30436
G1 X180.958 Y26.166 E19.32507
G1 X181.14 Y43.286 E19.98278
G1 X181.105 Y43.824 E20.00349
G1 X180.992 Y44.351 E20.0242
G1 X180.801 Y44.856 E20.04494
G1 X180.538 Y45.326 E20.06563
G1 X180.074 Y45.896 E20.09386
G1 X179.501 Y46.412 E20.12349
G1 X179.045 Y46.7 E20.1442
G1 X178.552 Y46.917 E20.1649
G1 X178.032 Y47.059 E20.1856
G1 X177.336 Y47.126 E20.21247
G1 X32.669 Y47.126 E25.76991
G1 X32.131 Y47.086 E25.79064
G1 X31.605 Y46.967 E25.81136
G1 X31.103 Y46.772 E25.83204
G1 X30.634 Y46.504 E25.8528
G1 X30.095 Y46.06 E25.87962
G1 X29.579 Y45.487 E25.90924
G1 X29.291 Y45.031 E25.92996
G1 X29.074 Y44.538 E25.95065
G1 X28.932 Y44.018 E25.97136
G1 X28.865 Y43.323 E25.99818
G1 X28.86 Y26.651 E26.63865
G1 X28.9 Y26.113 E26.65937
G1 X29.019 Y25.587 E26.68009
G1 X29.214 Y25.085 E26.70078
G1 X29.481 Y24.616 E26.72151
G1 X29.926 Y24.076 E26.74839
M204 S3000
M205 X10 Y10
G0 F1440 X30.038 Y24.799
M204 S1800
M205 X8 Y8
G1 F2400 X30.486 Y24.308 E26.77392
G1 X30.864 Y23.987 E26.79297
G1 X31.288 Y23.73 E26.81202
G1 X31.749 Y23.545 E26.8311
G1 X32.232 Y23.436 E26.85012
G1 X32.664 Y23.406 E26.86676
G1 X177.332 Y23.406 E32.42425
G1 X178.308 Y23.565 E32.46223
G1 X178.764 Y23.759 E32.48127
G1 X179.183 Y24.024 E32.50032
G1 X179.554 Y24.354 E32.51939
G1 X179.868 Y24.738 E32.53845
G1 X180.116 Y25.168 E32.55752
G1 X180.291 Y25.631 E32.57653
G1 X180.39 Y26.118 E32.59562
G1 X180.58 Y43.291 E33.25537
G1 X180.545 Y43.786 E33.27443
G1 X180.431 Y44.269 E33.2935
G1 X180.241 Y44.727 E33.31255
G1 X179.98 Y45.149 E33.33161
G1 X179.514 Y45.664 E33.35829
G1 X179.136 Y45.985 E33.37734
G1 X178.712 Y46.242 E33.39639
G1 X178.251 Y46.427 E33.41547
G1 X177.768 Y46.536 E33.43449
G1 X177.336 Y46.566 E33.45112
G1 X32.669 Y46.566 E39.00857
G1 X32.175 Y46.526 E39.02761
G1 X31.693 Y46.407 E39.04668
G1 X31.237 Y46.213 E39.06572
G1 X30.818 Y45.948 E39.08477
G1 X30.327 Y45.5 E39.1103
G1 X30.006 Y45.122 E39.12935
G1 X29.749 Y44.698 E39.1484
G1 X29.564 Y44.237 E39.16748
G1 X29.455 Y43.754 E39.1865
G1 X29.425 Y43.323 E39.2031
G1 X29.42 Y26.651 E39.84356
G1 X29.46 Y26.157 E39.8626
G1 X29.578 Y25.675 E39.88166
G1 X29.773 Y25.219 E39.90071
G1 X30.038 Y24.799 E39.91979
M204 S3000
M205 X10 Y10
G0 F1440 X30.718 Y24.868
M204 S1800
M205 X8 Y8
G1 F2400 X31.226 Y24.416 E39.94591
G1 X31.616 Y24.194 E39.96315
G1 X32.039 Y24.045 E39.98038
G1 X32.664 Y23.966 E40.00458
G1 X177.332 Y23.966 E45.56207
G1 X178.211 Y24.124 E45.59638
G1 X178.616 Y24.318 E45.61363
G1 X178.98 Y24.58 E45.63086
G1 X179.292 Y24.902 E45.64808
G1 X179.542 Y25.275 E45.66533
G1 X179.722 Y25.686 E45.68257
G1 X179.826 Y26.122 E45.69979
G1 X180.02 Y43.297 E46.35961
G1 X179.984 Y43.744 E46.37684
G1 X179.87 Y44.178 E46.39408
G1 X179.681 Y44.584 E46.41128
G1 X179.282 Y45.104 E46.43646
G1 X178.774 Y45.556 E46.46258
G1 X178.384 Y45.778 E46.47982
G1 X177.961 Y45.927 E46.49705
G1 X177.336 Y46.006 E46.52125
G1 X32.669 Y46.006 E52.0787
G1 X32.222 Y45.966 E52.09594
G1 X31.79 Y45.848 E52.11315
G1 X31.385 Y45.654 E52.1304
G1 X30.887 Y45.268 E52.1546
G1 X30.435 Y44.76 E52.18072
G1 X30.213 Y44.37 E52.19796
G1 X30.064 Y43.947 E52.21519
G1 X29.985 Y43.323 E52.23935
G1 X29.98 Y26.651 E52.87982
G1 X30.02 Y26.204 E52.89706
G1 X30.138 Y25.771 E52.9143
G1 X30.331 Y25.367 E52.9315
G1 X30.718 Y24.868 E52.95575
M204 S3000
M205 X10 Y10
G0 F1440 X30.889 Y25.534
M204 S1800
M205 X8 Y8
G1 F2400 X31.278 Y25.1 E52.97814
G1 X31.584 Y24.85 E52.99332
G1 X31.935 Y24.667 E53.00853
G1 X32.315 Y24.557 E53.02373
G1 X32.664 Y24.526 E53.03719
G1 X177.332 Y24.526 E58.59467
G1 X178.103 Y24.684 E58.62491
G1 X178.449 Y24.875 E58.64009
G1 X178.75 Y25.132 E58.65529
G1 X178.992 Y25.445 E58.67049
G1 X179.168 Y25.799 E58.68568
G1 X179.268 Y26.182 E58.70089
G1 X179.46 Y43.302 E59.3586
G1 X179.424 Y43.696 E59.3738
G1 X179.31 Y44.075 E59.389
G1 X179.122 Y44.423 E59.4042
G1 X178.722 Y44.872 E59.4273
G1 X178.416 Y45.122 E59.44248
G1 X178.065 Y45.305 E59.45768
G1 X177.685 Y45.415 E59.47288
G1 X177.336 Y45.446 E59.48634
G1 X32.669 Y45.446 E65.04379
G1 X32.276 Y45.406 E65.05897
G1 X31.898 Y45.288 E65.07418
G1 X31.552 Y45.097 E65.08936
G1 X31.119 Y44.708 E65.11172
G1 X30.869 Y44.402 E65.1269
G1 X30.686 Y44.051 E65.14211
G1 X30.576 Y43.671 E65.1573
G1 X30.545 Y43.323 E65.17073
G1 X30.54 Y26.651 E65.81119
G1 X30.58 Y26.257 E65.8264
G1 X30.698 Y25.88 E65.84158
G1 X30.889 Y25.534 E65.85676
M204 S3000
M205 X10 Y10
G0 F1440 X31.257 Y26.006
M204 S1800
M205 X8 Y8
G1 F2400 X31.674 Y25.496 E65.88207
G1 X31.937 Y25.29 E65.8949
G1 X32.241 Y25.151 E65.90774
G1 X32.664 Y25.086 E65.92418
G1 X177.332 Y25.086 E71.48167
G1 X177.976 Y25.243 E71.50713
G1 X178.253 Y25.431 E71.51999
G1 X178.476 Y25.679 E71.53281
G1 X178.635 Y25.973 E71.54565
G1 X178.732 Y26.472 E71.56517
G1 X178.9 Y43.308 E72.21197
G1 X178.863 Y43.64 E72.2248
G1 X178.749 Y43.954 E72.23763
G1 X178.326 Y44.476 E72.26344
G1 X178.063 Y44.682 E72.27628
G1 X177.759 Y44.821 E72.28912
G1 X177.336 Y44.886 E72.30556
G1 X32.669 Y44.886 E77.86301
G1 X32.337 Y44.846 E77.87586
G1 X32.025 Y44.729 E77.88866
G1 X31.515 Y44.312 E77.91396
G1 X31.309 Y44.049 E77.9268
G1 X31.17 Y43.745 E77.93964
G1 X31.105 Y43.322 E77.95608
G1 X31.1 Y26.65 E78.59654
G1 X31.14 Y26.319 E78.60935
G1 X31.257 Y26.006 E78.62219
M204 S3000
M205 X10 Y10
G0 F1440 X31.906 Y26.056
M204 S1800
M205 X8 Y8
G1 F2400 X32.279 Y25.74 E78.64097
G1 X32.664 Y25.646 E78.65619
G1 X177.332 Y25.646 E84.21368
G1 X177.819 Y25.801 E84.23331
G1 X178.004 Y25.982 E84.24325
G1 X178.125 Y26.21 E84.25317
G1 X178.172 Y26.478 E84.26362
G1 X178.34 Y43.314 E84.91042
G1 X178.303 Y43.569 E84.92031
G1 X178.094 Y43.916 E84.93588
G1 X177.721 Y44.232 E84.95466
G1 X177.336 Y44.326 E84.96988
G1 X32.669 Y44.326 E90.52733
G1 X32.414 Y44.286 E90.53724
G1 X32.075 Y44.08 E90.55248
G1 X31.759 Y43.707 E90.57126
G1 X31.665 Y43.322 E90.58649
G1 X31.66 Y26.65 E91.22695
G1 X31.7 Y26.395 E91.23687
G1 X31.906 Y26.056 E91.2521
M204 S3000
M205 X10 Y10
G0 F1440 X32.302 Y26.452
M204 S1800
M205 X8 Y8
G1 F2400 X32.466 Y26.288 E91.26101
G1 X32.664 Y26.206 E91.26925
G1 X177.332 Y26.206 E96.82673
G1 X177.578 Y26.352 E96.83772
G1 X177.612 Y26.483 E96.84292
G1 X177.78 Y43.319 E97.48972
G1 X177.698 Y43.52 E97.49806
G1 X177.534 Y43.684 E97.50697
G1 X177.336 Y43.766 E97.5152
G1 X32.669 Y43.766 E103.07265
G1 X32.471 Y43.684 E103.08088
G1 X32.307 Y43.52 E103.08979
G1 X32.225 Y43.322 E103.09802
G1 X32.22 Y26.65 E103.73849
G1 X32.302 Y26.452 E103.74672
M204 S3000
M205 X10 Y10
G1 F2400 E97.74672
;MESH:cluster-3.0-botonera-trasera.stl
G0 F1440 X33.354 Y27.34
G0 X38.425 Y38.223
G0 X39.175 Y39.347
G0 X40.132 Y40.305
G0 X41.249 Y41.052
G0 X42.265 Y41.473
G0 X43.784 Y41.89
G0 X43.884 Y41.239
M204 S1800
M205 X8 Y8
;TYPE:WALL-OUTER
G1 F2400 E103.74672
G1 F900 X44.493 Y41.267 E103.77014
G1 X45.115 Y41.239 E103.79406
G1 X45.719 Y41.15 E103.81751
G1 X46.323 Y40.998 E103.84144
G1 X46.897 Y40.794 E103.86484
G1 X47.462 Y40.527 E103.88884
G1 X47.985 Y40.214 E103.91226
G1 X48.48 Y39.848 E103.93591
G1 X48.942 Y39.428 E103.95989
G1 X49.351 Y38.978 E103.98325
G1 X49.724 Y38.477 E104.00725
G1 X50.037 Y37.954 E104.03066
G1 X50.301 Y37.398 E104.05431
G1 X50.512 Y36.81 E104.07831
G1 X50.662 Y36.212 E104.10199
G1 X50.751 Y35.608 E104.12544
G1 X50.781 Y34.994 E104.14906
G1 X50.754 Y34.378 E104.17274
G1 X50.662 Y33.76 E104.19675
G1 X50.515 Y33.17 E104.22011
G1 X50.305 Y32.582 E104.24409
G1 X50.045 Y32.031 E104.2675
G1 X49.728 Y31.501 E104.29122
G1 X49.357 Y31 E104.31517
G1 X48.947 Y30.55 E104.33855
G1 X48.486 Y30.129 E104.36254
G1 X47.997 Y29.767 E104.38591
G1 X47.462 Y29.445 E104.4099
G1 X46.904 Y29.181 E104.43361
G1 X46.33 Y28.977 E104.45701
G1 X45.726 Y28.824 E104.48095
G1 X45.123 Y28.735 E104.50436
G1 X44.508 Y28.704 E104.52802
G1 X43.885 Y28.733 E104.55198
G1 X43.281 Y28.822 E104.57543
G1 X42.677 Y28.974 E104.59936
G1 X42.103 Y29.178 E104.62276
G1 X41.545 Y29.441 E104.64646
G1 X41.009 Y29.762 E104.67046
G1 X40.514 Y30.129 E104.69413
G1 X40.064 Y30.539 E104.71752
G1 X39.644 Y31 E104.74147
G1 X39.276 Y31.495 E104.76517
G1 X38.963 Y32.018 E104.78858
G1 X38.699 Y32.575 E104.81226
G1 X38.491 Y33.155 E104.83593
G1 X38.338 Y33.76 E104.85991
G1 X38.249 Y34.363 E104.88332
G1 X38.218 Y34.978 E104.90698
G1 X38.246 Y35.594 E104.93067
G1 X38.338 Y36.212 E104.95467
G1 X38.485 Y36.802 E104.97803
G1 X38.692 Y37.383 E105.00172
G1 X38.955 Y37.941 E105.02542
G1 X39.276 Y38.477 E105.04942
G1 X39.638 Y38.966 E105.07279
G1 X40.053 Y39.422 E105.09648
G1 X40.514 Y39.842 E105.12043
G1 X41.009 Y40.21 E105.14413
G1 X41.532 Y40.523 E105.16754
G1 X42.096 Y40.791 E105.19153
G1 X42.677 Y40.998 E105.21522
G1 X43.267 Y41.145 E105.23858
G1 X43.884 Y41.239 E105.26256
M204 S3000
M205 X10 Y10
G0 F1440 X44.084 Y41.248
G0 X44.053 Y41.907
G0 X55.557 Y41.268
G0 X56.217 Y41.268
M204 S1800
M205 X8 Y8
G1 F900 X73.782 Y41.268 E105.93733
G1 X73.782 Y28.703 E106.42002
G1 X56.217 Y28.703 E107.09478
G1 X56.217 Y41.268 E107.57747
M204 S3000
M205 X10 Y10
G0 F1440 X56.417 Y41.268
G0 X56.417 Y41.928
G0 X74.37 Y41.856
G0 X77.557 Y41.268
G0 X78.217 Y41.268
M204 S1800
M205 X8 Y8
G1 F900 X95.782 Y41.268 E108.25224
G1 X95.782 Y28.703 E108.73493
G1 X78.217 Y28.703 E109.4097
G1 X78.217 Y41.268 E109.89239
M204 S3000
M205 X10 Y10
G0 F1440 X78.417 Y41.268
G0 X78.417 Y41.928
G0 X96.37 Y41.856
G0 X102.557 Y40.268
G0 X103.217 Y40.268
M204 S1800
M205 X8 Y8
G1 F900 X123.782 Y40.268 E110.6824
G1 X123.782 Y29.703 E111.08826
G1 X103.217 Y29.703 E111.87828
G1 X103.217 Y40.268 E112.28414
M204 S3000
M205 X10 Y10
G0 F1440 X103.417 Y40.268
G0 X103.417 Y40.928
G0 X124.37 Y40.856
G0 X127.629 Y30.615
G0 X128.217 Y31.203
M204 S1800
M205 X8 Y8
G1 F900 X128.217 Y38.768 E112.57475
G1 X129.207 Y38.768 E112.61278
G1 X129.219 Y41.868 E112.73187
G1 X145.583 Y41.868 E113.3605
G1 X145.583 Y38.768 E113.47959
G1 X146.571 Y38.768 E113.51754
G1 X146.583 Y31.483 E113.7974
G1 X146.583 Y31.203 E113.80815
G1 X146.303 Y31.203 E113.81512
G1 X145.594 Y31.203 E113.84235
G1 X145.582 Y28.103 E113.96144
G1 X129.218 Y28.103 E114.59007
G1 X129.218 Y31.203 E114.70916
G1 X128.217 Y31.203 E114.74762
M204 S3000
M205 X10 Y10
G0 F1440 X128.217 Y31.403
G0 X127.557 Y31.403
G0 X128.63 Y27.515
G0 X146.168 Y27.515
G0 X152.558 Y39.418
G0 X153.218 Y39.418
M204 S1800
M205 X8 Y8
G1 F900 X167.183 Y39.418 E115.28409
G1 X167.183 Y30.553 E115.62464
G1 X153.218 Y30.553 E116.16111
G1 X153.218 Y39.418 E116.50166
M204 S3000
M205 X10 Y10
G0 F1440 X153.418 Y39.418
G0 X153.418 Y40.078
G0 X176.59 Y42.576
G0 X176.94 Y43.206
M204 S1800
M205 X8 Y8
G1 F900 X32.785 Y43.206 E122.03944
G1 X32.78 Y27.046 E122.66024
G1 X32.78 Y26.766 E122.67099
G1 X33.06 Y26.766 E122.67796
G1 X177.216 Y26.766 E128.21578
G1 X177.22 Y42.926 E128.83657
G1 X177.22 Y43.206 E128.84733
G1 X176.94 Y43.206 E128.85429
M204 S3000
M205 X10 Y10
G0 F1440 X176.74 Y43.206
G0 X176.38 Y42.646
M204 S1800
M205 X8 Y8
;TYPE:WALL-INNER
G1 F900 X146.143 Y42.646 E130.01586
G1 X128.661 Y42.646 E130.68744
G1 X128.49 Y42.646 E130.69401
G1 X33.345 Y42.646 E134.34904
G1 X33.34 Y27.606 E134.92681
G1 X33.34 Y27.326 E134.93757
G1 X33.62 Y27.326 E134.94453
G1 X128.658 Y27.326 E138.59546
G1 X146.14 Y27.326 E139.26704
G1 X146.312 Y27.326 E139.27365
G1 X176.656 Y27.326 E140.43932
G1 X176.66 Y42.366 E141.01709
G1 X176.66 Y42.646 E141.02785
G1 X176.38 Y42.646 E141.03481
M204 S3000
M205 X10 Y10
G0 F1440 X176.38 Y42.546
G0 X152.588 Y40.048
G0 X152.658 Y39.978
M204 S1800
M205 X8 Y8
G1 F900 X167.743 Y39.978 E141.61431
G1 X167.743 Y29.993 E141.99789
G1 X152.658 Y29.993 E142.57738
G1 X152.658 Y39.978 E142.96096
M204 S3000
M205 X10 Y10
G0 F1440 X152.588 Y40.048
G0 X146.168 Y27.515
G0 X128.63 Y27.515
G0 X127.587 Y30.573
G0 X127.657 Y30.643
M204 S1800
M205 X8 Y8
G1 F900 X127.657 Y39.328 E143.2946
G1 X128.649 Y39.328 E143.33271
G1 X128.661 Y42.257 E143.44523
G1 X128.661 Y42.428 E143.45038
G1 X146.143 Y42.428 E143.71182
G1 X146.143 Y39.328 E143.83091
G1 X147.13 Y39.328 E143.86883
G1 X147.144 Y30.923 E144.19171
G1 X147.144 Y30.643 E144.20246
G1 X146.864 Y30.643 E144.20943
G1 X146.152 Y30.643 E144.23678
G1 X146.14 Y27.715 E144.34926
G1 X146.14 Y27.543 E144.35444
G1 X128.658 Y27.543 E144.61467
G1 X128.658 Y30.643 E144.73376
G1 X127.657 Y30.643 E144.77222
M204 S3000
M205 X10 Y10
G0 F1440 X127.587 Y30.573
G0 X124.37 Y40.856
G0 X102.587 Y40.898
G0 X102.657 Y40.828
M204 S1800
M205 X8 Y8
G1 F900 X124.342 Y40.828 E145.60526
G1 X124.342 Y29.143 E146.05414
G1 X102.657 Y29.143 E146.88718
G1 X102.657 Y40.828 E147.33606
M204 S3000
M205 X10 Y10
G0 F1440 X102.587 Y40.898
G0 X96.37 Y41.856
G0 X77.587 Y41.898
G0 X77.657 Y41.828
M204 S1800
M205 X8 Y8
G1 F900 X96.342 Y41.828 E148.05386
G1 X96.342 Y28.143 E148.57957
G1 X77.657 Y28.143 E149.29737
G1 X77.657 Y41.828 E149.82308
M204 S3000
M205 X10 Y10
G0 F1440 X77.587 Y41.898
G0 X55.587 Y41.898
G0 X55.657 Y41.828
M204 S1800
M205 X8 Y8
G1 F900 X74.342 Y41.828 E150.54087
G1 X74.342 Y28.143 E151.06659
G1 X55.657 Y28.143 E151.78438
G1 X55.657 Y41.828 E152.3101
M204 S3000
M205 X10 Y10
G0 F1440 X55.587 Y41.898
G0 X43.82 Y41.896
G0 X43.829 Y41.797
M204 S1800
M205 X8 Y8
G1 F900 X44.493 Y41.828 E152.33563
G1 X45.169 Y41.797 E152.36163
G1 X45.828 Y41.7 E152.38722
G1 X46.485 Y41.535 E152.41324
G1 X47.111 Y41.312 E152.43877
G1 X47.726 Y41.022 E152.46489
G1 X48.296 Y40.681 E152.49041
G1 X48.836 Y40.281 E152.51622
G1 X49.338 Y39.824 E152.5423
G1 X49.784 Y39.334 E152.56775
G1 X50.19 Y38.789 E152.59386
G1 X50.531 Y38.218 E152.61941
G1 X50.819 Y37.613 E152.64515
G1 X51.048 Y36.973 E152.67126
