;FLAVOR:Marlin
;TIME:6016
;Filament used: 4.1811m
;Layer height: 0.15
;MINX:75.723
;MINY:16.769
;MINZ:0.15
;MAXX:135.2
;MAXY:73.422
;MAXZ:14.7
;Generated with Cura_SteamEngine 4.5.0
M140 S60
M105
M190 S60
M104 S200
M105
M109 S200
M82 ;absolute extrusion mode
G21 ;metric values
G90 ;absolute positioning
M82 ;set extruder to absolute mode
M107 ;start with the fan off
G28 X0 Y0 ;move X/Y to min endstops
G28 Z0 ;move Z to min endstops
G1 Z15.0 F100 ;move the platform down 15mm
G92 E0 ;zero the extruded length
G1 F200 E3 ;extrude 3mm of feed stock
G92 E0 ;zero the extruded length again
G1 F100
G0 Y20 F100
M117 Printing...
G5
G92 E0
G92 E0
G1 F2400 E-6
;LAYER_COUNT:98
;LAYER:0
M106 S255
M204 S3000
M205 X10 Y10
G1 F600 Z0.225
G0 F1800 X75.98 Y23.801 Z0.225
M204 S1800
M205 X8 Y8
;TYPE:SKIRT
G1 F600 Z0.15
G1 F2400 E0
G1 X76.24 Y23.235 E0.02393
G1 X76.534 Y22.703 E0.04728
G1 X77.224 Y21.672 E0.09494
G1 X77.555 Y21.256 E0.11536
G1 X78.369 Y20.355 E0.162
G1 X78.739 Y19.993 E0.18189
G1 X79.356 Y19.46 E0.21321
G1 X80.364 Y18.731 E0.261
G1 X81.442 Y18.11 E0.30879
G1 X82.314 Y17.707 E0.34569
G1 X82.854 Y17.51 E0.36777
G1 X84.409 Y17.062 E0.42994
G1 X85.022 Y16.934 E0.454
G1 X85.84 Y16.826 E0.48569
G1 X86.379 Y16.79 E0.50645
G1 X94.16 Y16.769 E0.80536
G1 X95.311 Y16.841 E0.84966
G1 X96.548 Y17.04 E0.89779
G1 X97.499 Y17.281 E0.93548
G1 X98.603 Y17.67 E0.98045
G1 X99.719 Y18.192 E1.02778
G1 X100.792 Y18.836 E1.07585
G1 X101.775 Y19.568 E1.12293
G1 X102.18 Y19.924 E1.14365
G1 X103.038 Y20.782 E1.19026
G1 X103.389 Y21.181 E1.21067
G1 X103.886 Y21.823 E1.24186
G1 X104.174 Y22.245 E1.26149
G1 X104.679 Y23.093 E1.2994
G1 X104.94 Y23.61 E1.32165
G1 X105.128 Y24.158 E1.34391
G1 X105.206 Y24.563 E1.35975
G1 X105.499 Y24.025 E1.38329
G1 X105.933 Y23.337 E1.41454
G1 X106.897 Y22.118 E1.47424
G1 X107.825 Y21.175 E1.52506
G1 X108.643 Y20.497 E1.56588
G1 X109.569 Y19.866 E1.60892
G1 X110.627 Y19.28 E1.65539
G1 X111.824 Y18.767 E1.70541
G1 X113.035 Y18.394 E1.75409
G1 X114.198 Y18.165 E1.79963
G1 X115.626 Y18.038 E1.8547
G1 X116.496 Y18.022 E1.88813
G1 X122.999 Y18.022 E2.13794
G1 X123.998 Y18.066 E2.17636
G1 X124.946 Y18.183 E2.21305
G1 X125.523 Y18.308 E2.23573
G1 X127.281 Y18.819 E2.30606
G1 X127.941 Y19.073 E2.33323
G1 X128.692 Y19.437 E2.36529
G1 X129.164 Y19.705 E2.38614
G1 X130.188 Y20.377 E2.43319
G1 X130.621 Y20.702 E2.45399
G1 X131.188 Y21.189 E2.4827
G1 X132.212 Y22.242 E2.53913
G1 X132.547 Y22.645 E2.55926
G1 X133.139 Y23.455 E2.5978
G1 X133.812 Y24.584 E2.64829
G1 X134.314 Y25.688 E2.69488
G1 X134.714 Y26.843 E2.74184
G1 X134.853 Y27.368 E2.7627
G1 X135.044 Y28.349 E2.80109
G1 X135.186 Y29.879 E2.86012
G1 X135.2 Y61.222 E4.06418
G1 X135.173 Y61.954 E4.09232
G1 X135.088 Y62.85 E4.12689
G1 X134.872 Y64.001 E4.17188
G1 X134.547 Y65.137 E4.21727
G1 X134.087 Y66.276 E4.26446
G1 X133.797 Y66.892 E4.29061
G1 X133.171 Y67.946 E4.33771
G1 X132.696 Y68.619 E4.36935
G1 X132.315 Y69.098 E4.39286
G1 X131.239 Y70.205 E4.45217
G1 X130.572 Y70.784 E4.4861
G1 X129.669 Y71.431 E4.52877
G1 X129.239 Y71.694 E4.54814
G1 X128.166 Y72.263 E4.59479
G1 X127.676 Y72.483 E4.61543
G1 X126.894 Y72.777 E4.64752
G1 X125.748 Y73.099 E4.69325
G1 X124.559 Y73.314 E4.73967
G1 X123.246 Y73.415 E4.79025
G1 X116 Y73.422 E5.06861
G1 X115.002 Y73.378 E5.10699
G1 X114.055 Y73.261 E5.14365
G1 X112.91 Y73.017 E5.18862
G1 X111.506 Y72.557 E5.24537
G1 X110.304 Y72.005 E5.29619
G1 X109.833 Y71.738 E5.31699
G1 X108.811 Y71.067 E5.36395
G1 X108.379 Y70.742 E5.38472
G1 X107.812 Y70.255 E5.41343
G1 X106.788 Y69.202 E5.46986
G1 X106.452 Y68.798 E5.49004
G1 X105.859 Y67.986 E5.52867
G1 X105.542 Y67.479 E5.55164
G1 X104.936 Y66.338 E5.60127
G1 X104.703 Y65.819 E5.62312
G1 X104.445 Y65.118 E5.65182
G1 X104.023 Y63.483 E5.71669
G1 X103.884 Y62.621 E5.75023
G1 X103.811 Y61.512 E5.79292
G1 X103.8 Y58.908 E5.89296
G1 X103.8 Y30.222 E6.99494
G1 X103.827 Y29.491 E7.02305
G1 X103.983 Y28.257 E7.07083
G1 X103.405 Y28.733 E7.09959
G1 X102.902 Y29.021 E7.12186
G1 X102.365 Y29.237 E7.14409
G1 X101.803 Y29.378 E7.16635
G1 X101.164 Y29.441 E7.19102
G1 X99.919 Y29.469 E7.23886
G1 X98.689 Y29.457 E7.28611
G1 X94.762 Y29.464 E7.43697
G1 X93.011 Y29.453 E7.50424
G1 X92.511 Y29.461 E7.52345
G1 X91.493 Y29.458 E7.56255
G1 X88.96 Y29.472 E7.65986
G1 X86.947 Y29.446 E7.7372
G1 X85.966 Y29.465 E7.77489
G1 X82.863 Y29.45 E7.89409
G1 X79.939 Y29.466 E8.00642
G1 X79.361 Y29.429 E8.02867
G1 X78.793 Y29.313 E8.05094
G1 X78.247 Y29.12 E8.07319
G1 X77.732 Y28.854 E8.09546
G1 X77.26 Y28.519 E8.11769
G1 X76.837 Y28.123 E8.13995
G1 X76.473 Y27.672 E8.16222
G1 X76.175 Y27.175 E8.18448
G1 X75.948 Y26.642 E8.20673
G1 X75.796 Y26.083 E8.22899
G1 X75.723 Y25.509 E8.25121
G1 X75.73 Y24.929 E8.2735
G1 X75.816 Y24.356 E8.29576
G1 X75.98 Y23.801 E8.31799
M204 S3000
M205 X10 Y10
G0 F1800 X76.499 Y24.013
M204 S1800
M205 X8 Y8
G1 F2400 X76.73 Y23.505 E8.33942
G1 X77.024 Y22.973 E8.36278
G1 X77.684 Y21.992 E8.4082
G1 X78.784 Y20.731 E8.47248
G1 X79.722 Y19.883 E8.52105
G1 X80.684 Y19.19 E8.5666
G1 X81.712 Y18.601 E8.61211
G1 X82.541 Y18.218 E8.6472
G1 X83.009 Y18.048 E8.66632
G1 X84.564 Y17.6 E8.72849
G1 X85.096 Y17.489 E8.74937
G1 X85.914 Y17.381 E8.78106
G1 X86.38 Y17.35 E8.799
G1 X94.161 Y17.329 E9.09792
G1 X95.27 Y17.4 E9.14061
G1 X96.449 Y17.591 E9.18649
G1 X97.352 Y17.822 E9.22229
G1 X98.41 Y18.196 E9.2654
G1 X99.473 Y18.695 E9.31051
G1 X100.495 Y19.311 E9.35635
G1 X101.433 Y20.012 E9.40134
G1 X102.642 Y21.178 E9.46586
G1 X103.443 Y22.166 E9.51472
G1 X104.197 Y23.38 E9.56962
G1 X104.438 Y23.862 E9.59033
G1 X104.605 Y24.375 E9.61105
G1 X104.695 Y24.907 E9.63178
G1 X104.704 Y25.446 E9.65249
G1 X104.634 Y25.98 E9.67318
G1 X104.486 Y26.499 E9.69391
G1 X104.263 Y26.99 E9.71462
G1 X103.97 Y27.442 E9.73532
G1 X103.613 Y27.847 E9.75606
G1 X103.2 Y28.194 E9.77678
G1 X102.741 Y28.476 E9.79747
G1 X102.244 Y28.687 E9.81822
G1 X101.722 Y28.823 E9.83894
G1 X101.152 Y28.881 E9.86095
G1 X99.907 Y28.909 E9.90879
G1 X98.695 Y28.897 E9.95535
G1 X94.761 Y28.904 E10.10648
G1 X93.051 Y28.893 E10.17217
G1 X92.502 Y28.902 E10.19326
G1 X91.494 Y28.898 E10.23198
G1 X88.956 Y28.912 E10.32948
G1 X86.943 Y28.886 E10.40682
G1 X85.955 Y28.905 E10.44478
G1 X82.863 Y28.89 E10.56356
G1 X79.936 Y28.906 E10.67601
G1 X79.398 Y28.869 E10.69672
G1 X78.871 Y28.753 E10.71745
G1 X78.367 Y28.56 E10.73819
G1 X77.898 Y28.295 E10.75888
G1 X77.472 Y27.964 E10.7796
G1 X77.101 Y27.573 E10.80031
G1 X76.791 Y27.132 E10.82102
G1 X76.549 Y26.65 E10.84174
G1 X76.382 Y26.137 E10.86246
G1 X76.292 Y25.605 E10.88319
G1 X76.281 Y25.066 E10.9039
G1 X76.351 Y24.532 E10.92459
G1 X76.499 Y24.013 E10.94532
M204 S3000
M205 X10 Y10
G0 F1800 X77.032 Y24.186
M204 S1800
M205 X8 Y8
G1 F2400 X77.514 Y23.244 E10.98597
G1 X78.143 Y22.312 E11.02917
G1 X79.2 Y21.106 E11.09077
G1 X80.089 Y20.307 E11.13669
G1 X81.004 Y19.65 E11.17996
G1 X81.983 Y19.091 E11.22327
G1 X82.768 Y18.73 E11.25646
G1 X84.719 Y18.138 E11.33478
G1 X85.987 Y17.936 E11.38411
G1 X94.163 Y17.889 E11.6982
G1 X95.229 Y17.958 E11.73924
G1 X96.35 Y18.142 E11.78288
G1 X97.206 Y18.362 E11.81683
G1 X98.216 Y18.721 E11.85801
G1 X99.226 Y19.198 E11.90091
G1 X100.198 Y19.786 E11.94455
G1 X101.091 Y20.455 E11.98742
G1 X102.246 Y21.574 E12.0492
G1 X103 Y22.509 E12.09534
G1 X103.716 Y23.666 E12.14761
G1 X103.935 Y24.111 E12.16666
G1 X104.079 Y24.586 E12.18573
G1 X104.146 Y25.077 E12.20477
G1 X104.132 Y25.573 E12.22383
G1 X104.039 Y26.06 E12.24287
G1 X103.869 Y26.526 E12.26193
G1 X103.627 Y26.959 E12.28098
G1 X103.318 Y27.347 E12.30004
G1 X102.951 Y27.681 E12.3191
G1 X102.535 Y27.951 E12.33815
G1 X102.082 Y28.151 E12.35718
G1 X101.601 Y28.276 E12.37627
G1 X101.139 Y28.321 E12.3941
G1 X99.894 Y28.349 E12.44194
G1 X98.7 Y28.337 E12.48781
G1 X94.76 Y28.344 E12.63917
G1 X93.046 Y28.333 E12.70501
G1 X92.493 Y28.342 E12.72626
G1 X91.494 Y28.338 E12.76464
G1 X88.952 Y28.352 E12.86229
G1 X86.94 Y28.325 E12.93959
G1 X85.944 Y28.345 E12.97786
G1 X82.863 Y28.33 E13.09622
G1 X79.933 Y28.346 E13.20878
G1 X79.438 Y28.309 E13.22785
G1 X78.956 Y28.193 E13.24689
G1 X78.499 Y28.001 E13.26593
G1 X78.078 Y27.738 E13.285
G1 X77.705 Y27.411 E13.30406
G1 X77.39 Y27.028 E13.32311
G1 X77.14 Y26.6 E13.34215
G1 X76.962 Y26.137 E13.3612
G1 X76.86 Y25.651 E13.38028
G1 X76.838 Y25.156 E13.39932
G1 X76.896 Y24.663 E13.41839
G1 X77.032 Y24.186 E13.43744
M204 S3000
M205 X10 Y10
G0 F1800 X77.58 Y24.321
M204 S1800
M205 X8 Y8
G1 F2400 X78.004 Y23.515 E13.47243
G1 X78.603 Y22.632 E13.51341
G1 X79.615 Y21.482 E13.57226
G1 X80.455 Y20.731 E13.61555
G1 X81.324 Y20.11 E13.65658
G1 X82.253 Y19.582 E13.69763
G1 X82.995 Y19.242 E13.72898
G1 X84.874 Y18.676 E13.80437
G1 X86.06 Y18.492 E13.85047
G1 X94.164 Y18.449 E14.1618
G1 X95.188 Y18.517 E14.20122
G1 X96.251 Y18.694 E14.24262
G1 X97.059 Y18.903 E14.27468
G1 X98.023 Y19.247 E14.314
G1 X98.98 Y19.701 E14.35469
G1 X99.902 Y20.261 E14.39613
G1 X100.749 Y20.899 E14.43687
G1 X101.85 Y21.97 E14.49587
G1 X102.558 Y22.851 E14.53929
G1 X103.235 Y23.953 E14.58898
G1 X103.429 Y24.357 E14.60619
G1 X103.549 Y24.789 E14.62342
G1 X103.59 Y25.236 E14.64066
G1 X103.551 Y25.683 E14.6579
G1 X103.434 Y26.116 E14.67513
G1 X103.241 Y26.521 E14.69236
G1 X102.98 Y26.886 E14.7096
G1 X102.659 Y27.198 E14.7268
G1 X102.287 Y27.449 E14.74403
G1 X101.876 Y27.63 E14.76129
G1 X101.44 Y27.735 E14.77851
G1 X99.882 Y27.789 E14.8384
G1 X98.706 Y27.777 E14.88358
G1 X94.759 Y27.784 E15.03521
G1 X93.041 Y27.773 E15.10121
G1 X92.485 Y27.782 E15.12257
G1 X91.494 Y27.778 E15.16064
G1 X88.948 Y27.792 E15.25844
G1 X86.967 Y27.766 E15.33455
G1 X85.933 Y27.786 E15.37428
G1 X82.863 Y27.77 E15.49222
G1 X79.93 Y27.786 E15.60489
G1 X79.483 Y27.748 E15.62213
G1 X79.049 Y27.632 E15.63938
G1 X78.644 Y27.441 E15.65659
G1 X78.278 Y27.181 E15.67383
G1 X77.965 Y26.86 E15.69106
G1 X77.713 Y26.489 E15.70828
G1 X77.531 Y26.079 E15.72552
G1 X77.424 Y25.643 E15.74276
G1 X77.397 Y25.196 E15.75997
G1 X77.449 Y24.75 E15.77722
G1 X77.58 Y24.321 E15.79445
M204 S3000
M205 X10 Y10
G0 F1800 X78.013 Y24.795
M204 S1800
M205 X8 Y8
G1 F2400 X78.201 Y24.318 E15.81414
G1 X78.495 Y23.786 E15.83749
G1 X79.063 Y22.952 E15.87626
G1 X80.031 Y21.857 E15.9324
G1 X80.821 Y21.155 E15.973
G1 X81.643 Y20.569 E16.01178
G1 X82.523 Y20.072 E16.0506
G1 X83.222 Y19.754 E16.08011
G1 X85.029 Y19.215 E16.15254
G1 X86.133 Y19.047 E16.19544
G1 X94.166 Y19.009 E16.50404
G1 X95.147 Y19.075 E16.54181
G1 X96.152 Y19.245 E16.58096
G1 X96.913 Y19.443 E16.61117
G1 X97.83 Y19.773 E16.64861
G1 X98.734 Y20.204 E16.68708
G1 X99.605 Y20.736 E16.72629
G1 X100.407 Y21.342 E16.76491
G1 X101.454 Y22.366 E16.82117
G1 X102.115 Y23.194 E16.86187
G1 X102.754 Y24.239 E16.90892
G1 X102.921 Y24.598 E16.92413
G1 X103.013 Y24.982 E16.9393
G1 X103.025 Y25.378 E16.95452
G1 X102.958 Y25.767 E16.96968
G1 X102.814 Y26.136 E16.9849
G1 X102.599 Y26.468 E17.0001
G1 X102.322 Y26.75 E17.01528
G1 X101.994 Y26.97 E17.03045
G1 X101.628 Y27.121 E17.04566
G1 X101.114 Y27.202 E17.06565
G1 X99.869 Y27.23 E17.11349
G1 X98.712 Y27.217 E17.15794
G1 X94.758 Y27.224 E17.30984
G1 X93.036 Y27.213 E17.37599
G1 X92.476 Y27.222 E17.3975
G1 X91.495 Y27.218 E17.43519
G1 X88.944 Y27.232 E17.53319
G1 X86.963 Y27.206 E17.6093
G1 X85.922 Y27.226 E17.64929
G1 X82.863 Y27.21 E17.76681
G1 X79.927 Y27.226 E17.8796
G1 X79.533 Y27.188 E17.8948
G1 X79.155 Y27.072 E17.90999
G1 X78.808 Y26.883 E17.92517
G1 X78.506 Y26.627 E17.94038
G1 X78.261 Y26.316 E17.95559
G1 X78.084 Y25.963 E17.97076
G1 X77.981 Y25.581 E17.98596
G1 X77.958 Y25.186 E18.00116
G1 X78.013 Y24.795 E18.01633
M204 S3000
M205 X10 Y10
G0 F1800 X78.595 Y24.803
M204 S1800
M205 X8 Y8
G1 F2400 X78.985 Y24.057 E18.04866
G1 X79.522 Y23.272 E18.0852
G1 X80.446 Y22.232 E18.13864
G1 X81.187 Y21.579 E18.17659
G1 X81.963 Y21.029 E18.21313
G1 X82.793 Y20.563 E18.24969
G1 X83.449 Y20.266 E18.27735
G1 X85.184 Y19.753 E18.34686
G1 X86.207 Y19.602 E18.38658
G1 X94.167 Y19.569 E18.69237
G1 X95.106 Y19.634 E18.72853
G1 X96.053 Y19.796 E18.76544
G1 X96.766 Y19.984 E18.79377
G1 X97.636 Y20.298 E18.8293
G1 X98.488 Y20.707 E18.8656
G1 X99.309 Y21.211 E18.90261
G1 X100.065 Y21.785 E18.93907
G1 X101.058 Y22.762 E18.99259
G1 X101.672 Y23.537 E19.03057
G1 X102.273 Y24.526 E19.07503
G1 X102.408 Y24.831 E19.08784
G1 X102.468 Y25.16 E19.10069
G1 X102.447 Y25.493 E19.11351
G1 X102.349 Y25.812 E19.12633
G1 X102.177 Y26.099 E19.13918
G1 X101.942 Y26.337 E19.15203
G1 X101.658 Y26.512 E19.16485
G1 X101.34 Y26.616 E19.1777
G1 X99.856 Y26.67 E19.23474
G1 X98.717 Y26.657 E19.2785
G1 X94.757 Y26.664 E19.43063
G1 X93.03 Y26.653 E19.49697
G1 X92.467 Y26.662 E19.5186
G1 X91.495 Y26.658 E19.55594
G1 X88.94 Y26.672 E19.6541
G1 X86.96 Y26.645 E19.73017
G1 X85.911 Y26.666 E19.77047
G1 X82.863 Y26.65 E19.88756
G1 X79.924 Y26.666 E20.00047
G1 X79.592 Y26.628 E20.01331
G1 X79.278 Y26.512 E20.02617
G1 X79.001 Y26.326 E20.03898
G1 X78.776 Y26.079 E20.05182
G1 X78.616 Y25.786 E20.06464
G1 X78.53 Y25.463 E20.07748
G1 X78.523 Y25.129 E20.09032
G1 X78.595 Y24.803 E20.10314
M204 S3000
M205 X10 Y10
G0 F1800 X79.108 Y25.036
M204 S1800
M205 X8 Y8
G1 F2400 X79.475 Y24.328 E20.13378
G1 X79.982 Y23.592 E20.16811
G1 X80.862 Y22.608 E20.21882
G1 X81.553 Y22.002 E20.25413
G1 X82.283 Y21.489 E20.2884
G1 X83.064 Y21.053 E20.32277
G1 X83.676 Y20.778 E20.34854
G1 X85.339 Y20.291 E20.41511
G1 X86.28 Y20.157 E20.45162
G1 X94.169 Y20.129 E20.75468
G1 X95.065 Y20.192 E20.78919
G1 X95.954 Y20.347 E20.82385
G1 X96.62 Y20.524 E20.85033
G1 X97.443 Y20.824 E20.88398
G1 X98.241 Y21.21 E20.91803
G1 X99.012 Y21.686 E20.95284
G1 X99.723 Y22.229 E20.98721
G1 X100.662 Y23.158 E21.03795
G1 X101.229 Y23.88 E21.07322
G1 X101.792 Y24.812 E21.11505
G1 X101.888 Y25.052 E21.12498
G1 X101.907 Y25.31 E21.13491
G1 X101.847 Y25.561 E21.14483
G1 X101.713 Y25.782 E21.15476
G1 X101.519 Y25.952 E21.16467
G1 X101.281 Y26.055 E21.17463
G1 X99.844 Y26.11 E21.22987
G1 X98.723 Y26.097 E21.27294
G1 X94.756 Y26.104 E21.42533
G1 X93.025 Y26.093 E21.49183
G1 X92.458 Y26.102 E21.51362
G1 X91.495 Y26.098 E21.55061
G1 X90.356 Y26.102 E21.59436
G1 X88.936 Y26.112 E21.64892
G1 X86.957 Y26.085 E21.72495
G1 X85.9 Y26.106 E21.76556
G1 X82.863 Y26.09 E21.88223
G1 X79.921 Y26.106 E21.99525
G1 X79.665 Y26.068 E22.00519
G1 X79.433 Y25.953 E22.01514
G1 X79.247 Y25.774 E22.02506
G1 X79.124 Y25.547 E22.03497
G1 X79.076 Y25.293 E22.0449
G1 X79.108 Y25.036 E22.05485
M204 S3000
M205 X10 Y10
G0 F1800 X79.671 Y25.131
M204 S1800
M205 X8 Y8
G1 F2400 X79.965 Y24.599 E22.0782
G1 X80.441 Y23.912 E22.11031
G1 X81.277 Y22.983 E22.15832
G1 X81.919 Y22.426 E22.19097
G1 X82.603 Y21.948 E22.22303
G1 X83.334 Y21.544 E22.25511
G1 X83.903 Y21.29 E22.27905
G1 X85.494 Y20.829 E22.34268
G1 X86.353 Y20.712 E22.37599
G1 X94.17 Y20.689 E22.67628
G1 X95.024 Y20.751 E22.70918
G1 X95.855 Y20.898 E22.74159
G1 X96.473 Y21.065 E22.76619
G1 X97.25 Y21.349 E22.79797
G1 X97.995 Y21.713 E22.82982
G1 X98.715 Y22.161 E22.8624
G1 X99.381 Y22.672 E22.89464
G1 X100.266 Y23.554 E22.94264
G1 X100.786 Y24.223 E22.97519
G1 X101.311 Y25.099 E23.01443
G1 X101.35 Y25.242 E23.02012
G1 X101.311 Y25.385 E23.02581
G1 X101.204 Y25.488 E23.03152
G1 X101.076 Y25.522 E23.03661
G1 X99.831 Y25.55 E23.08445
G1 X98.729 Y25.537 E23.12678
G1 X94.755 Y25.544 E23.27945
G1 X93.019 Y25.533 E23.34614
G1 X92.449 Y25.542 E23.36804
G1 X91.496 Y25.538 E23.40465
G1 X90.351 Y25.542 E23.44863
G1 X88.931 Y25.552 E23.50318
G1 X86.953 Y25.525 E23.57918
G1 X85.889 Y25.546 E23.62006
G1 X82.863 Y25.53 E23.73631
G1 X79.918 Y25.546 E23.84944
G1 X79.774 Y25.507 E23.85517
G1 X79.671 Y25.401 E23.86085
G1 X79.636 Y25.257 E23.86654
G1 X79.671 Y25.131 E23.87157
M204 S3000
M205 X10 Y10
G1 F2400 E17.87157
G0 F1800 X79.335 Y24.945
G0 X78.818 Y25.917
G0 X104.58 Y28.044
M204 S1800
M205 X8 Y8
G1 F2400 E23.87157
G1 X104.821 Y26.996 E23.91288
G1 X105.053 Y26.272 E23.94208
G1 X105.514 Y25.192 E23.98719
G1 X105.991 Y24.293 E24.02629
G1 X106.401 Y23.644 E24.05578
G1 X107.331 Y22.471 E24.11328
G1 X108.215 Y21.577 E24.16158
G1 X108.992 Y20.935 E24.2003
G1 X109.877 Y20.333 E24.24142
G1 X110.89 Y19.774 E24.28587
G1 X112.036 Y19.285 E24.33373
G1 X113.189 Y18.932 E24.38005
G1 X114.295 Y18.717 E24.42334
G1 X115.668 Y18.596 E24.47628
