;FLAVOR:Marlin
;TIME:4239
;Filament used: 1.54127m
;Layer height: 0.1
;MINX:73.819
;MINY:15.912
;MINZ:0.1
;MAXX:131.618
;MAXY:53.712
;MAXZ:20
;Generated with Cura_SteamEngine 4.5.0
M140 S60
M105
M190 S60
M104 S200
M105
M109 S200
M82 ;absolute extrusion mode
G21 ;metric values
G90 ;absolute positioning
M82 ;set extruder to absolute mode
M107 ;start with the fan off
G28 X0 Y0 ;move X/Y to min endstops
G28 Z0 ;move Z to min endstops
G1 Z15.0 F50 ;move the platform down 15mm
G92 E0 ;zero the extruded length
G1 F200 E3 ;extrude 3mm of feed stock
G92 E0 ;zero the extruded length again
G1 F50
G0 Y20 F50
M117 Printing...
G5
G92 E0
G92 E0
G1 F2400 E-6
;LAYER_COUNT:200
;LAYER:0
M106 S255
M204 S3000
M205 X10 Y10
G1 F600 Z0.175
G0 F1500 X74.245 Y21.526 Z0.175
M204 S1800
M205 X8 Y8
;TYPE:SKIRT
G1 F600 Z0.1
G1 F2400 E0
G1 X74.474 Y20.848 E0.01666
G1 X74.721 Y20.308 E0.03049
G1 X74.999 Y19.767 E0.04465
G1 X75.361 Y19.15 E0.0613
G1 X75.789 Y18.577 E0.07795
G1 X76.338 Y18 E0.0965
G1 X76.842 Y17.548 E0.11226
G1 X77.408 Y17.111 E0.12891
G1 X78.02 Y16.741 E0.14556
G1 X78.67 Y16.441 E0.16222
G1 X79.404 Y16.201 E0.1802
G1 X80.361 Y15.991 E0.20302
G1 X81.171 Y15.926 E0.22193
G1 X81.935 Y15.913 E0.23972
G1 X99.631 Y15.912 E0.65172
G1 X101.369 Y15.936 E0.69219
G1 X104.12 Y15.936 E0.75624
G1 X104.816 Y15.92 E0.77245
G1 X105.499 Y15.912 E0.78835
G1 X123.343 Y15.912 E1.2038
G1 X124.001 Y15.921 E1.21912
G1 X124.592 Y15.956 E1.2329
G1 X125.737 Y16.119 E1.25983
G1 X126.426 Y16.313 E1.2765
G1 X127.088 Y16.582 E1.29313
G1 X127.919 Y17.055 E1.31539
G1 X128.382 Y17.374 E1.32848
G1 X128.938 Y17.824 E1.34514
G1 X129.44 Y18.333 E1.36178
G1 X130.019 Y19.097 E1.3841
G1 X130.637 Y20.128 E1.41209
G1 X130.94 Y20.815 E1.42957
G1 X131.182 Y21.488 E1.44622
G1 X131.307 Y21.979 E1.45802
G1 X131.435 Y22.581 E1.47234
G1 X131.544 Y23.288 E1.489
G1 X131.599 Y24.596 E1.51948
G1 X131.618 Y44.454 E1.98182
G1 X131.61 Y45.179 E1.9987
G1 X131.59 Y45.728 E2.01149
G1 X131.429 Y47.1 E2.04365
G1 X131.311 Y47.629 E2.05627
G1 X131.026 Y48.611 E2.08007
G1 X130.759 Y49.238 E2.09594
G1 X130.414 Y49.911 E2.11355
G1 X130.045 Y50.524 E2.13021
G1 X129.61 Y51.092 E2.14686
G1 X129.074 Y51.659 E2.16503
G1 X128.545 Y52.141 E2.18169
G1 X127.966 Y52.561 E2.19834
G1 X127.401 Y52.888 E2.21354
G1 X126.755 Y53.194 E2.23019
G1 X126.078 Y53.426 E2.24685
G1 X125.38 Y53.581 E2.26349
G1 X124.718 Y53.657 E2.27901
G1 X122.904 Y53.711 E2.32126
G1 X106.009 Y53.712 E2.71461
G1 X103.93 Y53.683 E2.76302
G1 X100.854 Y53.688 E2.83464
G1 X99.533 Y53.711 E2.8654
G1 X81.733 Y53.708 E3.27982
G1 X81.045 Y53.692 E3.29584
G1 X80.332 Y53.632 E3.3125
G1 X79.631 Y53.494 E3.32913
G1 X78.78 Y53.211 E3.35001
G1 X77.907 Y52.808 E3.3724
G1 X77.288 Y52.42 E3.38941
G1 X76.549 Y51.847 E3.41118
G1 X76.043 Y51.341 E3.42784
G1 X75.599 Y50.794 E3.44424
G1 X75.209 Y50.234 E3.46013
G1 X74.849 Y49.615 E3.4768
G1 X74.549 Y48.94 E3.494
G1 X74.377 Y48.495 E3.50511
G1 X74.103 Y47.547 E3.52808
G1 X73.991 Y46.958 E3.54204
G1 X73.909 Y46.408 E3.55499
G1 X73.844 Y45.705 E3.57142
G1 X73.829 Y45.059 E3.58647
G1 X73.819 Y25.074 E4.05176
G1 X73.829 Y24.351 E4.0686
G1 X73.879 Y23.511 E4.08819
G1 X74.07 Y22.203 E4.11896
G1 X74.245 Y21.526 E4.13524
M204 S3000
M205 X10 Y10
G0 F1500 X74.785 Y21.675
M204 S1800
M205 X8 Y8
G1 F2400 X75.005 Y21.028 E4.15115
G1 X75.219 Y20.564 E4.16305
G1 X75.497 Y20.023 E4.17721
G1 X75.844 Y19.434 E4.19313
G1 X76.258 Y18.891 E4.20903
G1 X76.719 Y18.411 E4.22452
G1 X77.208 Y17.971 E4.23984
G1 X77.75 Y17.556 E4.25573
G1 X78.337 Y17.207 E4.27163
G1 X78.961 Y16.928 E4.28754
G1 X79.545 Y16.742 E4.30181
G1 X80.471 Y16.541 E4.32387
G1 X81.181 Y16.486 E4.34045
G1 X81.945 Y16.473 E4.35824
G1 X99.631 Y16.472 E4.77001
G1 X101.361 Y16.496 E4.81029
G1 X104.133 Y16.496 E4.87483
G1 X104.829 Y16.48 E4.89104
G1 X105.505 Y16.472 E4.90678
G1 X123.343 Y16.472 E5.32208
G1 X123.993 Y16.481 E5.33722
G1 X124.533 Y16.513 E5.34981
G1 X125.646 Y16.673 E5.37599
G1 X126.302 Y16.863 E5.39189
G1 X126.931 Y17.128 E5.40778
G1 X127.607 Y17.52 E5.42598
G1 X128.054 Y17.829 E5.43863
G1 X128.585 Y18.26 E5.45455
G1 X129.061 Y18.75 E5.47046
G1 X129.549 Y19.401 E5.4894
G1 X129.813 Y19.81 E5.50073
G1 X130.284 Y20.7 E5.52418
G1 X130.654 Y21.677 E5.5485
G1 X130.887 Y22.697 E5.57286
G1 X130.99 Y23.373 E5.58878
G1 X131.039 Y24.613 E5.61767
G1 X131.058 Y44.454 E6.07961
G1 X131.05 Y45.172 E6.09633
G1 X131.03 Y45.705 E6.10875
G1 X130.882 Y46.981 E6.13866
G1 X130.768 Y47.494 E6.15089
G1 X130.491 Y48.445 E6.17395
G1 X130.25 Y49.004 E6.18812
G1 X129.919 Y49.65 E6.20502
G1 X129.565 Y50.234 E6.22092
G1 X128.925 Y51.011 E6.24436
G1 X128.168 Y51.726 E6.2686
G1 X127.612 Y52.122 E6.2845
G1 X127.134 Y52.396 E6.29732
G1 X126.515 Y52.686 E6.31324
G1 X125.867 Y52.903 E6.32915
G1 X124.867 Y53.081 E6.3528
G1 X124.267 Y53.122 E6.3668
G1 X122.892 Y53.151 E6.39882
G1 X106.009 Y53.152 E6.79189
G1 X103.937 Y53.123 E6.84014
G1 X100.843 Y53.128 E6.91217
G1 X99.523 Y53.151 E6.94291
G1 X81.733 Y53.148 E7.3571
G1 X81.06 Y53.132 E7.37277
G1 X80.38 Y53.073 E7.38866
G1 X79.71 Y52.936 E7.40458
G1 X78.993 Y52.693 E7.42221
G1 X78.15 Y52.302 E7.44384
G1 X77.612 Y51.963 E7.45865
G1 X76.9 Y51.409 E7.47965
G1 X76.42 Y50.922 E7.49557
G1 X76.043 Y50.452 E7.5096
G1 X75.677 Y49.925 E7.52454
G1 X75.335 Y49.334 E7.54044
G1 X75.066 Y48.726 E7.55592
G1 X74.902 Y48.298 E7.56659
G1 X74.651 Y47.433 E7.58756
G1 X74.545 Y46.875 E7.60078
G1 X74.463 Y46.325 E7.61373
G1 X74.403 Y45.684 E7.62872
G1 X74.389 Y45.055 E7.64336
G1 X74.379 Y25.074 E8.10856
G1 X74.389 Y24.359 E8.12521
G1 X74.438 Y23.552 E8.14404
G1 X74.614 Y22.335 E8.17266
G1 X74.785 Y21.675 E8.18854
M204 S3000
M205 X10 Y10
G0 F1500 X75.324 Y21.825
M204 S1800
M205 X8 Y8
G1 F2400 X75.536 Y21.21 E8.20368
G1 X75.995 Y20.279 E8.22785
G1 X76.327 Y19.72 E8.24299
G1 X76.725 Y19.207 E8.2581
G1 X77.1 Y18.821 E8.27063
G1 X77.574 Y18.395 E8.28547
G1 X78.091 Y18.002 E8.30059
G1 X78.652 Y17.675 E8.31571
G1 X79.249 Y17.419 E8.33083
G1 X79.943 Y17.217 E8.34766
G1 X80.581 Y17.092 E8.3628
G1 X81.19 Y17.046 E8.37702
G1 X81.954 Y17.033 E8.39481
G1 X99.631 Y17.032 E8.80636
G1 X101.354 Y17.056 E8.84648
G1 X104.103 Y17.056 E8.91049
G1 X104.842 Y17.039 E8.9277
G1 X105.51 Y17.032 E8.94325
G1 X123.343 Y17.032 E9.35844
G1 X123.985 Y17.041 E9.37339
G1 X124.912 Y17.117 E9.39504
G1 X125.553 Y17.226 E9.41018
G1 X126.175 Y17.412 E9.42529
G1 X126.769 Y17.674 E9.44041
G1 X127.295 Y17.984 E9.45462
G1 X127.727 Y18.283 E9.46686
G1 X128.23 Y18.694 E9.48198
G1 X128.678 Y19.164 E9.4971
G1 X129.078 Y19.705 E9.51276
G1 X129.342 Y20.114 E9.5241
G1 X129.768 Y20.918 E9.54528
G1 X130.125 Y21.864 E9.56882
G1 X130.34 Y22.814 E9.5915
G1 X130.453 Y23.75 E9.61345
G1 X130.48 Y24.63 E9.63395
G1 X130.498 Y44.455 E10.09551
G1 X130.49 Y45.165 E10.11205
G1 X130.471 Y45.682 E10.12409
G1 X130.335 Y46.861 E10.15172
G1 X130.224 Y47.359 E10.1636
G1 X129.955 Y48.277 E10.18587
G1 X129.741 Y48.771 E10.19841
G1 X129.424 Y49.388 E10.21456
G1 X129.085 Y49.943 E10.2297
G1 X128.525 Y50.619 E10.25014
G1 X127.792 Y51.31 E10.27359
G1 X127.026 Y51.817 E10.29498
G1 X126.278 Y52.178 E10.31431
G1 X125.66 Y52.378 E10.32944
G1 X124.817 Y52.524 E10.34935
G1 X124.255 Y52.562 E10.36247
G1 X122.88 Y52.591 E10.39449
G1 X106.009 Y52.592 E10.78728
G1 X103.944 Y52.563 E10.83536
G1 X100.832 Y52.568 E10.90782
G1 X99.513 Y52.591 E10.93853
G1 X81.733 Y52.588 E11.35249
G1 X81.076 Y52.572 E11.36779
G1 X80.428 Y52.514 E11.38294
G1 X79.793 Y52.378 E11.39805
G1 X79.206 Y52.175 E11.41252
G1 X78.394 Y51.797 E11.43337
G1 X77.936 Y51.506 E11.446
G1 X77.251 Y50.971 E11.46624
G1 X76.631 Y50.298 E11.48754
G1 X76.258 Y49.79 E11.50222
G1 X75.821 Y49.054 E11.52214
G1 X75.583 Y48.511 E11.53595
G1 X75.199 Y47.319 E11.5651
G1 X75.099 Y46.793 E11.57757
G1 X75.017 Y46.243 E11.59052
G1 X74.963 Y45.663 E11.60408
G1 X74.949 Y45.05 E11.61835
G1 X74.939 Y25.074 E12.08344
G1 X74.949 Y24.367 E12.0999
G1 X74.996 Y23.593 E12.11795
G1 X75.158 Y22.467 E12.14444
G1 X75.324 Y21.825 E12.15988
M204 S3000
M205 X10 Y10
G1 F2400 E6.15988
;MESH:empalmes-cables-conexion-jack.stl
G0 F1500 X79.744 Y23.14
G0 X81.214 Y23.532
G0 X99.972 Y24.266
M204 S1800
M205 X8 Y8
;TYPE:WALL-INNER
G1 F2400 E12.15988
G1 F1500 X99.98 Y45.171 E12.64659
G1 X99.932 Y45.68 E12.65849
G1 X99.861 Y45.912 E12.66414
G1 X81.731 Y45.911 E13.08625
G1 X81.713 Y45.865 E13.0874
G1 X81.629 Y45.353 E13.09948
G1 X81.619 Y24.464 E13.58582
G1 X81.666 Y23.936 E13.59816
G1 X81.73 Y23.712 E13.60358
G1 X99.864 Y23.712 E14.02578
G1 X99.936 Y23.959 E14.03177
G1 X99.972 Y24.266 E14.03896
M204 S3000
M205 X10 Y10
G0 X100.356 Y23.401
M204 S1800
M205 X8 Y8
G1 X100.487 Y23.849 E14.04983
G1 X100.532 Y24.235 E14.05888
G1 X100.54 Y45.192 E14.5468
G1 X100.483 Y45.793 E14.56086
G1 X100.336 Y46.275 E14.57259
G1 X100.293 Y46.354 E14.57468
G1 X100.186 Y46.472 E14.57839
G1 X81.797 Y46.472 E15.00653
G1 X81.395 Y46.466 E15.01589
G1 X81.295 Y46.332 E15.01978
G1 X81.17 Y46.017 E15.02767
G1 X81.069 Y45.4 E15.04223
G1 X81.059 Y24.437 E15.53029
G1 X81.112 Y23.841 E15.54422
G1 X81.196 Y23.525 E15.55183
G1 X81.361 Y23.202 E15.56028
G1 X81.417 Y23.152 E15.56203
G1 X100.199 Y23.152 E15.99931
G1 X100.239 Y23.193 E16.00064
G1 X100.356 Y23.401 E16.0062
M204 S3000
M205 X10 Y10
G0 X100.504 Y22.665
M204 S1800
M205 X8 Y8
;TYPE:WALL-OUTER
G1 X100.689 Y22.851 E16.01231
G1 X100.875 Y23.182 E16.02115
G1 X101.038 Y23.739 E16.03466
G1 X101.092 Y24.205 E16.04558
G1 X101.1 Y45.213 E16.53469
G1 X101.034 Y45.907 E16.55092
G1 X100.856 Y46.49 E16.56511
G1 X100.755 Y46.679 E16.5701
G1 X100.494 Y46.966 E16.57914
G1 X100.414 Y47.008 E16.58124
G1 X100.281 Y47.032 E16.58439
G1 X81.789 Y47.032 E17.01492
G1 X81.237 Y47.024 E17.02777
G1 X81.203 Y47.014 E17.0286
G1 X80.996 Y46.872 E17.03444
G1 X80.801 Y46.605 E17.04214
G1 X80.626 Y46.165 E17.05316
G1 X80.509 Y45.447 E17.0701
G1 X80.499 Y24.41 E17.55989
G1 X80.558 Y23.748 E17.57536
G1 X80.671 Y23.32 E17.58567
G1 X80.91 Y22.853 E17.59788
G1 X81.153 Y22.637 E17.60545
G1 X81.327 Y22.592 E17.60963
G1 X100.282 Y22.592 E18.05095
G1 X100.415 Y22.617 E18.0541
G1 X100.504 Y22.665 E18.05645
M204 S3000
M205 X10 Y10
G0 X100.645 Y22.806
G0 X100.159 Y23.252
G0 X99.418 Y24.262
M204 S1800
M205 X8 Y8
;TYPE:SKIN
G1 X99.422 Y24.297 E18.05727
G1 X99.43 Y45.142 E18.54259
G1 X99.409 Y45.362 E18.54773
G1 X82.187 Y45.361 E18.9487
G1 X82.179 Y45.312 E18.94985
G1 X82.169 Y24.491 E19.43461
G1 X82.189 Y24.262 E19.43996
G1 X99.418 Y24.262 E19.84109
M204 S3000
M205 X10 Y10
G0 X99.161 Y24.717
M204 S1800
M205 X8 Y8
G1 X98.965 Y24.521 E19.84754
M204 S3000
M205 X10 Y10
G0 X98.173 Y24.521
M204 S1800
M205 X8 Y8
G1 X99.161 Y25.509 E19.88007
M204 S3000
M205 X10 Y10
G0 X99.161 Y26.301
M204 S1800
M205 X8 Y8
G1 X97.382 Y24.521 E19.93866
M204 S3000
M205 X10 Y10
G0 X96.59 Y24.521
M204 S1800
M205 X8 Y8
G1 X99.162 Y27.094 E20.02336
M204 S3000
M205 X10 Y10
G0 X99.162 Y27.886
M204 S1800
M205 X8 Y8
G1 X95.798 Y24.521 E20.13414
M204 S3000
M205 X10 Y10
G0 X95.006 Y24.521
M204 S1800
M205 X8 Y8
G1 X99.163 Y28.678 E20.27102
M204 S3000
M205 X10 Y10
G0 X99.163 Y29.47
M204 S1800
M205 X8 Y8
G1 X94.214 Y24.521 E20.43397
M204 S3000
M205 X10 Y10
G0 X93.422 Y24.521
M204 S1800
M205 X8 Y8
G1 X99.163 Y30.263 E20.62301
M204 S3000
M205 X10 Y10
G0 X99.163 Y31.055
M204 S1800
M205 X8 Y8
G1 X92.63 Y24.521 E20.83813
M204 S3000
M205 X10 Y10
G0 X91.838 Y24.521
M204 S1800
M205 X8 Y8
G1 X99.163 Y31.847 E21.07933
M204 S3000
M205 X10 Y10
G0 X99.164 Y32.64
M204 S1800
M205 X8 Y8
G1 X91.046 Y24.521 E21.34664
M204 S3000
M205 X10 Y10
G0 X90.254 Y24.521
M204 S1800
M205 X8 Y8
G1 X99.164 Y33.432 E21.64002
M204 S3000
M205 X10 Y10
G0 X99.165 Y34.224
M204 S1800
M205 X8 Y8
G1 X89.462 Y24.521 E21.9595
M204 S3000
M205 X10 Y10
G0 X88.67 Y24.521
M204 S1800
M205 X8 Y8
G1 X99.165 Y35.016 E22.30506
M204 S3000
M205 X10 Y10
G0 X99.166 Y35.809
M204 S1800
M205 X8 Y8
G1 X87.878 Y24.521 E22.67673
M204 S3000
M205 X10 Y10
G0 X87.086 Y24.521
M204 S1800
M205 X8 Y8
G1 X99.166 Y36.601 E23.07447
M204 S3000
M205 X10 Y10
G0 X99.166 Y37.393
M204 S1800
M205 X8 Y8
G1 X86.294 Y24.521 E23.49829
M204 S3000
M205 X10 Y10
G0 X85.502 Y24.521
M204 S1800
M205 X8 Y8
G1 X99.166 Y38.185 E23.94819
M204 S3000
M205 X10 Y10
G0 X99.166 Y38.977
M204 S1800
M205 X8 Y8
G1 X84.71 Y24.521 E24.42417
M204 S3000
M205 X10 Y10
G0 X83.918 Y24.521
M204 S1800
M205 X8 Y8
G1 X99.167 Y39.77 E24.92625
M204 S3000
M205 X10 Y10
G0 X99.167 Y40.562
M204 S1800
M205 X8 Y8
G1 X83.126 Y24.521 E25.45442
M204 S3000
M205 X10 Y10
G0 X82.428 Y24.615
M204 S1800
M205 X8 Y8
G1 X99.167 Y41.354 E26.00556
M204 S3000
M205 X10 Y10
G0 X99.168 Y42.147
M204 S1800
M205 X8 Y8
G1 X82.428 Y25.407 E26.55674
M204 S3000
M205 X10 Y10
G0 X82.428 Y26.199
M204 S1800
M205 X8 Y8
G1 X99.168 Y42.939 E27.10792
M204 S3000
M205 X10 Y10
G0 X99.168 Y43.731
M204 S1800
M205 X8 Y8
G1 X82.428 Y26.991 E27.6591
M204 S3000
M205 X10 Y10
G0 X82.429 Y27.784
M204 S1800
M205 X8 Y8
G1 X99.168 Y44.523 E28.21025
M204 S3000
M205 X10 Y10
G0 X98.954 Y45.101
M204 S1800
M205 X8 Y8
G1 X82.429 Y28.576 E28.75435
M204 S3000
M205 X10 Y10
G0 X82.43 Y29.368
M204 S1800
M205 X8 Y8
G1 X98.162 Y45.101 E29.27235
M204 S3000
M205 X10 Y10
G0 X97.37 Y45.101
M204 S1800
M205 X8 Y8
G1 X82.43 Y30.16 E29.76428
M204 S3000
M205 X10 Y10
G0 X82.43 Y30.953
M204 S1800
M205 X8 Y8
G1 X96.578 Y45.101 E30.23012
M204 S3000
M205 X10 Y10
G0 X95.786 Y45.101
M204 S1800
M205 X8 Y8
G1 X82.43 Y31.745 E30.66987
M204 S3000
M205 X10 Y10
G0 X82.431 Y32.538
M204 S1800
M205 X8 Y8
G1 X94.994 Y45.101 E31.08352
M204 S3000
M205 X10 Y10
G0 X94.202 Y45.101
M204 S1800
M205 X8 Y8
G1 X82.431 Y33.33 E31.47109
M204 S3000
M205 X10 Y10
G0 X82.432 Y34.122
M204 S1800
M205 X8 Y8
G1 X93.41 Y45.101 E31.83257
M204 S3000
M205 X10 Y10
G0 X92.618 Y45.101
M204 S1800
M205 X8 Y8
G1 X82.433 Y34.915 E32.16793
M204 S3000
M205 X10 Y10
G0 X82.433 Y35.707
M204 S1800
M205 X8 Y8
G1 X91.827 Y45.101 E32.47724
M204 S3000
M205 X10 Y10
G0 X91.035 Y45.101
M204 S1800
M205 X8 Y8
G1 X82.433 Y36.5 E32.76045
M204 S3000
M205 X10 Y10
G0 X82.433 Y37.292
M204 S1800
M205 X8 Y8
G1 X90.243 Y45.101 E33.01759
M204 S3000
M205 X10 Y10
G0 X89.451 Y45.101
M204 S1800
M205 X8 Y8
G1 X82.434 Y38.084 E33.24863
M204 S3000
M205 X10 Y10
G0 X82.434 Y38.876
M204 S1800
M205 X8 Y8
G1 X88.659 Y45.101 E33.45359
M204 S3000
M205 X10 Y10
G0 X87.867 Y45.101
M204 S1800
M205 X8 Y8
G1 X82.435 Y39.669 E33.63244
M204 S3000
M205 X10 Y10
G0 X82.435 Y40.461
M204 S1800
M205 X8 Y8
G1 X87.075 Y45.101 E33.78522
M204 S3000
M205 X10 Y10
G0 X86.283 Y45.101
M204 S1800
M205 X8 Y8
G1 X82.435 Y41.254 E33.9119
M204 S3000
M205 X10 Y10
G0 X82.435 Y42.045
M204 S1800
M205 X8 Y8
G1 X85.491 Y45.101 E34.01252
M204 S3000
M205 X10 Y10
G0 X84.699 Y45.101
M204 S1800
M205 X8 Y8
G1 X82.436 Y42.838 E34.08703
M204 S3000
M205 X10 Y10
G0 X82.436 Y43.63
M204 S1800
M205 X8 Y8
G1 X83.907 Y45.101 E34.13547
M204 S3000
M205 X10 Y10
G0 X83.115 Y45.101
M204 S1800
M205 X8 Y8
G1 X82.437 Y44.423 E34.15779
M204 S3000
M205 X10 Y10
G1 F2400 E28.15779
G0 F1500 X100.513 Y24.236
G0 X102.036 Y24.235
G0 X103.399 Y24.36
G0 X104.917 Y24.482
G0 X123.801 Y24.128
M204 S1800
M205 X8 Y8
;TYPE:WALL-INNER
G1 F2400 E34.15779
G1 F1500 X123.819 Y45.129 E34.64674
G1 X123.795 Y45.548 E34.65651
G1 X123.71 Y45.909 E34.66514
G1 X123.709 Y45.912 E34.66522
G1 X105.576 Y45.912 E35.08739
G1 X105.545 Y45.838 E35.08926
G1 X105.474 Y45.43 E35.0989
G1 X105.458 Y24.504 E35.5861
G1 X105.503 Y23.958 E35.59886
G1 X105.578 Y23.712 E35.60485
G1 X123.713 Y23.712 E36.02707
G1 X123.744 Y23.804 E36.02933
G1 X123.801 Y24.128 E36.03699
M204 S3000
M205 X10 Y10
G0 X124.042 Y23.161
M204 S1800
M205 X8 Y8
G1 X124.209 Y23.431 E36.04438
G1 X124.287 Y23.663 E36.05008
G1 X124.361 Y24.08 E36.05994
G1 X124.379 Y45.144 E36.55035
G1 X124.351 Y45.628 E36.56164
G1 X124.239 Y46.106 E36.57307
G1 X124.058 Y46.454 E36.5822
G1 X123.805 Y46.472 E36.58811
G1 X105.364 Y46.472 E37.01745
G1 X105.239 Y46.457 E37.02038
G1 X105.163 Y46.373 E37.02302
G1 X105.004 Y45.997 E37.03252
G1 X104.914 Y45.48 E37.04474
G1 X104.898 Y24.482 E37.53362
G1 X104.95 Y23.852 E37.54834
G1 X105.094 Y23.377 E37.55989
G1 X105.235 Y23.158 E37.56596
G1 X105.255 Y23.152 E37.56644
G1 X123.993 Y23.152 E38.0027
G1 X124.042 Y23.161 E38.00386
M204 S3000
M205 X10 Y10
G0 X124.457 Y22.768
