;FLAVOR:Marlin
;TIME:2797
;Filament used: 1.76977m
;Layer height: 0.15
;MINX:78.3
;MINY:17.418
;MINZ:0.15
;MAXX:131.7
;MAXY:50.818
;MAXZ:19.95
;Generated with Cura_SteamEngine 4.5.0
M140 S60
M105
M190 S60
M104 S200
M105
M109 S200
M82 ;absolute extrusion mode
G21 ;metric values
G90 ;absolute positioning
M82 ;set extruder to absolute mode
M107 ;start with the fan off
G28 X0 Y0 ;move X/Y to min endstops
G28 Z0 ;move Z to min endstops
G1 Z15.0 F100 ;move the platform down 15mm
G92 E0 ;zero the extruded length
G1 F200 E3 ;extrude 3mm of feed stock
G92 E0 ;zero the extruded length again
G1 F100
G0 Y20 F100
M117 Printing...
G5
G92 E0
G92 E0
G1 F2400 E-6
;LAYER_COUNT:133
;LAYER:0
M106 S255
M204 S3000
M205 X10 Y10
G1 F600 Z0.225
G0 F1800 X78.5 Y21.94 Z0.225
M204 S1800
M205 X8 Y8
;TYPE:SKIRT
G1 F600 Z0.15
G1 F2400 E0
G1 X78.811 Y20.911 E0.0413
G1 X79.232 Y20.064 E0.07763
G1 X79.532 Y19.568 E0.0999
G1 X79.897 Y19.118 E0.12216
G1 X80.497 Y18.56 E0.15363
G1 X80.954 Y18.204 E0.17589
G1 X81.456 Y17.915 E0.19814
G1 X82.211 Y17.634 E0.22909
G1 X83.053 Y17.45 E0.2622
G1 X83.569 Y17.418 E0.28206
G1 X102.588 Y17.418 E1.01268
G1 X103.166 Y17.458 E1.03494
G1 X103.974 Y17.653 E1.06687
G1 X104.875 Y18.011 E1.10411
G1 X104.996 Y18.084 E1.10954
G1 X105.361 Y17.888 E1.12546
G1 X105.841 Y17.707 E1.14516
G1 X106.735 Y17.473 E1.18066
G1 X107.411 Y17.418 E1.20672
G1 X126.428 Y17.418 E1.93727
G1 X127.181 Y17.486 E1.96631
G1 X127.946 Y17.666 E1.9965
G1 X128.482 Y17.885 E2.01874
G1 X129.053 Y18.223 E2.04423
G1 X129.818 Y18.812 E2.08132
G1 X130.212 Y19.236 E2.10356
G1 X130.517 Y19.665 E2.12378
G1 X130.827 Y20.165 E2.14638
G1 X131.097 Y20.677 E2.16862
G1 X131.366 Y21.424 E2.19912
G1 X131.519 Y22.023 E2.22286
G1 X131.618 Y22.582 E2.24467
G1 X131.682 Y23.31 E2.27275
G1 X131.7 Y44.531 E3.08796
G1 X131.658 Y45.32 E3.11832
G1 X131.558 Y46.004 E3.14487
G1 X131.407 Y46.653 E3.17047
G1 X131.237 Y47.207 E3.19273
G1 X130.767 Y48.175 E3.23407
G1 X130.468 Y48.67 E3.25628
G1 X129.982 Y49.245 E3.2852
G1 X129.304 Y49.858 E3.32032
G1 X128.786 Y50.189 E3.34393
G1 X128.093 Y50.517 E3.37339
G1 X127.538 Y50.681 E3.39562
G1 X126.987 Y50.766 E3.41704
G1 X126.197 Y50.818 E3.44745
G1 X107.413 Y50.818 E4.16905
G1 X106.835 Y50.778 E4.1913
G1 X106.281 Y50.67 E4.21299
G1 X105.725 Y50.508 E4.23523
G1 X105.103 Y50.22 E4.26156
G1 X104.996 Y50.159 E4.2663
G1 X104.184 Y50.54 E4.30075
G1 X103.562 Y50.708 E4.3255
G1 X102.587 Y50.818 E4.36319
G1 X83.573 Y50.818 E5.09363
G1 X82.723 Y50.731 E5.12645
G1 X81.952 Y50.531 E5.15705
G1 X81.421 Y50.3 E5.17929
G1 X80.985 Y50.038 E5.19883
G1 X80.248 Y49.484 E5.23425
G1 X79.848 Y49.066 E5.25648
G1 X79.537 Y48.641 E5.27671
G1 X79.203 Y48.118 E5.30055
G1 X78.926 Y47.609 E5.32281
G1 X78.698 Y46.988 E5.34822
G1 X78.516 Y46.337 E5.37419
G1 X78.378 Y45.587 E5.40349
G1 X78.317 Y44.917 E5.42933
G1 X78.3 Y23.702 E6.24431
G1 X78.379 Y22.633 E6.28549
G1 X78.5 Y21.94 E6.31252
M204 S3000
M205 X10 Y10
G0 F1800 X79.041 Y22.082
M204 S1800
M205 X8 Y8
G1 F2400 X79.167 Y21.602 E6.33158
G1 X79.452 Y20.86 E6.36212
G1 X79.73 Y20.32 E6.38545
G1 X80.011 Y19.86 E6.40616
G1 X80.54 Y19.272 E6.43654
G1 X81.298 Y18.649 E6.47423
G1 X81.769 Y18.387 E6.49494
G1 X82.356 Y18.175 E6.51891
G1 X83.159 Y18.001 E6.55048
G1 X102.588 Y17.978 E7.29685
G1 X103.126 Y18.018 E7.31757
G1 X103.789 Y18.182 E7.34381
G1 X104.653 Y18.526 E7.37954
G1 X105.002 Y18.744 E7.39534
G1 X105.659 Y18.369 E7.42441
G1 X106.336 Y18.14 E7.45186
G1 X106.862 Y18.02 E7.47259
G1 X107.411 Y17.978 E7.49374
G1 X126.428 Y17.978 E8.22428
G1 X127.081 Y18.037 E8.24947
G1 X127.806 Y18.21 E8.2781
G1 X128.302 Y18.421 E8.29881
G1 X128.73 Y18.681 E8.31805
G1 X129.462 Y19.247 E8.35359
G1 X129.823 Y19.647 E8.37429
G1 X130.351 Y20.46 E8.41153
G1 X130.6 Y20.938 E8.43224
G1 X130.835 Y21.601 E8.45926
G1 X130.967 Y22.12 E8.47983
G1 X131.066 Y22.679 E8.50164
G1 X131.122 Y23.311 E8.52602
G1 X131.14 Y44.532 E9.34123
G1 X131.1 Y45.284 E9.37016
G1 X131.012 Y45.877 E9.39319
G1 X130.861 Y46.526 E9.41879
G1 X130.701 Y47.041 E9.4395
G1 X130.269 Y47.919 E9.47709
G1 X129.988 Y48.379 E9.4978
G1 X129.589 Y48.846 E9.5214
G1 X128.939 Y49.432 E9.55502
G1 X128.355 Y49.785 E9.58123
G1 X127.863 Y50.005 E9.60194
G1 X127.343 Y50.15 E9.62267
G1 X126.509 Y50.245 E9.65492
G1 X107.413 Y50.258 E10.3885
G1 X106.639 Y50.175 E10.4184
G1 X105.883 Y49.969 E10.44851
G1 X105.379 Y49.733 E10.46988
G1 X104.991 Y49.486 E10.48755
G1 X104.458 Y49.813 E10.51158
G1 X103.962 Y50.025 E10.5323
G1 X103.458 Y50.158 E10.55232
G1 X102.587 Y50.258 E10.586
G1 X83.573 Y50.258 E11.31643
G1 X82.837 Y50.183 E11.34485
G1 X82.105 Y49.991 E11.37392
G1 X81.614 Y49.768 E11.39464
G1 X81.019 Y49.382 E11.42189
G1 X80.598 Y49.045 E11.4426
G1 X80.231 Y48.65 E11.46331
G1 X79.675 Y47.816 E11.50182
G1 X79.419 Y47.341 E11.52255
G1 X79.237 Y46.837 E11.54313
G1 X79.055 Y46.186 E11.5691
G1 X78.936 Y45.536 E11.59449
G1 X78.875 Y44.866 E11.62033
G1 X78.86 Y23.702 E12.43336
G1 X78.936 Y22.683 E12.47261
G1 X79.041 Y22.082 E12.49605
M204 S3000
M205 X10 Y10
G0 F1800 X79.583 Y22.224
M204 S1800
M205 X8 Y8
G1 F2400 X79.709 Y21.744 E12.51511
G1 X79.95 Y21.116 E12.54095
G1 X80.228 Y20.576 E12.56428
G1 X80.489 Y20.155 E12.58331
G1 X80.913 Y19.69 E12.60749
G1 X81.638 Y19.095 E12.64352
G1 X82.077 Y18.863 E12.66259
G1 X82.773 Y18.643 E12.69063
G1 X83.261 Y18.553 E12.7097
G1 X102.588 Y18.538 E13.45215
G1 X103.604 Y18.711 E13.49174
G1 X104.427 Y19.04 E13.52579
G1 X104.997 Y19.448 E13.55272
G1 X105.506 Y19.073 E13.57701
G1 X106.171 Y18.777 E13.60497
G1 X106.986 Y18.568 E13.63729
G1 X107.411 Y18.538 E13.65366
G1 X126.428 Y18.538 E14.38421
G1 X126.98 Y18.588 E14.4055
G1 X127.662 Y18.753 E14.43245
G1 X128.115 Y18.956 E14.45152
G1 X128.723 Y19.362 E14.47961
G1 X129.104 Y19.679 E14.49865
G1 X129.565 Y20.255 E14.52699
G1 X129.875 Y20.755 E14.54959
G1 X130.178 Y21.402 E14.57703
G1 X130.416 Y22.218 E14.60969
G1 X130.515 Y22.777 E14.6315
G1 X130.562 Y23.311 E14.65209
G1 X130.58 Y44.532 E15.4673
G1 X130.541 Y45.248 E15.49485
G1 X130.467 Y45.75 E15.51434
G1 X130.316 Y46.399 E15.53994
G1 X130.056 Y47.108 E15.56895
G1 X129.771 Y47.663 E15.59292
G1 X129.51 Y48.084 E15.61195
G1 X128.956 Y48.684 E15.64332
G1 X128.576 Y49.003 E15.66238
G1 X128.089 Y49.292 E15.68413
G1 X127.635 Y49.491 E15.70318
G1 X126.891 Y49.65 E15.7324
G1 X126.197 Y49.698 E15.75913
G1 X107.413 Y49.698 E16.48072
G1 X106.758 Y49.628 E16.50603
G1 X106.045 Y49.431 E16.53444
G1 X105.528 Y49.173 E16.55664
G1 X104.998 Y48.781 E16.58196
G1 X104.859 Y48.911 E16.58928
G1 X104.364 Y49.231 E16.61192
G1 X103.743 Y49.508 E16.63804
G1 X103.158 Y49.645 E16.66112
G1 X102.587 Y49.698 E16.68315
G1 X83.573 Y49.698 E17.41358
G1 X82.95 Y49.634 E17.43764
G1 X82.261 Y49.451 E17.46503
G1 X81.619 Y49.114 E17.49288
G1 X80.95 Y48.608 E17.5251
G1 X80.481 Y48.038 E17.55346
G1 X80.147 Y47.515 E17.5773
G1 X79.915 Y47.077 E17.59634
G1 X79.595 Y46.035 E17.63821
G1 X79.494 Y45.485 E17.6597
G1 X79.433 Y44.815 E17.68554
G1 X79.42 Y23.702 E18.49661
G1 X79.494 Y22.733 E18.53394
G1 X79.583 Y22.224 E18.55379
M204 S3000
M205 X10 Y10
G0 F1800 X80.251 Y21.886
M204 S1800
M205 X8 Y8
G1 F2400 X80.447 Y21.373 E18.57489
G1 X80.725 Y20.833 E18.59822
G1 X80.965 Y20.454 E18.61545
G1 X81.617 Y19.812 E18.6506
G1 X81.976 Y19.544 E18.66781
G1 X82.378 Y19.344 E18.68506
G1 X82.918 Y19.184 E18.7067
G1 X83.569 Y19.098 E18.73192
G1 X102.588 Y19.098 E19.46255
G1 X103.035 Y19.138 E19.47979
G1 X103.789 Y19.368 E19.51007
G1 X104.197 Y19.553 E19.52728
G1 X104.743 Y19.969 E19.55365
G1 X104.997 Y20.227 E19.56756
G1 X105.462 Y19.789 E19.5921
G1 X105.83 Y19.533 E19.60932
G1 X106.337 Y19.312 E19.63056
G1 X107.105 Y19.117 E19.661
G1 X126.428 Y19.098 E20.4033
G1 X127.083 Y19.176 E20.42864
G1 X127.515 Y19.295 E20.44586
G1 X128.084 Y19.596 E20.47059
G1 X128.742 Y20.109 E20.50264
G1 X129.089 Y20.55 E20.5242
G1 X129.399 Y21.05 E20.5468
G1 X129.647 Y21.579 E20.56924
G1 X129.864 Y22.316 E20.59875
G1 X129.963 Y22.875 E20.62056
G1 X130.002 Y23.312 E20.63742
G1 X130.02 Y44.533 E21.45263
G1 X129.982 Y45.213 E21.47879
G1 X129.77 Y46.272 E21.52028
G1 X129.558 Y46.852 E21.54401
G1 X129.273 Y47.407 E21.56797
G1 X129.033 Y47.786 E21.58521
G1 X128.563 Y48.285 E21.61154
G1 X127.988 Y48.71 E21.63901
G1 X127.411 Y48.976 E21.66342
G1 X126.843 Y49.092 E21.68569
G1 X126.197 Y49.138 E21.71056
G1 X107.413 Y49.138 E22.43216
G1 X106.877 Y49.08 E22.45287
G1 X106.21 Y48.894 E22.47947
G1 X105.804 Y48.686 E22.497
G1 X105.435 Y48.431 E22.51423
G1 X104.999 Y47.986 E22.53816
G1 X104.477 Y48.498 E22.56625
G1 X103.943 Y48.818 E22.59016
G1 X103.528 Y48.988 E22.60739
G1 X103.054 Y49.094 E22.62605
G1 X102.587 Y49.138 E22.64407
G1 X83.573 Y49.138 E23.3745
G1 X83.063 Y49.086 E23.3942
G1 X82.421 Y48.912 E23.41975
G1 X81.935 Y48.653 E23.4409
G1 X81.306 Y48.173 E23.4713
G1 X80.953 Y47.736 E23.49288
G1 X80.619 Y47.213 E23.51672
G1 X80.412 Y46.815 E23.53395
G1 X80.134 Y45.884 E23.57128
G1 X79.99 Y44.764 E23.61466
G1 X79.98 Y23.702 E24.42376
G1 X80.052 Y22.782 E24.45921
G1 X80.251 Y21.886 E24.49447
M204 S3000
M205 X10 Y10
G0 F1800 X80.61 Y22.832
M204 S1800
M205 X8 Y8
G1 F2400 X80.792 Y22.028 E24.52614
G1 X80.945 Y21.629 E24.54256
G1 X81.223 Y21.089 E24.56589
G1 X81.439 Y20.757 E24.5811
G1 X81.99 Y20.23 E24.61039
G1 X82.31 Y19.997 E24.6256
G1 X82.79 Y19.798 E24.64556
G1 X83.569 Y19.658 E24.67597
G1 X102.588 Y19.658 E25.40659
G1 X102.981 Y19.698 E25.42176
G1 X103.604 Y19.897 E25.44689
G1 X103.962 Y20.064 E25.46206
G1 X104.586 Y20.605 E25.49379
G1 X104.905 Y21.026 E25.51408
G1 X105.002 Y21.198 E25.52167
G1 X105.49 Y20.509 E25.5541
G1 X105.821 Y20.218 E25.57103
G1 X106.149 Y19.996 E25.58625
G1 X106.832 Y19.745 E25.6142
G1 X107.411 Y19.658 E25.63669
G1 X126.428 Y19.658 E26.36724
G1 X126.982 Y19.727 E26.38869
G1 X127.362 Y19.837 E26.40388
G1 X128.077 Y20.277 E26.43614
G1 X128.376 Y20.536 E26.45133
G1 X128.923 Y21.345 E26.48885
G1 X129.242 Y22.134 E26.52154
G1 X129.412 Y22.972 E26.55439
G1 X129.442 Y23.312 E26.5675
G1 X129.46 Y44.533 E27.38271
G1 X129.423 Y45.177 E27.4075
G1 X129.225 Y46.145 E27.44545
G1 X129.06 Y46.596 E27.4639
G1 X128.775 Y47.151 E27.48787
G1 X128.408 Y47.651 E27.51169
G1 X128.169 Y47.887 E27.5246
G1 X127.722 Y48.217 E27.54594
G1 X127.192 Y48.458 E27.56831
G1 X126.365 Y48.571 E27.60037
G1 X107.413 Y48.578 E28.32842
G1 X106.757 Y48.481 E28.3539
G1 X106.207 Y48.271 E28.37651
G1 X105.758 Y47.97 E28.39728
G1 X105.269 Y47.447 E28.42478
G1 X104.984 Y47.087 E28.44242
G1 X104.709 Y47.473 E28.46063
G1 X104.1 Y48.081 E28.49369
G1 X103.685 Y48.321 E28.5121
G1 X103.147 Y48.507 E28.53397
G1 X102.587 Y48.578 E28.55566
G1 X83.573 Y48.578 E29.28609
G1 X82.963 Y48.493 E29.30975
G1 X82.586 Y48.375 E29.32492
G1 X81.969 Y47.997 E29.35272
G1 X81.667 Y47.741 E29.36793
G1 X81.091 Y46.912 E29.40671
G1 X80.855 Y46.385 E29.42889
G1 X80.673 Y45.734 E29.45486
G1 X80.548 Y44.714 E29.49433
G1 X80.54 Y23.702 E30.30152
G1 X80.61 Y22.832 E30.33505
M204 S3000
M205 X10 Y10
G0 F1800 X81.168 Y22.882
M204 S1800
M205 X8 Y8
G1 F2400 X81.334 Y22.171 E30.3631
G1 X81.721 Y21.345 E30.39814
G1 X82.033 Y20.942 E30.41772
G1 X82.637 Y20.456 E30.4475
G1 X83.207 Y20.266 E30.47058
G1 X83.569 Y20.218 E30.48461
G1 X102.588 Y20.218 E31.21523
G1 X103.05 Y20.296 E31.23323
G1 X103.719 Y20.573 E31.26105
G1 X104.189 Y21 E31.28544
G1 X104.417 Y21.301 E31.29995
G1 X104.763 Y21.99 E31.32956
G1 X104.937 Y22.587 E31.35345
G1 X105.008 Y22.872 E31.36474
G1 X105.266 Y21.921 E31.40259
G1 X105.426 Y21.574 E31.41727
G1 X105.716 Y21.121 E31.43793
G1 X106.181 Y20.647 E31.46344
G1 X106.461 Y20.465 E31.47627
G1 X106.998 Y20.28 E31.49809
G1 X107.411 Y20.218 E31.51413
G1 X126.428 Y20.218 E32.24468
G1 X126.882 Y20.278 E32.26227
G1 X127.201 Y20.376 E32.27509
G1 X127.754 Y20.734 E32.3004
G1 X128.002 Y20.958 E32.31323
G1 X128.447 Y21.64 E32.34452
G1 X128.711 Y22.311 E32.37222
G1 X128.861 Y23.07 E32.40194
G1 X128.9 Y44.534 E33.22649
G1 X128.864 Y45.141 E33.24985
G1 X128.68 Y46.018 E33.28427
G1 X128.561 Y46.341 E33.2975
G1 X128.276 Y46.896 E33.32146
G1 X128.015 Y47.252 E33.33842
G1 X127.776 Y47.488 E33.35132
G1 X127.292 Y47.813 E33.37372
G1 X126.981 Y47.936 E33.38657
G1 X126.317 Y48.013 E33.41225
G1 X107.413 Y48.018 E34.13845
G1 X106.876 Y47.934 E34.15933
G1 X106.357 Y47.712 E34.18102
G1 X106.006 Y47.43 E34.19831
G1 X105.685 Y47.073 E34.21676
G1 X105.437 Y46.684 E34.23448
G1 X105.185 Y46.09 E34.25927
G1 X105 Y45.239 E34.29272
G1 X104.931 Y45.675 E34.30968
G1 X104.74 Y46.304 E34.33493
G1 X104.492 Y46.819 E34.35689
G1 X103.981 Y47.44 E34.38778
G1 X103.427 Y47.824 E34.41368
G1 X102.847 Y47.994 E34.4369
G1 X83.573 Y48.018 E35.17732
G1 X83.077 Y47.945 E35.19658
G1 X82.76 Y47.839 E35.20942
G1 X82.285 Y47.535 E35.23108
G1 X82.034 Y47.314 E35.24393
G1 X81.563 Y46.611 E35.27644
G1 X81.395 Y46.234 E35.29229
G1 X81.213 Y45.583 E35.31826
G1 X81.106 Y44.663 E35.35384
G1 X81.1 Y23.702 E36.15907
G1 X81.168 Y22.882 E36.19067
M204 S3000
M205 X10 Y10
G0 F1800 X81.725 Y22.931
M204 S1800
M205 X8 Y8
G1 F2400 X81.876 Y22.313 E36.21511
G1 X82.219 Y21.602 E36.24544
G1 X82.406 Y21.36 E36.25719
G1 X82.953 Y20.924 E36.28406
G1 X83.352 Y20.807 E36.30003
G1 X83.569 Y20.778 E36.30844
G1 X102.588 Y20.778 E37.03907
G1 X103.234 Y20.954 E37.06479
G1 X103.552 Y21.154 E37.07922
G1 X103.929 Y21.576 E37.10096
G1 X104.225 Y22.147 E37.12566
G1 X104.399 Y22.744 E37.14955
G1 X104.487 Y23.391 E37.17464
G1 X104.501 Y24.507 E37.21751
G1 X104.501 Y44.534 E37.98686
G1 X104.427 Y45.348 E38.01826
G1 X104.204 Y46.141 E38.0499
G1 X104 Y46.552 E38.06753
G1 X103.567 Y47.062 E38.09323
G1 X103.17 Y47.327 E38.11157
G1 X102.743 Y47.443 E38.12856
G1 X83.573 Y47.458 E38.86499
G1 X83.19 Y47.397 E38.87989
G1 X82.885 Y47.267 E38.89262
G1 X82.602 Y47.073 E38.9058
G1 X82.369 Y46.832 E38.91868
G1 X82.035 Y46.309 E38.94252
G1 X81.934 Y46.083 E38.95203
G1 X81.752 Y45.432 E38.978
G1 X81.663 Y44.612 E39.00968
G1 X81.66 Y23.702 E39.81295
G1 X81.725 Y22.931 E39.84267
M204 S3000
M205 X10 Y10
G0 F1800 X82.283 Y22.981
M204 S1800
M205 X8 Y8
G1 F2400 X82.417 Y22.455 E39.86353
G1 X82.717 Y21.858 E39.88919
G1 X83.109 Y21.482 E39.91006
G1 X83.497 Y21.348 E39.92583
G1 X102.588 Y21.338 E40.65922
G1 X103.155 Y21.549 E40.68246
G1 X103.441 Y21.851 E40.69844
G1 X103.688 Y22.304 E40.71826
G1 X103.862 Y22.901 E40.74215
G1 X103.931 Y23.456 E40.76363
G1 X103.941 Y24.512 E40.8042
G1 X103.941 Y44.534 E41.57335
G1 X103.87 Y45.295 E41.60271
G1 X103.668 Y45.978 E41.63008
G1 X103.469 Y46.34 E41.64594
G1 X103.076 Y46.745 E41.66762
G1 X102.835 Y46.856 E41.67782
G1 X102.587 Y46.898 E41.68748
G1 X83.573 Y46.898 E42.41791
G1 X83.202 Y46.805 E42.4326
G1 X82.841 Y46.531 E42.45001
G1 X82.507 Y46.008 E42.47385
G1 X82.291 Y45.281 E42.50299
G1 X82.221 Y44.561 E42.53078
G1 X82.22 Y23.702 E43.33209
G1 X82.283 Y22.981 E43.35989
M204 S3000
M205 X10 Y10
G1 F2400 E37.35989
G0 F1800 X81.907 Y22.883
G0 X82.431 Y21.573
G0 X83.484 Y20.954
G0 X102.701 Y20.954
G0 X103.434 Y21.286
G0 X105.499 Y23.703
M204 S1800
M205 X8 Y8
G1 F2400 E43.35989
G1 X105.565 Y22.921 E43.39004
G1 X105.801 Y22.084 E43.42344
G1 X106.188 Y21.423 E43.45287
G1 X106.541 Y21.076 E43.47188
G1 X106.833 Y20.917 E43.48466
G1 X107.411 Y20.778 E43.50749
G1 X126.428 Y20.778 E44.23804
G1 X126.782 Y20.829 E44.25178
G1 X127.115 Y20.969 E44.26566
G1 X127.431 Y21.192 E44.28051
G1 X127.661 Y21.435 E44.29337
G1 X127.971 Y21.935 E44.31597
G1 X128.18 Y22.489 E44.33871
G1 X128.309 Y23.168 E44.36526
G1 X128.34 Y44.534 E45.18605
G1 X128.305 Y45.106 E45.20806
G1 X128.134 Y45.891 E45.23893
G1 X127.778 Y46.64 E45.27079
G1 X127.382 Y47.09 E45.29381
G1 X127.026 Y47.32 E45.31009
G1 X126.699 Y47.418 E45.32321
G1 X126.197 Y47.458 E45.34255
G1 X107.413 Y47.458 E46.06415
G1 X106.995 Y47.387 E46.08044
G1 X106.633 Y47.225 E46.09567
G1 X106.422 Y47.056 E46.10606
G1 X106.101 Y46.699 E46.1245
G1 X105.953 Y46.465 E46.13514
G1 X105.701 Y45.871 E46.15993
G1 X105.527 Y45.003 E46.19393
G1 X105.499 Y23.703 E47.01218
M204 S3000
M205 X10 Y10
G0 F1800 X106.059 Y23.702
M204 S1800
M205 X8 Y8
G1 F2400 X106.123 Y22.971 E47.04037
G1 X106.337 Y22.247 E47.06937
G1 X106.659 Y21.725 E47.09294
G1 X106.901 Y21.505 E47.1055
G1 X107.328 Y21.35 E47.12295
G1 X126.428 Y21.338 E47.85669
G1 X126.792 Y21.426 E47.87107
