;FLAVOR:Marlin
;TIME:2570
;Filament used: 1.65448m
;Layer height: 0.15
;MINX:78.3
;MINY:18.621
;MINZ:0.15
;MAXX:131.7
;MAXY:52.021
;MAXZ:20.025
;Generated with Cura_SteamEngine 4.5.0
M140 S60
M105
M190 S60
M104 S200
M105
M109 S200
M82 ;absolute extrusion mode
G21 ;metric values
G90 ;absolute positioning
M82 ;set extruder to absolute mode
M107 ;start with the fan off
G28 X0 Y0 ;move X/Y to min endstops
G28 Z0 ;move Z to min endstops
G1 Z15.0 F100 ;move the platform down 15mm
G92 E0 ;zero the extruded length
G1 F200 E3 ;extrude 3mm of feed stock
G92 E0 ;zero the extruded length again
G1 F100
G0 Y20 F100
M117 Printing...
G5
G92 E0
G92 E0
G1 F2400 E-6
;LAYER_COUNT:133
;LAYER:0
M106 S255
M204 S3000
M205 X10 Y10
G1 F600 Z0.225
G0 F1800 X78.5 Y23.143 Z0.225
M204 S1800
M205 X8 Y8
;TYPE:SKIRT
G1 F600 Z0.15
G1 F2400 E0
G1 X78.811 Y22.114 E0.0413
G1 X79.232 Y21.267 E0.07763
G1 X79.532 Y20.771 E0.0999
G1 X79.897 Y20.321 E0.12216
G1 X80.497 Y19.763 E0.15363
G1 X80.954 Y19.407 E0.17589
G1 X81.456 Y19.118 E0.19814
G1 X82.211 Y18.837 E0.22909
G1 X83.053 Y18.653 E0.2622
G1 X83.569 Y18.621 E0.28206
G1 X102.588 Y18.621 E1.01268
G1 X103.166 Y18.661 E1.03494
G1 X103.974 Y18.856 E1.06687
G1 X104.875 Y19.214 E1.10411
G1 X104.996 Y19.287 E1.10954
G1 X105.361 Y19.091 E1.12546
G1 X105.841 Y18.91 E1.14516
G1 X106.735 Y18.676 E1.18066
G1 X107.411 Y18.621 E1.20672
G1 X125.942 Y18.621 E1.9186
G1 X126.856 Y18.664 E1.95375
G1 X127.43 Y18.735 E1.97597
G1 X127.99 Y18.884 E1.99823
G1 X128.524 Y19.109 E2.02049
G1 X129.047 Y19.423 E2.04392
G1 X129.813 Y20.011 E2.08102
G1 X130.208 Y20.435 E2.10328
G1 X130.517 Y20.868 E2.12371
G1 X130.827 Y21.368 E2.14631
G1 X131.097 Y21.88 E2.16855
G1 X131.366 Y22.627 E2.19905
G1 X131.519 Y23.226 E2.2228
G1 X131.618 Y23.785 E2.24461
G1 X131.682 Y24.513 E2.27268
G1 X131.7 Y45.734 E3.0879
G1 X131.658 Y46.523 E3.11825
G1 X131.558 Y47.207 E3.1448
G1 X131.407 Y47.856 E3.1704
G1 X131.237 Y48.41 E3.19266
G1 X130.767 Y49.378 E3.234
G1 X130.468 Y49.873 E3.25622
G1 X129.982 Y50.448 E3.28514
G1 X129.304 Y51.061 E3.32025
G1 X128.786 Y51.392 E3.34387
G1 X128.093 Y51.72 E3.37332
G1 X127.538 Y51.884 E3.39555
G1 X126.971 Y51.97 E3.41758
G1 X126.177 Y52.021 E3.44815
G1 X107.413 Y52.021 E4.16898
G1 X106.835 Y51.981 E4.19123
G1 X106.281 Y51.873 E4.21292
G1 X105.725 Y51.711 E4.23516
G1 X105.103 Y51.423 E4.26149
G1 X104.996 Y51.362 E4.26623
G1 X104.184 Y51.743 E4.30068
G1 X103.562 Y51.911 E4.32543
G1 X102.587 Y52.021 E4.36313
G1 X83.573 Y52.021 E5.09356
G1 X82.723 Y51.934 E5.12638
G1 X81.952 Y51.734 E5.15698
G1 X81.421 Y51.503 E5.17922
G1 X80.985 Y51.241 E5.19876
G1 X80.248 Y50.687 E5.23418
G1 X79.848 Y50.269 E5.25641
G1 X79.537 Y49.844 E5.27664
G1 X79.203 Y49.321 E5.30048
G1 X78.926 Y48.812 E5.32274
G1 X78.698 Y48.191 E5.34815
G1 X78.516 Y47.54 E5.37412
G1 X78.378 Y46.79 E5.40342
G1 X78.317 Y46.12 E5.42926
G1 X78.3 Y24.905 E6.24425
G1 X78.379 Y23.836 E6.28542
G1 X78.5 Y23.143 E6.31245
M204 S3000
M205 X10 Y10
G0 F1800 X79.041 Y23.285
M204 S1800
M205 X8 Y8
G1 F2400 X79.167 Y22.805 E6.33151
G1 X79.452 Y22.063 E6.36205
G1 X79.73 Y21.523 E6.38538
G1 X80.011 Y21.063 E6.40609
G1 X80.54 Y20.475 E6.43647
G1 X81.298 Y19.852 E6.47416
G1 X81.769 Y19.59 E6.49487
G1 X82.356 Y19.378 E6.51884
G1 X83.159 Y19.204 E6.55041
G1 X102.588 Y19.181 E7.29678
G1 X103.126 Y19.221 E7.3175
G1 X103.789 Y19.385 E7.34374
G1 X104.653 Y19.729 E7.37947
G1 X105.002 Y19.947 E7.39527
G1 X105.659 Y19.572 E7.42434
G1 X106.336 Y19.343 E7.45179
G1 X106.862 Y19.223 E7.47252
G1 X107.411 Y19.181 E7.49367
G1 X125.942 Y19.181 E8.20554
G1 X126.825 Y19.223 E8.2395
G1 X127.36 Y19.292 E8.26023
G1 X127.879 Y19.439 E8.28095
G1 X128.371 Y19.661 E8.30168
G1 X129.041 Y20.104 E8.33254
G1 X129.458 Y20.446 E8.35326
G1 X129.82 Y20.846 E8.37398
G1 X130.351 Y21.663 E8.41141
G1 X130.6 Y22.141 E8.43212
G1 X130.835 Y22.804 E8.45914
G1 X130.967 Y23.323 E8.47971
G1 X131.066 Y23.882 E8.50152
G1 X131.122 Y24.514 E8.52589
G1 X131.14 Y45.735 E9.34111
G1 X131.1 Y46.487 E9.37004
G1 X131.012 Y47.08 E9.39307
G1 X130.861 Y47.729 E9.41867
G1 X130.701 Y48.244 E9.43938
G1 X130.269 Y49.122 E9.47697
G1 X129.988 Y49.582 E9.49768
G1 X129.589 Y50.049 E9.52128
G1 X128.939 Y50.635 E9.5549
G1 X128.355 Y50.988 E9.58111
G1 X127.863 Y51.208 E9.60181
G1 X127.343 Y51.353 E9.62255
G1 X126.475 Y51.449 E9.6561
G1 X107.413 Y51.461 E10.38838
G1 X106.639 Y51.378 E10.41828
G1 X105.883 Y51.172 E10.44838
G1 X105.379 Y50.936 E10.46976
G1 X104.991 Y50.689 E10.48743
G1 X104.458 Y51.016 E10.51145
G1 X103.962 Y51.228 E10.53217
G1 X103.458 Y51.361 E10.5522
G1 X102.587 Y51.461 E10.58588
G1 X83.573 Y51.461 E11.31631
G1 X82.837 Y51.386 E11.34473
G1 X82.105 Y51.194 E11.3738
G1 X81.614 Y50.971 E11.39452
G1 X81.019 Y50.585 E11.42176
G1 X80.598 Y50.248 E11.44248
G1 X80.231 Y49.853 E11.46319
G1 X79.675 Y49.019 E11.5017
G1 X79.419 Y48.544 E11.52242
G1 X79.237 Y48.04 E11.54301
G1 X79.055 Y47.389 E11.56898
G1 X78.936 Y46.739 E11.59436
G1 X78.875 Y46.069 E11.62021
G1 X78.86 Y24.905 E12.43323
G1 X78.936 Y23.886 E12.47249
G1 X79.041 Y23.285 E12.49592
M204 S3000
M205 X10 Y10
G0 F1800 X79.583 Y23.427
M204 S1800
M205 X8 Y8
G1 F2400 X79.709 Y22.947 E12.51499
G1 X79.95 Y22.319 E12.54083
G1 X80.228 Y21.779 E12.56416
G1 X80.489 Y21.358 E12.58319
G1 X80.913 Y20.893 E12.60736
G1 X81.638 Y20.298 E12.64339
G1 X82.077 Y20.066 E12.66247
G1 X82.773 Y19.846 E12.69051
G1 X83.261 Y19.756 E12.70957
G1 X102.588 Y19.741 E13.45203
G1 X103.604 Y19.914 E13.49162
G1 X104.427 Y20.243 E13.52567
G1 X104.997 Y20.651 E13.5526
G1 X105.506 Y20.276 E13.57688
G1 X106.171 Y19.98 E13.60485
G1 X106.986 Y19.771 E13.63717
G1 X107.411 Y19.741 E13.65353
G1 X125.942 Y19.741 E14.36541
G1 X126.795 Y19.782 E14.39822
G1 X127.287 Y19.849 E14.41729
G1 X127.761 Y19.993 E14.43632
G1 X128.402 Y20.339 E14.46431
G1 X129.1 Y20.879 E14.49821
G1 X129.565 Y21.458 E14.52673
G1 X129.875 Y21.958 E14.54933
G1 X130.178 Y22.605 E14.57678
G1 X130.416 Y23.421 E14.60943
G1 X130.515 Y23.98 E14.63124
G1 X130.562 Y24.514 E14.65183
G1 X130.58 Y45.735 E15.46705
G1 X130.541 Y46.451 E15.4946
G1 X130.467 Y46.953 E15.51409
G1 X130.316 Y47.602 E15.53969
G1 X130.056 Y48.311 E15.5687
G1 X129.771 Y48.866 E15.59266
G1 X129.51 Y49.287 E15.61169
G1 X128.956 Y49.887 E15.64306
G1 X128.576 Y50.206 E15.66212
G1 X128.089 Y50.495 E15.68388
G1 X127.635 Y50.694 E15.70292
G1 X126.879 Y50.854 E15.73261
G1 X126.177 Y50.901 E15.75963
G1 X107.413 Y50.901 E16.48046
G1 X106.758 Y50.831 E16.50577
G1 X106.045 Y50.634 E16.53418
G1 X105.528 Y50.376 E16.55638
G1 X104.998 Y49.984 E16.5817
G1 X104.859 Y50.114 E16.58902
G1 X104.364 Y50.434 E16.61166
G1 X103.743 Y50.711 E16.63778
G1 X103.158 Y50.848 E16.66086
G1 X102.587 Y50.901 E16.68289
G1 X83.573 Y50.901 E17.41332
G1 X82.95 Y50.837 E17.43738
G1 X82.261 Y50.654 E17.46477
G1 X81.619 Y50.317 E17.49262
G1 X80.95 Y49.811 E17.52484
G1 X80.481 Y49.241 E17.5532
G1 X80.147 Y48.718 E17.57704
G1 X79.915 Y48.28 E17.59608
G1 X79.595 Y47.238 E17.63795
G1 X79.494 Y46.688 E17.65944
G1 X79.433 Y46.018 E17.68528
G1 X79.42 Y24.905 E18.49635
G1 X79.494 Y23.936 E18.53368
G1 X79.583 Y23.427 E18.55353
M204 S3000
M205 X10 Y10
G0 F1800 X80.251 Y23.089
M204 S1800
M205 X8 Y8
G1 F2400 X80.447 Y22.576 E18.57463
G1 X80.725 Y22.036 E18.59796
G1 X80.965 Y21.657 E18.61519
G1 X81.617 Y21.015 E18.65034
G1 X81.976 Y20.747 E18.66755
G1 X82.378 Y20.547 E18.6848
G1 X82.918 Y20.387 E18.70644
G1 X83.569 Y20.301 E18.73166
G1 X102.588 Y20.301 E19.46229
G1 X103.035 Y20.341 E19.47953
G1 X103.789 Y20.571 E19.50981
G1 X104.197 Y20.756 E19.52702
G1 X104.743 Y21.172 E19.55339
G1 X104.997 Y21.43 E19.5673
G1 X105.462 Y20.992 E19.59184
G1 X105.83 Y20.736 E19.60906
G1 X106.337 Y20.515 E19.6303
G1 X107.105 Y20.32 E19.66074
G1 X125.942 Y20.301 E20.38437
G1 X126.765 Y20.342 E20.41603
G1 X127.209 Y20.405 E20.43326
G1 X127.635 Y20.547 E20.45051
G1 X128.08 Y20.797 E20.47012
G1 X128.739 Y21.31 E20.5022
G1 X129.089 Y21.753 E20.52389
G1 X129.399 Y22.253 E20.54649
G1 X129.647 Y22.782 E20.56893
G1 X129.864 Y23.519 E20.59844
G1 X129.963 Y24.078 E20.62025
G1 X130.002 Y24.515 E20.63711
G1 X130.02 Y45.736 E21.45232
G1 X129.982 Y46.416 E21.47848
G1 X129.77 Y47.475 E21.51997
G1 X129.558 Y48.055 E21.5437
G1 X129.273 Y48.61 E21.56766
G1 X129.033 Y48.989 E21.5849
G1 X128.563 Y49.488 E21.61123
G1 X127.988 Y49.913 E21.6387
G1 X127.411 Y50.179 E21.66311
G1 X126.834 Y50.296 E21.68572
G1 X126.177 Y50.341 E21.71102
G1 X107.413 Y50.341 E22.43185
G1 X106.877 Y50.283 E22.45256
G1 X106.21 Y50.097 E22.47916
G1 X105.804 Y49.889 E22.49668
G1 X105.435 Y49.634 E22.51392
G1 X104.999 Y49.189 E22.53785
G1 X104.477 Y49.701 E22.56594
G1 X103.943 Y50.021 E22.58985
G1 X103.528 Y50.191 E22.60708
G1 X103.054 Y50.297 E22.62574
G1 X102.587 Y50.341 E22.64376
G1 X83.573 Y50.341 E23.37419
G1 X83.063 Y50.289 E23.39388
G1 X82.421 Y50.115 E23.41944
G1 X81.935 Y49.856 E23.44059
G1 X81.306 Y49.376 E23.47099
G1 X80.953 Y48.939 E23.49257
G1 X80.619 Y48.416 E23.51641
G1 X80.412 Y48.018 E23.53364
G1 X80.134 Y47.087 E23.57096
G1 X79.99 Y45.967 E23.61434
G1 X79.98 Y24.905 E24.42345
G1 X80.052 Y23.985 E24.4589
G1 X80.251 Y23.089 E24.49416
M204 S3000
M205 X10 Y10
G0 F1800 X80.61 Y24.035
M204 S1800
M205 X8 Y8
G1 F2400 X80.792 Y23.231 E24.52583
G1 X80.945 Y22.832 E24.54224
G1 X81.223 Y22.292 E24.56558
G1 X81.439 Y21.96 E24.58079
G1 X81.99 Y21.433 E24.61008
G1 X82.31 Y21.2 E24.62529
G1 X82.79 Y21.001 E24.64525
G1 X83.569 Y20.861 E24.67565
G1 X102.588 Y20.861 E25.40628
G1 X102.981 Y20.901 E25.42145
G1 X103.604 Y21.1 E25.44658
G1 X103.962 Y21.267 E25.46175
G1 X104.586 Y21.808 E25.49348
G1 X104.905 Y22.229 E25.51377
G1 X105.002 Y22.401 E25.52135
G1 X105.49 Y21.712 E25.55379
G1 X105.821 Y21.421 E25.57072
G1 X106.149 Y21.199 E25.58594
G1 X106.832 Y20.948 E25.61389
G1 X107.411 Y20.861 E25.63638
G1 X125.942 Y20.861 E26.34826
G1 X126.735 Y20.901 E26.37876
G1 X127.126 Y20.962 E26.39396
G1 X127.497 Y21.1 E26.40917
G1 X128.075 Y21.478 E26.4357
G1 X128.374 Y21.737 E26.4509
G1 X128.923 Y22.548 E26.48852
G1 X129.242 Y23.337 E26.52121
G1 X129.412 Y24.175 E26.55406
G1 X129.442 Y24.515 E26.56717
G1 X129.46 Y45.736 E27.38239
G1 X129.423 Y46.38 E27.40717
G1 X129.225 Y47.348 E27.44512
G1 X129.06 Y47.799 E27.46357
G1 X128.775 Y48.354 E27.48754
G1 X128.408 Y48.854 E27.51136
G1 X128.169 Y49.09 E27.52427
G1 X127.722 Y49.42 E27.54561
G1 X127.192 Y49.661 E27.56798
G1 X126.338 Y49.774 E27.60107
G1 X107.413 Y49.781 E28.32808
G1 X106.757 Y49.684 E28.35356
G1 X106.207 Y49.474 E28.37617
G1 X105.758 Y49.173 E28.39694
G1 X105.269 Y48.65 E28.42445
G1 X104.984 Y48.29 E28.44208
G1 X104.709 Y48.676 E28.46029
G1 X104.1 Y49.284 E28.49335
G1 X103.685 Y49.524 E28.51177
G1 X103.147 Y49.71 E28.53363
G1 X102.587 Y49.781 E28.55532
G1 X83.573 Y49.781 E29.28575
G1 X82.963 Y49.696 E29.30941
G1 X82.586 Y49.578 E29.32458
G1 X81.969 Y49.2 E29.35238
G1 X81.667 Y48.944 E29.36759
G1 X81.091 Y48.115 E29.40637
G1 X80.855 Y47.588 E29.42855
G1 X80.673 Y46.937 E29.45452
G1 X80.548 Y45.917 E29.494
G1 X80.54 Y24.905 E30.30118
G1 X80.61 Y24.035 E30.33471
M204 S3000
M205 X10 Y10
G0 F1800 X81.168 Y24.085
M204 S1800
M205 X8 Y8
G1 F2400 X81.334 Y23.374 E30.36276
G1 X81.721 Y22.548 E30.3978
G1 X82.033 Y22.145 E30.41738
G1 X82.637 Y21.659 E30.44716
G1 X83.207 Y21.469 E30.47024
G1 X83.569 Y21.421 E30.48427
G1 X102.588 Y21.421 E31.21489
G1 X103.05 Y21.499 E31.23289
G1 X103.719 Y21.776 E31.26071
G1 X104.189 Y22.203 E31.2851
G1 X104.417 Y22.504 E31.29961
G1 X104.764 Y23.195 E31.32931
G1 X104.937 Y23.792 E31.35319
G1 X105.008 Y24.075 E31.3644
G1 X105.266 Y23.124 E31.40225
G1 X105.426 Y22.777 E31.41693
G1 X105.716 Y22.324 E31.43759
G1 X106.181 Y21.85 E31.4631
G1 X106.461 Y21.668 E31.47593
G1 X106.998 Y21.483 E31.49775
G1 X107.411 Y21.421 E31.51379
G1 X125.942 Y21.421 E32.22567
G1 X126.705 Y21.46 E32.25502
G1 X127.034 Y21.518 E32.26785
G1 X127.436 Y21.713 E32.28502
G1 X128.001 Y22.159 E32.31267
G1 X128.447 Y22.843 E32.34404
G1 X128.711 Y23.514 E32.37174
G1 X128.861 Y24.273 E32.40146
G1 X128.9 Y45.737 E33.22601
G1 X128.864 Y46.344 E33.24937
G1 X128.68 Y47.221 E33.28379
G1 X128.561 Y47.544 E33.29702
G1 X128.276 Y48.099 E33.32098
G1 X128.015 Y48.455 E33.33794
G1 X127.776 Y48.691 E33.35084
G1 X127.292 Y49.016 E33.37324
G1 X126.981 Y49.139 E33.38609
G1 X126.292 Y49.216 E33.41272
G1 X107.413 Y49.221 E34.13797
G1 X106.876 Y49.137 E34.15885
G1 X106.357 Y48.915 E34.18053
G1 X106.006 Y48.633 E34.19783
G1 X105.685 Y48.276 E34.21627
G1 X105.437 Y47.887 E34.23399
G1 X105.185 Y47.293 E34.25878
G1 X105 Y46.442 E34.29224
G1 X104.931 Y46.878 E34.30919
G1 X104.74 Y47.507 E34.33445
G1 X104.492 Y48.022 E34.3564
G1 X103.981 Y48.643 E34.3873
G1 X103.427 Y49.027 E34.41319
G1 X102.847 Y49.197 E34.43641
G1 X83.573 Y49.221 E35.17683
G1 X83.077 Y49.148 E35.19609
G1 X82.76 Y49.042 E35.20893
G1 X82.285 Y48.738 E35.2306
G1 X82.034 Y48.517 E35.24344
G1 X81.563 Y47.814 E35.27595
G1 X81.395 Y47.437 E35.29181
G1 X81.213 Y46.786 E35.31777
G1 X81.106 Y45.866 E35.35335
G1 X81.1 Y24.905 E36.15858
G1 X81.168 Y24.085 E36.19019
M204 S3000
M205 X10 Y10
G0 F1800 X81.725 Y24.134
M204 S1800
M205 X8 Y8
G1 F2400 X81.876 Y23.516 E36.21463
G1 X82.219 Y22.805 E36.24495
G1 X82.406 Y22.563 E36.2567
G1 X82.953 Y22.127 E36.28357
G1 X83.352 Y22.01 E36.29955
G1 X83.569 Y21.981 E36.30796
G1 X102.588 Y21.981 E37.03858
G1 X103.234 Y22.157 E37.0643
G1 X103.552 Y22.357 E37.07873
G1 X103.929 Y22.779 E37.10047
G1 X104.226 Y23.351 E37.12523
G1 X104.399 Y23.948 E37.14911
G1 X104.487 Y24.593 E37.17412
G1 X104.501 Y45.737 E37.98637
G1 X104.427 Y46.551 E38.01777
G1 X104.204 Y47.344 E38.04942
G1 X104 Y47.755 E38.06704
G1 X103.567 Y48.265 E38.09274
G1 X103.17 Y48.53 E38.11108
G1 X102.743 Y48.646 E38.12808
G1 X83.573 Y48.661 E38.8645
G1 X83.19 Y48.6 E38.8794
G1 X82.885 Y48.47 E38.89214
G1 X82.602 Y48.276 E38.90532
G1 X82.369 Y48.035 E38.9182
G1 X82.035 Y47.512 E38.94203
G1 X81.934 Y47.286 E38.95154
G1 X81.752 Y46.635 E38.97751
G1 X81.663 Y45.815 E39.0092
G1 X81.66 Y24.905 E39.81246
G1 X81.725 Y24.134 E39.84219
M204 S3000
M205 X10 Y10
G0 F1800 X82.283 Y24.184
M204 S1800
M205 X8 Y8
G1 F2400 X82.417 Y23.658 E39.86304
G1 X82.717 Y23.061 E39.88871
G1 X83.109 Y22.685 E39.90957
G1 X83.497 Y22.551 E39.92534
G1 X102.588 Y22.541 E40.65873
G1 X103.155 Y22.752 E40.68197
G1 X103.441 Y23.054 E40.69795
G1 X103.688 Y23.507 E40.71777
G1 X103.861 Y24.104 E40.74165
G1 X103.931 Y24.66 E40.76318
G1 X103.941 Y45.737 E41.57286
G1 X103.87 Y46.498 E41.60222
G1 X103.668 Y47.181 E41.62958
G1 X103.469 Y47.543 E41.64545
G1 X103.076 Y47.948 E41.66713
G1 X102.835 Y48.059 E41.67732
G1 X102.587 Y48.101 E41.68699
G1 X83.573 Y48.101 E42.41742
G1 X83.202 Y48.008 E42.43211
G1 X82.841 Y47.734 E42.44952
G1 X82.507 Y47.211 E42.47336
G1 X82.291 Y46.484 E42.50249
G1 X82.221 Y45.764 E42.53028
G1 X82.22 Y24.905 E43.33159
G1 X82.283 Y24.184 E43.35939
M204 S3000
M205 X10 Y10
G1 F2400 E37.35939
G0 F1800 X81.907 Y24.086
G0 X82.431 Y22.776
G0 X83.484 Y22.157
G0 X102.701 Y22.157
G0 X103.434 Y22.489
G0 X105.499 Y24.906
M204 S1800
M205 X8 Y8
G1 F2400 E43.35939
G1 X105.565 Y24.124 E43.38954
G1 X105.801 Y23.287 E43.42295
G1 X106.188 Y22.626 E43.45237
G1 X106.541 Y22.279 E43.47139
G1 X106.833 Y22.12 E43.48416
G1 X107.411 Y21.981 E43.507
G1 X125.942 Y21.981 E44.21888
G1 X126.675 Y22.019 E44.24707
G1 X126.928 Y22.073 E44.25701
G1 X127.43 Y22.394 E44.2799
G1 X127.661 Y22.638 E44.29281
G1 X127.971 Y23.138 E44.31541
G1 X128.18 Y23.692 E44.33815
G1 X128.309 Y24.371 E44.3647
G1 X128.34 Y45.737 E45.18549
G1 X128.305 Y46.309 E45.20751
G1 X128.134 Y47.094 E45.23837
G1 X127.778 Y47.843 E45.27023
G1 X127.382 Y48.293 E45.29325
G1 X127.026 Y48.523 E45.30954
G1 X126.696 Y48.621 E45.32276
G1 X126.177 Y48.661 E45.34276
G1 X107.413 Y48.661 E46.06358
G1 X106.995 Y48.59 E46.07987
G1 X106.633 Y48.428 E46.09511
G1 X106.422 Y48.259 E46.10549
G1 X106.101 Y47.902 E46.12394
G1 X105.953 Y47.668 E46.13457
G1 X105.701 Y47.074 E46.15936
G1 X105.527 Y46.206 E46.19337
G1 X105.499 Y24.906 E47.01162
M204 S3000
M205 X10 Y10
G0 F1800 X106.059 Y24.905
M204 S1800
M205 X8 Y8
G1 F2400 X106.123 Y24.174 E47.03981
G1 X106.337 Y23.45 E47.06881
G1 X106.659 Y22.928 E47.09237
G1 X106.901 Y22.708 E47.10493
G1 X107.328 Y22.553 E47.12238
