;FLAVOR:Marlin
;TIME:2647
;Filament used: 1.43012m
;Layer height: 0.12
;MINX:77.311
;MINY:11.397
;MINZ:0.3
;MAXX:132.757
;MAXY:55.947
;MAXZ:19.98
;Generated with Cura_SteamEngine 4.5.0
M140 S60
M105
M190 S60
M104 S200
M105
M109 S200
M82 ;absolute extrusion mode
G21 ;metric values
G90 ;absolute positioning
M82 ;set extruder to absolute mode
M107 ;start with the fan off
G28 X0 Y0 ;move X/Y to min endstops
G28 Z0 ;move Z to min endstops
G1 Z15.0 F100 ;move the platform down 15mm
G92 E0 ;zero the extruded length
G1 F200 E3 ;extrude 3mm of feed stock
G92 E0 ;zero the extruded length again
G1 F100
G0 Y20 F100
M117 Printing...
G5
G92 E0
G92 E0
G1 F2400 E-4.5
;LAYER_COUNT:165
;LAYER:0
M106 S255
M204 S3000
M205 X10 Y10
G1 F600 Z0.375
G0 F3000 X78.524 Y33.964 Z0.375
M204 S1800
M205 X8 Y8
;TYPE:SKIRT
G1 F600 Z0.3
G1 F2400 E0
G1 X78.801 Y33.421 E0.04258
G1 X79.977 Y31.376 E0.20735
G1 X80.356 Y30.737 E0.25924
G1 X80.756 Y30.144 E0.3092
G1 X81.574 Y29.178 E0.39761
G1 X81.974 Y28.738 E0.43914
G1 X82.65 Y28.104 E0.50388
G1 X83.381 Y27.511 E0.56962
G1 X83.826 Y27.158 E0.60929
G1 X84.43 Y26.735 E0.6608
G1 X85.281 Y26.209 E0.73068
G1 X85.999 Y25.795 E0.78856
G1 X86.792 Y25.412 E0.85007
G1 X87.373 Y25.186 E0.89362
G1 X90.486 Y24.056 E1.12493
G1 X92.92 Y23.097 E1.30766
G1 X95.372 Y22.049 E1.49391
G1 X97.767 Y20.943 E1.67816
G1 X100.134 Y19.77 E1.86268
G1 X102.494 Y18.513 E2.04944
G1 X104.772 Y17.218 E2.23246
G1 X107.045 Y15.838 E2.41819
G1 X109.274 Y14.398 E2.60354
G1 X111.095 Y13.155 E2.75754
G1 X111.72 Y12.774 E2.80866
G1 X112.703 Y12.255 E2.8863
G1 X113.355 Y11.961 E2.93626
G1 X114.146 Y11.7 E2.99444
G1 X114.839 Y11.525 E3.04436
G1 X115.844 Y11.412 E3.115
G1 X116.383 Y11.398 E3.15266
G1 X117.44 Y11.397 E3.22649
G1 X118.236 Y11.408 E3.28209
G1 X118.949 Y11.458 E3.33201
G1 X119.754 Y11.613 E3.38927
G1 X120.245 Y11.745 E3.42478
G1 X121.253 Y12.091 E3.49922
G1 X121.795 Y12.349 E3.54115
G1 X122.505 Y12.738 E3.59769
G1 X123.269 Y13.24 E3.66154
G1 X123.67 Y13.547 E3.69682
G1 X124.074 Y13.873 E3.73308
G1 X124.603 Y14.354 E3.78302
G1 X125.075 Y14.892 E3.833
G1 X125.462 Y15.444 E3.88009
G1 X125.826 Y16.026 E3.92804
G1 X126.285 Y16.803 E3.99107
G1 X126.715 Y17.567 E4.0523
G1 X127.029 Y18.209 E4.10222
G1 X127.345 Y19.158 E4.17208
G1 X128.024 Y22.259 E4.39381
G1 X128.65 Y24.816 E4.57768
G1 X129.352 Y27.365 E4.76235
G1 X130.136 Y29.927 E4.94948
G1 X130.98 Y32.43 E5.13398
G1 X131.495 Y33.823 E5.23771
G1 X132.03 Y35.363 E5.35158
G1 X132.231 Y36.072 E5.40305
G1 X132.436 Y36.996 E5.46916
G1 X132.591 Y37.826 E5.52814
G1 X132.673 Y38.396 E5.56836
G1 X132.72 Y38.967 E5.60838
G1 X132.753 Y39.861 E5.67086
G1 X132.757 Y40.37 E5.70641
G1 X132.695 Y41.261 E5.7688
G1 X132.588 Y42.022 E5.82247
G1 X132.472 Y42.762 E5.87479
G1 X132.335 Y43.569 E5.93196
G1 X132.085 Y44.552 E6.00281
G1 X131.876 Y45.135 E6.04607
G1 X131.664 Y45.659 E6.08555
G1 X131.367 Y46.305 E6.13521
G1 X130.886 Y47.215 E6.2071
G1 X130.197 Y48.419 E6.30399
G1 X129.794 Y49.094 E6.3589
G1 X129.406 Y49.67 E6.40741
G1 X129.06 Y50.115 E6.44678
G1 X128.392 Y50.878 E6.51761
G1 X128.021 Y51.251 E6.55436
G1 X127.487 Y51.73 E6.60446
G1 X126.527 Y52.5 E6.69042
G1 X125.772 Y53.062 E6.75616
G1 X125.173 Y53.452 E6.80608
G1 X123.665 Y54.205 E6.92381
G1 X122.856 Y54.574 E6.98592
G1 X121.983 Y54.894 E7.05086
G1 X120.952 Y55.171 E7.12542
G1 X120.196 Y55.356 E7.17979
G1 X119.493 Y55.486 E7.22972
G1 X118.785 Y55.536 E7.2793
G1 X118.159 Y55.546 E7.32302
G1 X116.256 Y55.547 E7.45594
G1 X115.461 Y55.536 E7.51148
G1 X113.79 Y55.428 E7.62843
G1 X111.064 Y55.274 E7.81914
G1 X108.458 Y55.2 E8.00123
G1 X105.779 Y55.2 E8.18835
G1 X103.173 Y55.274 E8.37044
G1 X100.492 Y55.426 E8.558
G1 X97.859 Y55.649 E8.74256
G1 X96.771 Y55.775 E8.81906
G1 X95.585 Y55.899 E8.90235
G1 X95.027 Y55.932 E8.94139
G1 X94.146 Y55.946 E9.00294
G1 X93.13 Y55.947 E9.0739
G1 X91.601 Y55.917 E9.18072
G1 X90.888 Y55.862 E9.23067
G1 X90.103 Y55.707 E9.28655
G1 X89.295 Y55.494 E9.34492
G1 X88.629 Y55.3 E9.39337
G1 X87.391 Y54.89 E9.48446
G1 X86.86 Y54.696 E9.52394
G1 X86.204 Y54.409 E9.57395
G1 X85.674 Y54.112 E9.61639
G1 X84.299 Y53.237 E9.73022
G1 X83.499 Y52.691 E9.79788
G1 X82.78 Y52.116 E9.86218
G1 X82.351 Y51.719 E9.903
G1 X81.801 Y51.17 E9.95728
G1 X81.396 Y50.737 E9.99869
G1 X80.831 Y50.031 E10.06185
G1 X80.469 Y49.508 E10.10628
G1 X79.925 Y48.627 E10.1786
G1 X79.087 Y47.177 E10.29557
G1 X78.72 Y46.521 E10.34808
G1 X78.408 Y45.878 E10.39799
G1 X78.212 Y45.348 E10.43746
G1 X77.992 Y44.658 E10.48805
G1 X77.831 Y44.1 E10.52861
G1 X77.702 Y43.55 E10.56807
G1 X77.562 Y42.81 E10.62067
G1 X77.414 Y41.865 E10.68748
G1 X77.317 Y40.762 E10.76482
G1 X77.311 Y40.187 E10.80498
G1 X77.324 Y39.181 E10.87525
G1 X77.398 Y38.296 E10.93728
G1 X77.521 Y37.498 E10.99368
G1 X77.663 Y36.697 E11.0505
G1 X77.823 Y36.024 E11.09882
G1 X77.99 Y35.459 E11.13997
G1 X78.262 Y34.63 E11.20091
G1 X78.524 Y33.964 E11.25089
M204 S3000
M205 X10 Y10
G0 F3000 X79.185 Y33.891
M204 S1800
M205 X8 Y8
G1 F2400 X79.498 Y33.324 E11.29613
G1 X80.461 Y31.656 E11.43066
G1 X80.837 Y31.024 E11.48202
G1 X81.22 Y30.458 E11.52975
G1 X81.997 Y29.544 E11.61354
G1 X82.386 Y29.118 E11.65384
G1 X83.003 Y28.539 E11.71294
G1 X83.734 Y27.946 E11.77868
G1 X84.173 Y27.598 E11.81781
G1 X84.725 Y27.211 E11.8649
G1 X85.576 Y26.685 E11.93477
G1 X86.277 Y26.281 E11.99128
G1 X87 Y25.931 E12.04739
G1 X87.569 Y25.711 E12.09
G1 X90.675 Y24.584 E12.32078
G1 X93.125 Y23.619 E12.5047
G1 X95.605 Y22.558 E12.69311
G1 X98.014 Y21.446 E12.87843
G1 X100.395 Y20.266 E13.06403
G1 X102.756 Y19.009 E13.25086
G1 X105.062 Y17.698 E13.43613
G1 X107.321 Y16.327 E13.6207
G1 X109.611 Y14.847 E13.81114
G1 X111.411 Y13.618 E13.96338
G1 X111.999 Y13.259 E14.0115
G1 X112.962 Y12.752 E14.08751
G1 X113.585 Y12.473 E14.13519
G1 X114.313 Y12.234 E14.18871
G1 X114.976 Y12.069 E14.23643
G1 X115.862 Y11.972 E14.29868
G1 X116.383 Y11.958 E14.33508
G1 X117.44 Y11.957 E14.40891
G1 X118.228 Y11.968 E14.46396
G1 X118.909 Y12.017 E14.51164
G1 X119.613 Y12.155 E14.56175
G1 X120.419 Y12.383 E14.62026
G1 X121.335 Y12.746 E14.68908
G1 X121.797 Y12.983 E14.72534
G1 X122.928 Y13.685 E14.81832
G1 X123.329 Y13.992 E14.85359
G1 X123.721 Y14.307 E14.88872
G1 X124.225 Y14.768 E14.93643
G1 X124.671 Y15.285 E14.98412
G1 X124.987 Y15.741 E15.02287
G1 X125.351 Y16.323 E15.07081
G1 X125.802 Y17.086 E15.13272
G1 X126.226 Y17.841 E15.1932
G1 X126.525 Y18.455 E15.2409
G1 X126.801 Y19.293 E15.30252
G1 X127.484 Y22.408 E15.52526
G1 X128.099 Y24.922 E15.70603
G1 X128.827 Y27.566 E15.89758
G1 X129.587 Y30.05 E16.07902
G1 X130.456 Y32.626 E16.2689
G1 X130.97 Y34.017 E16.37248
G1 X131.501 Y35.546 E16.48553
G1 X131.684 Y36.193 E16.5325
G1 X131.889 Y37.117 E16.5986
G1 X132.04 Y37.926 E16.65609
G1 X132.117 Y38.467 E16.69425
G1 X132.16 Y38.988 E16.73077
G1 X132.193 Y39.882 E16.79325
G1 X132.14 Y41.183 E16.8842
G1 X132.033 Y41.944 E16.93787
G1 X131.919 Y42.675 E16.98955
G1 X131.783 Y43.474 E17.04616
G1 X131.555 Y44.372 E17.11087
G1 X131.357 Y44.925 E17.1519
G1 X131.145 Y45.449 E17.19138
G1 X130.863 Y46.061 E17.23844
G1 X130.393 Y46.95 E17.30868
G1 X129.711 Y48.14 E17.40448
G1 X129.313 Y48.807 E17.45873
G1 X128.959 Y49.332 E17.50296
G1 X128.63 Y49.756 E17.54044
G1 X127.995 Y50.483 E17.60786
G1 X127.624 Y50.856 E17.64461
G1 X127.137 Y51.294 E17.69036
G1 X126.177 Y52.064 E17.77631
G1 X125.441 Y52.611 E17.84036
G1 X124.867 Y52.982 E17.8881
G1 X123.419 Y53.701 E18.00102
G1 X122.625 Y54.063 E18.06197
G1 X121.828 Y54.356 E18.12128
G1 X120.812 Y54.629 E18.19476
G1 X120.064 Y54.811 E18.24853
G1 X119.391 Y54.934 E18.29631
G1 X118.776 Y54.976 E18.33937
G1 X118.15 Y54.986 E18.3831
G1 X116.256 Y54.987 E18.51539
G1 X115.469 Y54.976 E18.57036
G1 X113.854 Y54.871 E18.6834
G1 X111.112 Y54.716 E18.87523
G1 X108.439 Y54.64 E19.062
G1 X105.798 Y54.64 E19.24646
G1 X103.125 Y54.716 E19.43324
G1 X100.451 Y54.867 E19.62031
G1 X97.813 Y55.091 E19.80522
G1 X96.707 Y55.219 E19.88299
G1 X95.527 Y55.342 E19.96585
G1 X95.018 Y55.372 E20.00147
G1 X94.137 Y55.386 E20.06301
G1 X93.13 Y55.387 E20.13335
G1 X91.613 Y55.357 E20.23932
G1 X90.932 Y55.303 E20.28704
G1 X90.245 Y55.165 E20.33598
G1 X89.437 Y54.952 E20.39434
G1 X88.787 Y54.763 E20.44162
G1 X87.569 Y54.359 E20.53126
G1 X87.055 Y54.171 E20.56948
G1 X86.134 Y53.733 E20.64071
G1 X84.601 Y52.766 E20.76731
G1 X83.817 Y52.23 E20.83365
G1 X83.16 Y51.705 E20.89239
G1 X82.731 Y51.308 E20.93321
G1 X82.201 Y50.777 E20.98561
G1 X81.807 Y50.356 E21.02589
G1 X81.291 Y49.713 E21.08347
G1 X80.929 Y49.19 E21.1279
G1 X80.406 Y48.34 E21.1976
G1 X79.572 Y46.897 E21.31402
G1 X79.21 Y46.248 E21.36592
G1 X78.912 Y45.633 E21.41365
G1 X78.526 Y44.488 E21.49805
G1 X78.37 Y43.948 E21.53731
G1 X78.252 Y43.446 E21.57333
G1 X78.112 Y42.706 E21.62593
G1 X77.968 Y41.782 E21.69125
G1 X77.877 Y40.756 E21.76319
G1 X77.871 Y40.181 E21.80336
G1 X77.884 Y39.188 E21.87272
G1 X77.951 Y38.381 E21.92928
G1 X78.074 Y37.583 E21.98567
G1 X78.214 Y36.797 E22.04144
G1 X78.361 Y36.183 E22.08553
G1 X78.528 Y35.618 E22.12669
G1 X78.793 Y34.806 E22.18634
G1 X79.185 Y33.891 E22.25587
M204 S3000
M205 X10 Y10
G0 F3000 X79.679 Y34.155
M204 S1800
M205 X8 Y8
G1 F2400 X79.985 Y33.6 E22.30014
G1 X80.946 Y31.936 E22.43435
G1 X81.319 Y31.31 E22.48525
G1 X81.863 Y30.556 E22.55019
G1 X82.421 Y29.911 E22.60976
G1 X82.798 Y29.497 E22.64887
G1 X83.356 Y28.974 E22.70229
G1 X84.087 Y28.381 E22.76803
G1 X84.52 Y28.037 E22.80666
G1 X85.019 Y27.688 E22.84919
G1 X85.87 Y27.162 E22.91907
G1 X86.554 Y26.767 E22.97423
G1 X87.208 Y26.451 E23.02497
G1 X87.765 Y26.235 E23.06669
G1 X90.882 Y25.104 E23.29829
G1 X93.343 Y24.135 E23.48303
G1 X95.823 Y23.074 E23.67144
G1 X98.262 Y21.948 E23.85907
G1 X100.643 Y20.768 E24.04468
G1 X103.018 Y19.504 E24.23259
G1 X105.336 Y18.185 E24.41887
G1 X107.637 Y16.788 E24.60689
G1 X109.901 Y15.325 E24.79516
G1 X111.726 Y14.08 E24.94947
G1 X112.278 Y13.744 E24.99461
G1 X113.22 Y13.249 E25.06893
G1 X114.086 Y12.892 E25.13436
G1 X115.11 Y12.614 E25.20847
G1 X115.88 Y12.532 E25.26255
G1 X116.384 Y12.518 E25.29777
G1 X117.441 Y12.517 E25.3716
G1 X118.22 Y12.528 E25.42601
G1 X118.867 Y12.577 E25.47133
G1 X119.472 Y12.697 E25.51441
G1 X120.257 Y12.919 E25.57139
G1 X121.085 Y13.247 E25.6336
G1 X121.958 Y13.715 E25.70278
G1 X122.588 Y14.13 E25.75548
G1 X122.989 Y14.437 E25.79075
G1 X123.845 Y15.182 E25.87001
G1 X124.265 Y15.677 E25.91535
G1 X124.877 Y16.62 E25.99387
G1 X125.319 Y17.37 E26.05468
G1 X125.738 Y18.115 E26.11438
G1 X126.02 Y18.7 E26.15974
G1 X126.258 Y19.428 E26.21323
G1 X126.933 Y22.515 E26.43394
G1 X127.558 Y25.068 E26.61753
G1 X128.283 Y27.702 E26.80834
G1 X129.066 Y30.258 E26.99506
G1 X129.92 Y32.79 E27.1817
G1 X130.445 Y34.211 E27.28751
G1 X130.972 Y35.729 E27.39974
G1 X131.138 Y36.314 E27.44222
G1 X131.343 Y37.238 E27.50832
G1 X131.489 Y38.026 E27.5643
G1 X131.562 Y38.537 E27.60035
G1 X131.633 Y39.902 E27.69582
G1 X131.586 Y41.105 E27.77991
G1 X131.479 Y41.866 E27.83359
G1 X131.366 Y42.588 E27.88463
G1 X131.231 Y43.38 E27.94075
G1 X131.025 Y44.191 E27.99919
G1 X130.838 Y44.715 E28.03805
G1 X130.626 Y45.239 E28.07753
G1 X130.359 Y45.818 E28.12207
G1 X129.899 Y46.686 E28.19068
G1 X129.226 Y47.861 E28.28526
G1 X128.833 Y48.52 E28.33885
G1 X128.513 Y48.994 E28.3788
G1 X128.2 Y49.397 E28.41444
G1 X127.598 Y50.088 E28.47845
G1 X127.227 Y50.461 E28.51519
G1 X126.787 Y50.857 E28.55654
G1 X125.827 Y51.627 E28.64249
G1 X125.109 Y52.159 E28.70491
G1 X124.304 Y52.646 E28.77063
G1 X123.174 Y53.198 E28.85847
G1 X122.394 Y53.553 E28.91832
G1 X121.674 Y53.818 E28.97191
G1 X120.672 Y54.087 E29.04437
G1 X119.931 Y54.267 E29.09764
G1 X119.292 Y54.382 E29.14298
G1 X118.767 Y54.416 E29.17973
G1 X118.141 Y54.426 E29.22346
G1 X116.256 Y54.427 E29.35512
G1 X115.477 Y54.416 E29.40954
G1 X113.868 Y54.311 E29.52216
G1 X111.123 Y54.156 E29.71419
G1 X108.455 Y54.08 E29.90062
G1 X105.782 Y54.08 E30.08732
G1 X103.114 Y54.156 E30.27374
G1 X100.404 Y54.309 E30.46333
G1 X97.77 Y54.532 E30.64796
G1 X96.643 Y54.663 E30.72721
G1 X95.469 Y54.785 E30.80965
G1 X94.128 Y54.826 E30.90335
G1 X93.13 Y54.827 E30.97306
G1 X91.624 Y54.797 E31.07827
G1 X90.977 Y54.743 E31.12362
G1 X90.388 Y54.624 E31.16559
G1 X89.58 Y54.411 E31.22395
G1 X88.945 Y54.226 E31.27015
G1 X87.747 Y53.828 E31.35832
G1 X87.25 Y53.646 E31.39529
G1 X86.418 Y53.25 E31.45965
G1 X84.902 Y52.294 E31.58483
G1 X84.134 Y51.769 E31.64981
G1 X83.541 Y51.294 E31.70288
G1 X83.112 Y50.897 E31.7437
G1 X82.6 Y50.385 E31.79428
G1 X82.218 Y49.976 E31.83337
G1 X81.752 Y49.394 E31.88544
G1 X81.39 Y48.871 E31.92987
G1 X80.887 Y48.053 E31.99694
G1 X80.057 Y46.616 E32.11285
G1 X79.699 Y45.976 E32.16407
G1 X79.418 Y45.39 E32.20946
G1 X79.06 Y44.318 E32.2884
G1 X78.909 Y43.795 E32.32642
G1 X78.662 Y42.602 E32.41152
G1 X78.522 Y41.698 E32.47541
G1 X78.437 Y40.75 E32.54189
G1 X78.431 Y40.175 E32.58205
G1 X78.444 Y39.196 E32.65044
G1 X78.505 Y38.467 E32.70153
G1 X78.628 Y37.669 E32.75793
G1 X78.766 Y36.897 E32.81271
G1 X78.898 Y36.341 E32.85262
G1 X79.065 Y35.776 E32.89377
G1 X79.325 Y34.982 E32.95213
G1 X79.679 Y34.155 E33.01496
M204 S3000
M205 X10 Y10
G1 F2400 E28.51496
;MESH:tornillo.stl
G0 F3000 X83.339 Y37.568
G0 X84.792 Y38.022
G0 X85.518 Y42.176
G0 X85.993 Y43.494
G0 X86.723 Y44.73
G0 X87.519 Y45.697
G0 X88.43 Y46.492
G0 X89.754 Y47.319
G0 X91.045 Y47.822
G0 X91.988 Y48.033
G0 X94.434 Y48.138
G0 X94.427 Y48.039
M204 S1800
M205 X8 Y8
;TYPE:WALL-INNER
G1 F2400 E33.01496
G1 F1350 X95.268 Y47.865 E33.07494
G1 X96.564 Y47.492 E33.16914
G1 X97.613 Y47.001 E33.25004
G1 X98.727 Y46.244 E33.34411
G1 X99.269 Y45.726 E33.39648
G1 X99.703 Y45.312 E33.43837
G1 X100.604 Y44.103 E33.54368
G1 X100.832 Y43.567 E33.58437
G1 X101.131 Y42.866 E33.6376
G1 X101.277 Y42.179 E33.68665
G1 X101.29 Y42.117 E33.69108
G1 X101.47 Y41.269 E33.75163
G1 X101.522 Y40.028 E33.83838
G1 X101.344 Y38.655 E33.93508
G1 X101.037 Y37.593 E34.0123
G1 X100.327 Y36.014 E34.13322
G1 X99.2 Y34.517 E34.2641
G1 X98.045 Y33.532 E34.37013
G1 X97.657 Y33.276 E34.40259
G1 X96.166 Y32.504 E34.51987
G1 X95.631 Y32.342 E34.55891
G1 X93.981 Y32.007 E34.67651
G1 X92.056 Y32.104 E34.81113
G1 X91.674 Y32.153 E34.83803
G1 X89.715 Y32.847 E34.98319
G1 X88.428 Y33.648 E35.08907
G1 X88.112 Y33.913 E35.11788
G1 X87.081 Y34.979 E35.22146
G1 X86.778 Y35.35 E35.25492
G1 X86.201 Y36.322 E35.33387
G1 X85.986 Y36.716 E35.36522
G1 X85.482 Y38.216 E35.47574
G1 X85.355 Y38.962 E35.5286
G1 X85.299 Y39.738 E35.58294
G1 X85.285 Y40.549 E35.63959
G1 X85.417 Y41.492 E35.7061
G1 X85.556 Y42.166 E35.75417
G1 X85.874 Y43.076 E35.8215
G1 X86.029 Y43.477 E35.85153
G1 X86.755 Y44.707 E35.95129
G1 X87.141 Y45.169 E35.99334
G1 X87.547 Y45.67 E36.03838
G1 X88.073 Y46.118 E36.08663
G1 X88.454 Y46.461 E36.12244
G1 X89.109 Y46.883 E36.17686
G1 X89.771 Y47.283 E36.23089
G1 X90.497 Y47.551 E36.28494
G1 X91.057 Y47.784 E36.3273
G1 X91.993 Y47.994 E36.39431
G1 X92.922 Y48.068 E36.4594
G1 X94.119 Y48.024 E36.54306
G1 X94.427 Y48.039 E36.5646
M204 S3000
M205 X10 Y10
G0 F3000 X94.434 Y48.138
G0 X96.365 Y48.167
G0 X96.4 Y48.26
M204 S1800
M205 X8 Y8
G1 F1350 X95.731 Y48.516 E36.61463
G1 X94.796 Y48.707 E36.68129
G1 X92.082 Y48.707 E36.87085
G1 X91.873 Y48.698 E36.88546
G1 X90.411 Y48.287 E36.99153
G1 X89.424 Y47.935 E37.06473
G1 X89.032 Y47.695 E37.09683
G1 X87.645 Y46.767 E37.21339
G1 X87.247 Y46.396 E37.25139
G1 X86.738 Y45.864 E37.30282
G1 X86.429 Y45.415 E37.34089
G1 X85.064 Y43.049 E37.53168
G1 X84.768 Y42.065 E37.60345
G1 X84.615 Y41.149 E37.66831
G1 X84.549 Y40.665 E37.70243
G1 X84.553 Y39.338 E37.79512
G1 X84.773 Y38.018 E37.88859
G1 X85.1 Y36.98 E37.9646
G1 X86.561 Y34.449 E38.16872
G1 X87.254 Y33.679 E38.24107
G1 X87.94 Y33.135 E38.30223
G1 X88.344 Y32.805 E38.33866
G1 X89.526 Y32.106 E38.43457
G1 X91.083 Y31.543 E38.55022
G1 X91.619 Y31.413 E38.58874
G1 X93.313 Y31.387 E38.70707
G1 X94.777 Y31.387 E38.80933
G1 X95.686 Y31.573 E38.87413
G1 X97.06 Y32.074 E38.97628
G1 X97.719 Y32.432 E39.02867
G1 X97.989 Y32.58 E39.05017
G1 X98.396 Y32.899 E39.08629
G1 X99.596 Y33.869 E39.19406
G1 X100.096 Y34.445 E39.24734
G1 X101.513 Y36.898 E39.4452
G1 X101.808 Y37.67 E39.50293
G1 X101.953 Y38.34 E39.55081
G1 X102.045 Y38.834 E39.58591
G1 X102.106 Y40.524 E39.70402
