;FLAVOR:Marlin
;TIME:5887
;Filament used: 3.77405m
;Layer height: 0.15
;MINX:77.286
;MINY:22.081
;MINZ:0.15
;MAXX:132.715
;MAXY:78.656
;MAXZ:7.95
;Generated with Cura_SteamEngine 4.5.0
M140 S60
M105
M190 S60
M104 S200
M105
M109 S200
M82 ;absolute extrusion mode
G21 ;metric values
G90 ;absolute positioning
M82 ;set extruder to absolute mode
M107 ;start with the fan off
G28 X0 Y0 ;move X/Y to min endstops
G28 Z0 ;move Z to min endstops
G1 Z15.0 F100 ;move the platform down 15mm
G92 E0 ;zero the extruded length
G1 F200 E3 ;extrude 3mm of feed stock
G92 E0 ;zero the extruded length again
G1 F100
G0 Y20 F100
M117 Printing...
G5
G92 E0
G92 E0
G1 F2400 E-6
;LAYER_COUNT:53
;LAYER:0
M106 S255
M204 S3000
M205 X10 Y10
G1 F600 Z0.225
G0 F1800 X77.468 Y26.176 Z0.225
M204 S1800
M205 X8 Y8
;TYPE:SKIRT
G1 F600 Z0.15
G1 F2400 E0
G1 X77.772 Y25.313 E0.03515
G1 X78.051 Y24.805 E0.05741
G1 X78.398 Y24.341 E0.07967
G1 X78.974 Y23.786 E0.1104
G1 X79.626 Y23.32 E0.14119
G1 X80.144 Y23.062 E0.16342
G1 X80.818 Y22.836 E0.19073
G1 X81.383 Y22.709 E0.21297
G1 X82.022 Y22.66 E0.23759
G1 X103.359 Y22.661 E1.05726
G1 X103.944 Y22.371 E1.08234
G1 X104.496 Y22.196 E1.10459
G1 X105.067 Y22.099 E1.12684
G1 X105.646 Y22.081 E1.14909
G1 X106.786 Y22.201 E1.19313
G1 X107.355 Y22.308 E1.21537
G1 X107.905 Y22.492 E1.23765
G1 X108.423 Y22.75 E1.25988
G1 X108.912 Y23.076 E1.28246
G1 X109.015 Y23.159 E1.28754
G1 X109.621 Y22.916 E1.31262
G1 X110.508 Y22.703 E1.34766
G1 X111.099 Y22.661 E1.37042
G1 X127.979 Y22.66 E2.01888
G1 X128.557 Y22.7 E2.04113
G1 X129.124 Y22.819 E2.06339
G1 X129.716 Y23.036 E2.08761
G1 X130.653 Y23.506 E2.12788
G1 X131.12 Y23.849 E2.15014
G1 X131.535 Y24.252 E2.17236
G1 X131.891 Y24.71 E2.19465
G1 X132.18 Y25.211 E2.21687
G1 X132.414 Y25.799 E2.24118
G1 X132.657 Y26.708 E2.27732
G1 X132.714 Y27.399 E2.30396
G1 X132.715 Y73.341 E4.06884
G1 X132.675 Y73.919 E4.0911
G1 X132.527 Y74.582 E4.1172
G1 X132.219 Y75.443 E4.15232
G1 X131.938 Y75.949 E4.17456
G1 X131.59 Y76.412 E4.19681
G1 X131.065 Y76.92 E4.22487
G1 X130.421 Y77.393 E4.25557
G1 X129.905 Y77.658 E4.27785
G1 X129.178 Y77.905 E4.30735
G1 X128.613 Y78.032 E4.32959
G1 X127.977 Y78.08 E4.3541
G1 X111.097 Y78.079 E5.00255
G1 X110.519 Y78.039 E5.02481
G1 X109.958 Y77.922 E5.04682
G1 X109.097 Y77.638 E5.08165
G1 X109.004 Y77.589 E5.08569
G1 X108.487 Y77.964 E5.11022
G1 X107.973 Y78.233 E5.13251
G1 X107.428 Y78.428 E5.15474
G1 X106.861 Y78.547 E5.177
G1 X106.278 Y78.596 E5.19948
G1 X105.414 Y78.656 E5.23275
G1 X104.838 Y78.603 E5.25497
G1 X104.273 Y78.471 E5.27726
G1 X103.733 Y78.263 E5.29949
G1 X103.391 Y78.073 E5.31452
G1 X82.023 Y78.08 E6.13538
G1 X81.445 Y78.04 E6.15764
G1 X80.791 Y77.896 E6.18336
G1 X79.914 Y77.585 E6.21911
G1 X79.407 Y77.305 E6.24136
G1 X78.943 Y76.958 E6.26361
G1 X78.624 Y76.655 E6.28052
G1 X78.244 Y76.218 E6.30276
G1 X77.927 Y75.733 E6.32502
G1 X77.587 Y74.943 E6.35806
G1 X77.344 Y74.036 E6.39413
G1 X77.286 Y73.341 E6.42092
G1 X77.286 Y27.399 E8.18581
G1 X77.326 Y26.821 E8.20806
G1 X77.468 Y26.176 E8.23343
M204 S3000
M205 X10 Y10
G0 F1800 X78.004 Y26.339
M204 S1800
M205 X8 Y8
G1 F2400 X78.297 Y25.514 E8.26707
G1 X78.563 Y25.046 E8.28775
G1 X78.897 Y24.622 E8.30848
G1 X79.322 Y24.225 E8.33082
G1 X79.942 Y23.784 E8.36005
G1 X80.428 Y23.551 E8.38076
G1 X80.978 Y23.373 E8.40296
G1 X81.505 Y23.257 E8.42369
G1 X82.022 Y23.22 E8.4436
G1 X103.528 Y23.221 E9.26977
G1 X103.779 Y23.063 E9.28116
G1 X104.272 Y22.846 E9.30185
G1 X104.793 Y22.704 E9.3226
G1 X105.328 Y22.641 E9.34329
G1 X105.907 Y22.663 E9.36555
G1 X106.721 Y22.758 E9.39703
G1 X107.25 Y22.86 E9.41773
G1 X107.759 Y23.039 E9.43846
G1 X108.389 Y23.393 E9.46622
G1 X108.945 Y23.82 E9.49315
G1 X109.155 Y23.695 E9.50254
G1 X109.775 Y23.454 E9.52809
G1 X110.624 Y23.252 E9.56162
G1 X111.099 Y23.221 E9.5799
G1 X127.979 Y23.22 E10.22835
G1 X128.517 Y23.26 E10.24908
G1 X129.043 Y23.379 E10.2698
G1 X129.912 Y23.74 E10.30594
G1 X130.385 Y23.999 E10.32666
G1 X130.814 Y24.325 E10.34736
G1 X131.191 Y24.71 E10.36806
G1 X131.507 Y25.148 E10.38881
G1 X131.754 Y25.627 E10.40951
G1 X131.988 Y26.312 E10.43732
G1 X132.11 Y26.837 E10.45802
G1 X132.154 Y27.399 E10.47968
G1 X132.155 Y73.341 E12.24456
G1 X132.115 Y73.879 E12.26529
G1 X131.992 Y74.417 E12.28649
G1 X131.696 Y75.239 E12.32005
G1 X131.427 Y75.706 E12.34075
G1 X131.092 Y76.129 E12.36148
G1 X130.712 Y76.486 E12.38151
G1 X130.098 Y76.933 E12.41069
G1 X129.615 Y77.172 E12.43139
G1 X129.018 Y77.368 E12.45553
G1 X128.491 Y77.483 E12.47625
G1 X127.977 Y77.52 E12.49605
G1 X111.097 Y77.519 E13.1445
G1 X110.559 Y77.479 E13.16522
G1 X109.794 Y77.294 E13.19546
G1 X109.287 Y77.109 E13.21619
G1 X108.937 Y76.919 E13.23149
G1 X108.161 Y77.506 E13.26887
G1 X107.68 Y77.749 E13.28957
G1 X107.168 Y77.918 E13.31028
G1 X106.534 Y78.018 E13.33494
G1 X105.929 Y78.073 E13.35828
G1 X105.39 Y78.095 E13.379
G1 X104.854 Y78.037 E13.39971
G1 X104.332 Y77.901 E13.42043
G1 X103.836 Y77.689 E13.44115
G1 X103.551 Y77.513 E13.45402
G1 X82.023 Y77.52 E14.28103
G1 X81.485 Y77.48 E14.30175
G1 X80.955 Y77.36 E14.32263
G1 X80.117 Y77.061 E14.35681
G1 X79.649 Y76.793 E14.37753
G1 X79.112 Y76.351 E14.40425
G1 X78.668 Y75.85 E14.42996
G1 X78.38 Y75.394 E14.45068
G1 X78.121 Y74.775 E14.47646
G1 X77.89 Y73.906 E14.511
G1 X77.846 Y73.341 E14.53277
G1 X77.846 Y27.399 E16.29765
G1 X77.886 Y26.861 E16.31838
G1 X78.004 Y26.339 E16.33894
M204 S3000
M205 X10 Y10
G0 F1800 X78.637 Y26.18
M204 S1800
M205 X8 Y8
G1 F2400 X78.82 Y25.719 E16.35799
G1 X79.073 Y25.293 E16.37702
G1 X79.392 Y24.913 E16.39608
G1 X79.844 Y24.526 E16.41894
G1 X80.256 Y24.25 E16.43799
G1 X80.875 Y23.988 E16.46381
G1 X81.624 Y23.806 E16.49343
G1 X82.022 Y23.78 E16.50875
G1 X103.689 Y23.781 E17.34109
G1 X104.167 Y23.494 E17.36251
G1 X104.63 Y23.319 E17.38153
G1 X105.117 Y23.22 E17.40062
G1 X105.842 Y23.219 E17.42847
G1 X107.142 Y23.411 E17.47895
G1 X107.607 Y23.585 E17.49802
G1 X108.068 Y23.852 E17.51849
G1 X108.591 Y24.252 E17.54378
G1 X108.886 Y24.535 E17.55949
G1 X109.477 Y24.161 E17.58636
G1 X110.25 Y23.9 E17.6177
G1 X110.737 Y23.802 E17.63678
G1 X127.979 Y23.78 E18.29914
G1 X128.473 Y23.82 E18.31818
G1 X128.955 Y23.939 E18.33725
G1 X129.68 Y24.25 E18.36756
G1 X130.114 Y24.491 E18.38663
G1 X130.503 Y24.798 E18.40566
G1 X130.838 Y25.164 E18.42473
G1 X131.11 Y25.579 E18.44379
G1 X131.345 Y26.134 E18.46694
G1 X131.563 Y26.963 E18.49987
G1 X131.594 Y27.399 E18.51666
G1 X131.595 Y73.341 E20.28154
G1 X131.555 Y73.835 E20.30058
G1 X131.358 Y74.571 E20.32985
G1 X131.174 Y75.032 E20.34892
G1 X130.918 Y75.457 E20.36798
G1 X130.598 Y75.835 E20.38701
G1 X130.188 Y76.19 E20.40784
G1 X129.779 Y76.471 E20.4269
G1 X129.126 Y76.751 E20.4542
G1 X128.373 Y76.934 E20.48396
G1 X127.977 Y76.96 E20.49921
G1 X111.097 Y76.959 E21.14766
G1 X110.602 Y76.919 E21.16674
G1 X109.946 Y76.755 E21.19272
G1 X109.481 Y76.582 E21.21178
G1 X108.885 Y76.204 E21.23889
G1 X108.246 Y76.763 E21.2715
G1 X107.839 Y77.046 E21.29055
G1 X107.392 Y77.261 E21.3096
G1 X106.916 Y77.401 E21.32866
G1 X106.178 Y77.481 E21.35718
G1 X105.369 Y77.534 E21.38832
G1 X104.877 Y77.471 E21.40738
G1 X104.401 Y77.33 E21.42645
G1 X103.954 Y77.115 E21.4455
G1 X103.723 Y76.953 E21.45634
G1 X82.023 Y76.96 E22.28996
G1 X81.529 Y76.92 E22.309
G1 X80.783 Y76.722 E22.33865
G1 X80.322 Y76.539 E22.3577
G1 X79.897 Y76.284 E22.37674
G1 X79.508 Y75.955 E22.39631
G1 X79.095 Y75.485 E22.42035
G1 X78.838 Y75.061 E22.43939
G1 X78.547 Y74.264 E22.47199
G1 X78.437 Y73.78 E22.49106
G1 X78.406 Y73.341 E22.50796
G1 X78.406 Y27.399 E24.27285
G1 X78.446 Y26.905 E24.29188
G1 X78.637 Y26.18 E24.32069
M204 S3000
M205 X10 Y10
G0 F1800 X79.173 Y26.343
M204 S1800
M205 X8 Y8
G1 F2400 X79.341 Y25.927 E24.33792
G1 X79.581 Y25.548 E24.35515
G1 X80.018 Y25.103 E24.37911
G1 X80.567 Y24.718 E24.40487
G1 X81.036 Y24.525 E24.42436
G1 X81.739 Y24.356 E24.45213
G1 X103.882 Y24.341 E25.30276
G1 X104.182 Y24.121 E25.31706
G1 X104.585 Y23.924 E25.33429
G1 X105.017 Y23.802 E25.35153
G1 X105.463 Y23.758 E25.36875
G1 X106.591 Y23.87 E25.41229
G1 X107.03 Y23.961 E25.42952
G1 X107.446 Y24.129 E25.44675
G1 X107.947 Y24.451 E25.46963
G1 X108.436 Y24.872 E25.49442
G1 X108.839 Y25.333 E25.51794
G1 X109.396 Y24.846 E25.54636
G1 X109.792 Y24.634 E25.56362
G1 X110.405 Y24.439 E25.58833
G1 X111.099 Y24.341 E25.61526
G1 X127.979 Y24.34 E26.26371
G1 X128.426 Y24.38 E26.28095
G1 X129.021 Y24.566 E26.3049
G1 X129.839 Y24.981 E26.34013
G1 X130.183 Y25.268 E26.35734
G1 X130.472 Y25.611 E26.37457
G1 X130.695 Y26 E26.3918
G1 X130.919 Y26.646 E26.41806
G1 X131.014 Y27.084 E26.43528
G1 X131.035 Y73.341 E28.21227
G1 X130.995 Y73.788 E28.22951
G1 X130.823 Y74.406 E28.25415
G1 X130.653 Y74.821 E28.27138
G1 X130.412 Y75.199 E28.2886
G1 X130.006 Y75.616 E28.31096
G1 X129.463 Y76.006 E28.33664
G1 X128.966 Y76.215 E28.35735
G1 X128.258 Y76.384 E28.38531
G1 X111.097 Y76.399 E29.04456
G1 X110.414 Y76.305 E29.07105
G1 X109.679 Y76.056 E29.10086
G1 X109.294 Y75.825 E29.11811
G1 X108.832 Y75.393 E29.1424
G1 X108.604 Y75.703 E29.15719
G1 X107.89 Y76.331 E29.19372
G1 X107.519 Y76.584 E29.21097
G1 X107.11 Y76.768 E29.22819
G1 X106.458 Y76.9 E29.25375
G1 X105.8 Y76.96 E29.27913
G1 X105.351 Y76.972 E29.29639
G1 X104.908 Y76.904 E29.3136
G1 X104.484 Y76.759 E29.33082
G1 X104.092 Y76.54 E29.34807
G1 X103.913 Y76.393 E29.35697
G1 X82.023 Y76.4 E30.19788
G1 X81.576 Y76.36 E30.21512
G1 X80.947 Y76.186 E30.24019
G1 X80.532 Y76.017 E30.25741
G1 X80.153 Y75.777 E30.27464
G1 X79.812 Y75.467 E30.29234
G1 X79.524 Y75.123 E30.30958
G1 X79.302 Y74.733 E30.32682
G1 X79.082 Y74.096 E30.3527
G1 X78.986 Y73.658 E30.36993
G1 X78.966 Y27.399 E32.14699
G1 X79.006 Y26.952 E32.16423
G1 X79.173 Y26.343 E32.18849
M204 S3000
M205 X10 Y10
G0 F1800 X79.611 Y26.828
M204 S1800
M205 X8 Y8
G1 F2400 X79.862 Y26.142 E32.21655
G1 X80.084 Y25.815 E32.23173
G1 X80.54 Y25.403 E32.25534
G1 X80.873 Y25.19 E32.27053
G1 X81.46 Y24.982 E32.29445
G1 X82.022 Y24.9 E32.31627
G1 X104.101 Y24.901 E33.16445
G1 X104.319 Y24.703 E33.17576
G1 X104.659 Y24.501 E33.19095
G1 X105.033 Y24.371 E33.20616
G1 X105.425 Y24.319 E33.22135
G1 X106.526 Y24.426 E33.26385
G1 X106.912 Y24.511 E33.27903
G1 X107.425 Y24.768 E33.30107
G1 X107.83 Y25.075 E33.3206
G1 X108.265 Y25.509 E33.3442
G1 X108.718 Y26.149 E33.37432
G1 X108.823 Y26.424 E33.38563
G1 X108.984 Y26.065 E33.40075
G1 X109.334 Y25.622 E33.42243
G1 X109.743 Y25.289 E33.44269
G1 X110.238 Y25.069 E33.4635
G1 X110.559 Y24.977 E33.47633
G1 X111.099 Y24.901 E33.49728
G1 X127.979 Y24.9 E34.14573
G1 X128.372 Y24.94 E34.16091
G1 X128.79 Y25.076 E34.17779
G1 X129.558 Y25.469 E34.21094
G1 X129.853 Y25.732 E34.22612
G1 X130.089 Y26.05 E34.24133
G1 X130.384 Y26.813 E34.27276
G1 X130.474 Y27.399 E34.29553
G1 X130.475 Y73.341 E36.06042
G1 X130.387 Y73.92 E36.08291
G1 X130.134 Y74.604 E36.11093
G1 X129.91 Y74.93 E36.12612
G1 X129.481 Y75.321 E36.14842
G1 X129.151 Y75.538 E36.16359
G1 X128.538 Y75.758 E36.18861
G1 X127.977 Y75.84 E36.21039
G1 X111.097 Y75.839 E36.85885
G1 X110.566 Y75.766 E36.87944
G1 X109.882 Y75.532 E36.90721
G1 X109.432 Y75.212 E36.92842
G1 X109.077 Y74.82 E36.94874
G1 X108.824 Y74.316 E36.9704
G1 X108.808 Y74.268 E36.97234
G1 X108.639 Y74.646 E36.98825
G1 X108.153 Y75.366 E37.02162
G1 X107.533 Y75.899 E37.05303
G1 X107.204 Y76.118 E37.06821
G1 X106.838 Y76.267 E37.08339
G1 X106.079 Y76.364 E37.11279
G1 X105.34 Y76.41 E37.14123
G1 X104.951 Y76.336 E37.15644
G1 X104.586 Y76.185 E37.17162
G1 X104.258 Y75.965 E37.18679
G1 X104.128 Y75.833 E37.19391
G1 X82.023 Y75.84 E38.04308
G1 X81.448 Y75.754 E38.06542
G1 X80.747 Y75.497 E38.0941
G1 X80.3 Y75.163 E38.11553
G1 X79.958 Y74.765 E38.13569
G1 X79.724 Y74.272 E38.15666
G1 X79.536 Y73.541 E38.18565
G1 X79.526 Y27.399 E39.95822
G1 X79.611 Y26.828 E39.98039
M204 S3000
M205 X10 Y10
G0 F1800 X80.147 Y26.991
M204 S1800
M205 X8 Y8
G1 F2400 X80.379 Y26.364 E40.00608
G1 X80.714 Y25.98 E40.02565
G1 X81.173 Y25.667 E40.04699
G1 X81.621 Y25.519 E40.06512
G1 X82.022 Y25.46 E40.08069
G1 X104.348 Y25.461 E40.93835
G1 X104.575 Y25.214 E40.95124
G1 X104.853 Y25.029 E40.96407
G1 X105.167 Y24.915 E40.9769
G1 X105.647 Y24.887 E40.99537
G1 X106.786 Y25.06 E41.03963
G1 X107.304 Y25.368 E41.06278
G1 X107.825 Y25.856 E41.0902
G1 X108.24 Y26.447 E41.11795
G1 X108.341 Y26.765 E41.13076
G1 X108.367 Y34.367 E41.4228
G1 X108.295 Y34.855 E41.44175
G1 X108.155 Y35.226 E41.45698
G1 X108.407 Y35.175 E41.46686
G1 X108.668 Y35.054 E41.47791
G1 X109.159 Y34.632 E41.50278
G1 X109.164 Y27.399 E41.78064
G1 X109.235 Y26.957 E41.79784
G1 X109.496 Y26.3 E41.825
G1 X109.815 Y25.937 E41.84356
G1 X110.083 Y25.738 E41.85638
G1 X110.713 Y25.515 E41.88206
G1 X111.099 Y25.461 E41.89703
G1 X127.979 Y25.46 E42.54548
G1 X128.311 Y25.5 E42.55833
G1 X128.985 Y25.779 E42.58635
G1 X129.271 Y25.953 E42.59921
G1 X129.507 Y26.189 E42.61203
G1 X129.742 Y26.636 E42.63143
G1 X129.85 Y26.981 E42.64532
G1 X129.914 Y27.399 E42.66156
G1 X129.915 Y73.341 E44.42645
G1 X129.852 Y73.755 E44.44253
G1 X129.617 Y74.38 E44.46819
G1 X129.299 Y74.747 E44.48684
G1 X128.846 Y75.065 E44.5081
G1 X128.377 Y75.222 E44.5271
G1 X127.977 Y75.28 E44.54263
G1 X111.097 Y75.279 E45.19108
G1 X110.401 Y75.138 E45.21836
G1 X110.093 Y75.009 E45.23119
G1 X109.721 Y74.714 E45.24943
G1 X109.507 Y74.457 E45.26228
G1 X109.236 Y73.782 E45.29022
G1 X109.165 Y73.34 E45.30742
G1 X109.166 Y66.167 E45.58297
G1 X108.678 Y65.686 E45.60929
G1 X108.546 Y65.61 E45.61514
G1 X108.15 Y65.54 E45.63059
G1 X108.34 Y66.119 E45.654
G1 X108.366 Y73.623 E45.94227
G1 X108.327 Y73.955 E45.95511
G1 X108.161 Y74.354 E45.97172
G1 X107.914 Y74.759 E45.98994
G1 X107.609 Y75.11 E46.0078
G1 X107.177 Y75.466 E46.02931
G1 X106.896 Y75.647 E46.04215
G1 X106.382 Y75.783 E46.06257
G1 X105.671 Y75.848 E46.09
G1 X105.337 Y75.846 E46.10283
G1 X105.013 Y75.766 E46.11565
G1 X104.717 Y75.611 E46.12849
G1 X104.385 Y75.273 E46.14669
G1 X82.022 Y75.28 E47.00577
G1 X81.612 Y75.219 E47.0217
G1 X80.97 Y74.98 E47.04801
G1 X80.604 Y74.675 E47.06631
G1 X80.398 Y74.412 E47.07915
G1 X80.15 Y73.76 E47.10594
G1 X80.086 Y73.341 E47.12223
G1 X80.086 Y27.399 E48.88711
G1 X80.147 Y26.991 E48.90296
M204 S3000
M205 X10 Y10
G0 F1800 X80.78 Y26.832
M204 S1800
M205 X8 Y8
G1 F2400 X80.893 Y26.6 E48.91287
G1 X81.236 Y26.281 E48.93087
G1 X81.517 Y26.134 E48.94305
G1 X82.022 Y26.02 E48.96294
G1 X104.692 Y26.021 E49.83381
G1 X104.775 Y25.829 E49.84185
G1 X104.945 Y25.634 E49.85179
G1 X105.166 Y25.501 E49.8617
G1 X105.418 Y25.441 E49.87165
G1 X106.396 Y25.539 E49.90941
G1 X106.781 Y25.685 E49.92522
G1 X107.295 Y26.105 E49.95072
G1 X107.626 Y26.508 E49.97076
G1 X107.753 Y26.733 E49.98068
G1 X107.806 Y27.028 E49.9922
G1 X107.807 Y34.367 E50.27413
G1 X107.747 Y34.739 E50.2886
G1 X107.61 Y35.052 E50.30173
G1 X107.312 Y35.427 E50.32013
G1 X107.212 Y35.511 E50.32515
G1 X107.116 Y35.786 E50.33634
G1 X108.172 Y35.794 E50.3769
G1 X108.582 Y35.711 E50.39297
G1 X108.964 Y35.534 E50.40915
G1 X109.371 Y35.207 E50.4292
G1 X109.576 Y35.007 E50.4402
G1 X109.724 Y34.787 E50.45039
G1 X109.724 Y27.399 E50.7342
G1 X109.885 Y26.779 E50.75881
G1 X110.104 Y26.434 E50.77451
G1 X110.413 Y26.197 E50.78947
G1 X110.868 Y26.054 E50.80779
G1 X111.099 Y26.021 E50.81676
G1 X127.979 Y26.02 E51.46521
G1 X128.326 Y26.095 E51.47885
G1 X128.753 Y26.289 E51.49686
G1 X128.97 Y26.431 E51.50683
G1 X129.132 Y26.632 E51.51674
G1 X129.316 Y27.148 E51.53779
G1 X129.354 Y27.399 E51.54754
G1 X129.355 Y73.341 E53.31242
G1 X129.218 Y73.909 E53.33487
G1 X129.105 Y74.141 E53.34478
G1 X128.775 Y74.452 E53.3622
G1 X128.485 Y74.605 E53.3748
G1 X127.977 Y74.72 E53.39481
G1 X111.097 Y74.719 E54.04326
G1 X110.553 Y74.599 E54.06466
G1 X110.203 Y74.399 E54.08015
G1 X109.948 Y74.103 E54.09515
G1 X109.768 Y73.605 E54.1155
G1 X109.725 Y73.34 E54.12581
G1 X109.726 Y65.955 E54.40951
G1 X109.391 Y65.576 E54.42894
G1 X109.007 Y65.229 E54.44882
G1 X108.762 Y65.088 E54.45968
G1 X108.33 Y64.977 E54.47682
G1 X107.187 Y64.969 E54.52073
G1 X107.295 Y65.291 E54.53377
G1 X107.536 Y65.55 E54.54736
G1 X107.734 Y66.006 E54.56646
G1 X107.795 Y66.32 E54.57875
G1 X107.806 Y73.624 E54.85934
G1 X107.767 Y73.879 E54.86925
G1 X107.436 Y74.467 E54.89517
G1 X107.253 Y74.678 E54.9059
