;FLAVOR:Marlin
;TIME:6319
;Filament used: 4.43063m
;Layer height: 0.14
;MINX:89.479
;MINY:10.061
;MINZ:0.15
;MAXX:120.525
;MAXY:73.461
;MAXZ:44.95
;Generated with Cura_SteamEngine 4.5.0
M140 S60
M105
M190 S60
M104 S200
M105
M109 S200
M82 ;absolute extrusion mode
G21 ;metric values
G90 ;absolute positioning
M82 ;set extruder to absolute mode
M107 ;start with the fan off
G28 X0 Y0 ;move X/Y to min endstops
G28 Z0 ;move Z to min endstops
G1 Z15.0 F100 ;move the platform down 15mm
G92 E0 ;zero the extruded length
G1 F200 E3 ;extrude 3mm of feed stock
G92 E0 ;zero the extruded length again
G1 F100
G0 Y20 F100
M117 Printing...
G5
G92 E0
G92 E0
G1 F2400 E-6
;LAYER_COUNT:321
;LAYER:0
M106 S255
M204 S3000
M205 X10 Y10
G1 F600 Z0.225
G0 F1800 X89.519 Y13.847 Z0.225
M204 S1800
M205 X8 Y8
;TYPE:SKIRT
G1 F600 Z0.15
G1 F2400 E0
G1 X89.638 Y13.28 E0.02226
G1 X89.834 Y12.735 E0.04451
G1 X90.103 Y12.222 E0.06676
G1 X90.44 Y11.751 E0.08901
G1 X90.873 Y11.291 E0.11327
G1 X91.31 Y10.911 E0.13552
G1 X91.795 Y10.594 E0.15778
G1 X92.319 Y10.347 E0.18003
G1 X92.872 Y10.175 E0.20228
G1 X93.444 Y10.08 E0.22456
G1 X96.011 Y10.061 E0.32317
G1 X96.589 Y10.101 E0.34543
G1 X97.156 Y10.22 E0.36768
G1 X97.701 Y10.416 E0.38993
G1 X98.214 Y10.685 E0.41219
G1 X98.685 Y11.022 E0.43443
G1 X99.145 Y11.455 E0.4587
G1 X99.525 Y11.892 E0.48095
G1 X99.842 Y12.377 E0.50321
G1 X100.089 Y12.901 E0.52546
G1 X100.261 Y13.454 E0.54771
G1 X100.356 Y14.026 E0.56998
G1 X100.375 Y22.561 E0.89786
G1 X116.161 Y22.561 E1.50429
G1 X116.739 Y22.601 E1.52654
G1 X117.306 Y22.72 E1.5488
G1 X117.851 Y22.916 E1.57105
G1 X118.364 Y23.185 E1.5933
G1 X118.835 Y23.522 E1.61555
G1 X119.295 Y23.955 E1.63982
G1 X119.675 Y24.392 E1.66206
G1 X119.992 Y24.877 E1.68432
G1 X120.239 Y25.401 E1.70658
G1 X120.411 Y25.954 E1.72882
G1 X120.506 Y26.526 E1.7511
G1 X120.525 Y56.597 E2.90629
G1 X120.485 Y57.175 E2.92855
G1 X120.366 Y57.742 E2.9508
G1 X120.17 Y58.287 E2.97305
G1 X119.901 Y58.8 E2.9953
G1 X119.564 Y59.271 E3.01755
G1 X119.131 Y59.731 E3.04182
G1 X118.694 Y60.111 E3.06407
G1 X118.209 Y60.428 E3.08633
G1 X117.685 Y60.675 E3.10858
G1 X117.132 Y60.847 E3.13083
G1 X116.56 Y60.942 E3.1531
G1 X100.375 Y60.961 E3.77486
G1 X100.375 Y69.097 E4.0874
G1 X100.335 Y69.675 E4.10966
G1 X100.216 Y70.242 E4.13192
G1 X100.02 Y70.787 E4.15417
G1 X99.751 Y71.3 E4.17642
G1 X99.414 Y71.771 E4.19867
G1 X98.981 Y72.231 E4.22294
G1 X98.544 Y72.611 E4.24518
G1 X98.059 Y72.928 E4.26744
G1 X97.535 Y73.175 E4.2897
G1 X96.982 Y73.347 E4.31194
G1 X96.41 Y73.442 E4.33422
G1 X93.844 Y73.461 E4.43279
G1 X93.266 Y73.421 E4.45505
G1 X92.699 Y73.302 E4.47731
G1 X92.154 Y73.106 E4.49956
G1 X91.641 Y72.837 E4.52181
G1 X91.17 Y72.5 E4.54406
G1 X90.71 Y72.067 E4.56833
G1 X90.33 Y71.63 E4.59057
G1 X90.013 Y71.145 E4.61283
G1 X89.766 Y70.621 E4.63508
G1 X89.594 Y70.068 E4.65733
G1 X89.499 Y69.496 E4.67961
G1 X89.479 Y14.425 E6.79518
G1 X89.519 Y13.847 E6.81744
M204 S3000
M205 X10 Y10
G0 F1800 X90.079 Y13.887
M204 S1800
M205 X8 Y8
G1 F2400 X90.198 Y13.361 E6.83816
G1 X90.393 Y12.859 E6.85885
G1 X90.661 Y12.39 E6.8796
G1 X91.105 Y11.851 E6.90642
G1 X91.678 Y11.335 E6.93605
G1 X92.134 Y11.047 E6.95677
G1 X92.627 Y10.83 E6.97746
G1 X93.147 Y10.688 E6.99816
G1 X93.843 Y10.621 E7.02503
G1 X96.011 Y10.621 E7.10831
G1 X96.549 Y10.661 E7.12903
G1 X97.075 Y10.78 E7.14975
G1 X97.577 Y10.975 E7.17044
G1 X98.046 Y11.243 E7.19119
G1 X98.585 Y11.687 E7.21802
G1 X99.101 Y12.26 E7.24764
G1 X99.389 Y12.716 E7.26836
G1 X99.606 Y13.209 E7.28905
G1 X99.748 Y13.729 E7.30976
G1 X99.815 Y14.425 E7.33662
G1 X99.815 Y23.121 E7.67068
G1 X116.161 Y23.121 E8.29862
G1 X116.699 Y23.161 E8.31934
G1 X117.225 Y23.28 E8.34006
G1 X117.727 Y23.475 E8.36075
G1 X118.196 Y23.743 E8.3815
G1 X118.735 Y24.187 E8.40833
G1 X119.251 Y24.76 E8.43795
G1 X119.539 Y25.216 E8.45867
G1 X119.756 Y25.709 E8.47936
G1 X119.898 Y26.229 E8.50007
G1 X119.965 Y26.925 E8.52693
G1 X119.965 Y56.597 E9.66679
G1 X119.925 Y57.135 E9.68752
G1 X119.806 Y57.661 E9.70823
G1 X119.611 Y58.163 E9.72892
G1 X119.343 Y58.632 E9.74967
G1 X118.899 Y59.171 E9.7765
G1 X118.326 Y59.687 E9.80612
G1 X117.87 Y59.975 E9.82684
G1 X117.377 Y60.192 E9.84753
G1 X116.857 Y60.334 E9.86824
G1 X116.161 Y60.401 E9.8951
G1 X99.815 Y60.401 E10.52304
G1 X99.815 Y69.097 E10.8571
G1 X99.775 Y69.635 E10.87782
G1 X99.656 Y70.161 E10.89854
G1 X99.461 Y70.663 E10.91923
G1 X99.193 Y71.132 E10.93998
G1 X98.749 Y71.671 E10.96681
G1 X98.176 Y72.187 E10.99643
G1 X97.72 Y72.475 E11.01715
G1 X97.227 Y72.692 E11.03784
G1 X96.707 Y72.834 E11.05855
G1 X96.011 Y72.901 E11.08541
G1 X93.844 Y72.901 E11.16865
G1 X93.306 Y72.861 E11.18938
G1 X92.78 Y72.742 E11.2101
G1 X92.278 Y72.547 E11.23078
G1 X91.809 Y72.279 E11.25154
G1 X91.27 Y71.835 E11.27836
G1 X90.754 Y71.262 E11.30798
G1 X90.466 Y70.806 E11.3287
G1 X90.249 Y70.313 E11.34939
G1 X90.107 Y69.793 E11.3701
G1 X90.04 Y69.097 E11.39696
G1 X90.039 Y14.425 E13.49721
G1 X90.079 Y13.887 E13.51794
M204 S3000
M205 X10 Y10
G0 F1800 X90.639 Y13.931
M204 S1800
M205 X8 Y8
G1 F2400 X90.758 Y13.449 E13.53701
G1 X90.952 Y12.993 E13.55605
G1 X91.217 Y12.574 E13.57509
G1 X91.665 Y12.083 E13.60063
G1 X92.043 Y11.762 E13.61968
G1 X92.467 Y11.505 E13.63872
G1 X92.928 Y11.32 E13.6578
G1 X93.411 Y11.211 E13.67683
G1 X93.843 Y11.181 E13.69346
G1 X96.011 Y11.181 E13.77675
G1 X96.987 Y11.34 E13.81473
G1 X97.443 Y11.534 E13.83377
G1 X97.862 Y11.799 E13.85282
G1 X98.353 Y12.247 E13.87835
G1 X98.674 Y12.625 E13.8974
G1 X98.931 Y13.049 E13.91645
G1 X99.116 Y13.51 E13.93553
G1 X99.225 Y13.993 E13.95455
G1 X99.255 Y14.425 E13.97119
G1 X99.255 Y23.681 E14.32676
G1 X116.161 Y23.681 E14.97621
G1 X116.655 Y23.721 E14.99525
G1 X117.137 Y23.84 E15.01432
G1 X117.593 Y24.034 E15.03336
G1 X118.012 Y24.299 E15.0524
G1 X118.503 Y24.747 E15.07794
G1 X118.824 Y25.125 E15.09699
G1 X119.081 Y25.549 E15.11604
G1 X119.266 Y26.01 E15.13512
G1 X119.375 Y26.493 E15.15414
G1 X119.405 Y26.925 E15.17077
G1 X119.405 Y56.597 E16.31064
G1 X119.365 Y57.091 E16.32968
G1 X119.246 Y57.573 E16.34875
G1 X119.052 Y58.029 E16.36779
G1 X118.787 Y58.448 E16.38683
G1 X118.339 Y58.939 E16.41236
G1 X117.961 Y59.26 E16.43142
G1 X117.537 Y59.517 E16.45046
G1 X117.076 Y59.702 E16.46954
G1 X116.593 Y59.811 E16.48857
G1 X116.161 Y59.841 E16.5052
G1 X99.255 Y59.841 E17.15465
G1 X99.255 Y69.097 E17.51023
G1 X99.215 Y69.591 E17.52927
G1 X99.096 Y70.073 E17.54834
G1 X98.902 Y70.529 E17.56737
G1 X98.637 Y70.948 E17.58642
G1 X98.189 Y71.439 E17.61195
G1 X97.811 Y71.76 E17.631
G1 X97.387 Y72.017 E17.65005
G1 X96.926 Y72.202 E17.66913
G1 X96.443 Y72.311 E17.68815
G1 X96.011 Y72.341 E17.70479
G1 X93.844 Y72.341 E17.78804
G1 X93.35 Y72.301 E17.80708
G1 X92.868 Y72.182 E17.82615
G1 X92.412 Y71.988 E17.84518
G1 X91.993 Y71.723 E17.86423
G1 X91.502 Y71.275 E17.88976
G1 X91.181 Y70.897 E17.90881
G1 X90.924 Y70.473 E17.92786
G1 X90.739 Y70.012 E17.94694
G1 X90.63 Y69.529 E17.96596
G1 X90.6 Y69.097 E17.9826
G1 X90.599 Y14.425 E20.08285
G1 X90.639 Y13.931 E20.10189
M204 S3000
M205 X10 Y10
G0 F1800 X91.199 Y13.978
M204 S1800
M205 X8 Y8
G1 F2400 X91.317 Y13.546 E20.11909
G1 X91.511 Y13.141 E20.13634
G1 X91.897 Y12.643 E20.16055
G1 X92.405 Y12.191 E20.18667
G1 X92.795 Y11.969 E20.20391
G1 X93.218 Y11.82 E20.22114
G1 X93.843 Y11.741 E20.24534
G1 X96.011 Y11.741 E20.32862
G1 X96.89 Y11.899 E20.36293
G1 X97.295 Y12.093 E20.38018
G1 X97.793 Y12.479 E20.40439
G1 X98.245 Y12.987 E20.43051
G1 X98.467 Y13.377 E20.44775
G1 X98.616 Y13.8 E20.46498
G1 X98.695 Y14.425 E20.48918
G1 X98.695 Y24.241 E20.86626
G1 X116.161 Y24.241 E21.53723
G1 X116.608 Y24.281 E21.55447
G1 X117.04 Y24.399 E21.57167
G1 X117.445 Y24.593 E21.58892
G1 X117.943 Y24.979 E21.61313
G1 X118.395 Y25.487 E21.63925
G1 X118.617 Y25.877 E21.65649
G1 X118.766 Y26.3 E21.67372
G1 X118.845 Y26.925 E21.69792
G1 X118.845 Y56.597 E22.83778
G1 X118.805 Y57.044 E22.85502
G1 X118.687 Y57.476 E22.87222
G1 X118.493 Y57.881 E22.88947
G1 X118.107 Y58.379 E22.91368
G1 X117.599 Y58.831 E22.9398
G1 X117.209 Y59.053 E22.95704
G1 X116.786 Y59.202 E22.97427
G1 X116.161 Y59.281 E22.99847
G1 X98.695 Y59.281 E23.66943
G1 X98.695 Y69.097 E24.04652
G1 X98.655 Y69.544 E24.06376
G1 X98.537 Y69.976 E24.08096
G1 X98.343 Y70.381 E24.09821
G1 X97.957 Y70.879 E24.12242
G1 X97.449 Y71.331 E24.14854
G1 X97.059 Y71.553 E24.16578
G1 X96.636 Y71.702 E24.18301
G1 X96.011 Y71.781 E24.20721
G1 X93.844 Y71.781 E24.29046
G1 X93.397 Y71.741 E24.3077
G1 X92.965 Y71.623 E24.3249
G1 X92.56 Y71.429 E24.34215
G1 X92.062 Y71.043 E24.36636
G1 X91.61 Y70.535 E24.39248
G1 X91.388 Y70.145 E24.40972
G1 X91.239 Y69.722 E24.42694
G1 X91.16 Y69.097 E24.45115
G1 X91.159 Y14.425 E26.5514
G1 X91.199 Y13.978 E26.56864
M204 S3000
M205 X10 Y10
G0 F1800 X91.759 Y14.032
M204 S1800
M205 X8 Y8
G1 F2400 X91.877 Y13.654 E26.58385
G1 X92.068 Y13.308 E26.59903
G1 X92.457 Y12.875 E26.62139
G1 X92.763 Y12.625 E26.63657
G1 X93.114 Y12.442 E26.65178
G1 X93.494 Y12.332 E26.66697
G1 X93.843 Y12.301 E26.68043
G1 X96.011 Y12.301 E26.76372
G1 X96.782 Y12.459 E26.79395
G1 X97.128 Y12.65 E26.80913
G1 X97.561 Y13.039 E26.8315
G1 X97.811 Y13.345 E26.84667
G1 X97.994 Y13.696 E26.86188
G1 X98.104 Y14.076 E26.87708
G1 X98.135 Y14.425 E26.89054
G1 X98.135 Y24.801 E27.28914
G1 X116.161 Y24.801 E27.98161
G1 X116.554 Y24.841 E27.99679
G1 X116.932 Y24.959 E28.012
G1 X117.278 Y25.15 E28.02718
G1 X117.711 Y25.539 E28.04954
G1 X117.961 Y25.845 E28.06472
G1 X118.144 Y26.196 E28.07993
G1 X118.254 Y26.576 E28.09513
G1 X118.285 Y26.925 E28.10859
G1 X118.285 Y56.597 E29.24845
G1 X118.245 Y56.99 E29.26363
G1 X118.127 Y57.368 E29.27884
G1 X117.936 Y57.714 E29.29402
G1 X117.547 Y58.147 E29.31638
G1 X117.241 Y58.397 E29.33156
G1 X116.89 Y58.58 E29.34677
G1 X116.51 Y58.69 E29.36196
G1 X116.161 Y58.721 E29.37542
G1 X98.135 Y58.721 E30.0679
G1 X98.135 Y69.097 E30.4665
G1 X98.095 Y69.49 E30.48168
G1 X97.977 Y69.868 E30.49689
G1 X97.786 Y70.214 E30.51207
G1 X97.397 Y70.647 E30.53443
G1 X97.091 Y70.897 E30.54961
G1 X96.74 Y71.08 E30.56482
G1 X96.36 Y71.19 E30.58001
G1 X96.011 Y71.221 E30.59347
G1 X93.844 Y71.221 E30.67672
G1 X93.451 Y71.181 E30.69189
G1 X93.073 Y71.063 E30.70711
G1 X92.727 Y70.872 E30.72229
G1 X92.294 Y70.483 E30.74465
G1 X92.044 Y70.177 E30.75983
G1 X91.861 Y69.826 E30.77504
G1 X91.751 Y69.446 E30.79023
G1 X91.72 Y69.097 E30.80369
G1 X91.719 Y14.425 E32.90394
G1 X91.759 Y14.032 E32.91912
M204 S3000
M205 X10 Y10
G0 F1800 X92.319 Y14.093
M204 S1800
M205 X8 Y8
G1 F2400 X92.436 Y13.781 E32.93192
G1 X92.853 Y13.271 E32.95723
G1 X93.116 Y13.065 E32.97006
G1 X93.42 Y12.926 E32.9829
G1 X93.843 Y12.861 E32.99934
G1 X96.011 Y12.861 E33.08263
G1 X96.655 Y13.018 E33.10809
G1 X97.165 Y13.435 E33.1334
G1 X97.371 Y13.698 E33.14623
G1 X97.51 Y14.002 E33.15907
G1 X97.575 Y14.425 E33.17551
G1 X97.575 Y25.361 E33.59562
G1 X116.161 Y25.361 E34.30961
G1 X116.493 Y25.401 E34.32246
G1 X116.805 Y25.518 E34.33526
G1 X117.315 Y25.935 E34.36057
G1 X117.521 Y26.198 E34.3734
G1 X117.66 Y26.502 E34.38624
G1 X117.725 Y26.925 E34.40268
G1 X117.725 Y56.597 E35.54255
G1 X117.685 Y56.929 E35.55539
G1 X117.568 Y57.241 E35.56819
G1 X117.151 Y57.751 E35.5935
G1 X116.888 Y57.957 E35.60633
G1 X116.584 Y58.096 E35.61918
G1 X116.161 Y58.161 E35.63562
G1 X97.575 Y58.161 E36.34961
G1 X97.575 Y69.097 E36.76972
G1 X97.535 Y69.429 E36.78256
G1 X97.418 Y69.741 E36.79536
G1 X97.001 Y70.251 E36.82067
G1 X96.738 Y70.457 E36.8335
G1 X96.434 Y70.596 E36.84635
G1 X96.011 Y70.661 E36.86279
G1 X93.844 Y70.661 E36.94603
G1 X93.512 Y70.621 E36.95888
G1 X93.2 Y70.504 E36.97168
G1 X92.69 Y70.087 E36.99699
G1 X92.484 Y69.824 E37.00982
G1 X92.345 Y69.52 E37.02266
G1 X92.28 Y69.097 E37.0391
G1 X92.279 Y14.425 E39.13935
G1 X92.319 Y14.093 E39.1522
M204 S3000
M205 X10 Y10
G0 F1800 X92.839 Y14.425
M204 S1800
M205 X8 Y8
G1 F2400 X92.879 Y14.17 E39.16211
G1 X93.085 Y13.831 E39.17735
G1 X93.458 Y13.515 E39.19613
G1 X93.843 Y13.421 E39.21136
G1 X96.011 Y13.421 E39.29464
G1 X96.266 Y13.461 E39.30456
G1 X96.605 Y13.667 E39.3198
G1 X96.921 Y14.04 E39.33858
G1 X97.015 Y14.425 E39.3538
G1 X97.015 Y25.921 E39.79542
G1 X116.161 Y25.921 E40.53093
G1 X116.416 Y25.961 E40.54084
G1 X116.755 Y26.167 E40.55608
G1 X117.071 Y26.54 E40.57486
G1 X117.165 Y26.925 E40.59008
G1 X117.165 Y56.597 E41.72995
G1 X117.125 Y56.852 E41.73986
G1 X116.919 Y57.191 E41.7551
G1 X116.546 Y57.507 E41.77388
G1 X116.161 Y57.601 E41.78911
G1 X97.015 Y57.601 E42.52461
G1 X97.015 Y69.097 E42.96623
G1 X96.975 Y69.352 E42.97615
G1 X96.769 Y69.691 E42.99139
G1 X96.396 Y70.007 E43.01017
G1 X96.011 Y70.101 E43.02539
G1 X93.844 Y70.101 E43.10864
G1 X93.589 Y70.061 E43.11855
G1 X93.25 Y69.855 E43.13379
G1 X92.934 Y69.482 E43.15257
G1 X92.84 Y69.097 E43.1678
G1 X92.839 Y14.425 E45.26805
M204 S3000
M205 X10 Y10
G0 F1800 X93.399 Y14.425
M204 S1800
M205 X8 Y8
G1 F2400 X93.481 Y14.227 E45.27628
G1 X93.645 Y14.063 E45.28519
G1 X93.843 Y13.981 E45.29342
G1 X96.011 Y13.981 E45.37671
G1 X96.373 Y14.227 E45.39352
G1 X96.455 Y14.425 E45.40175
G1 X96.455 Y26.481 E45.86489
G1 X116.161 Y26.481 E46.6219
G1 X116.359 Y26.563 E46.63014
G1 X116.523 Y26.727 E46.63905
G1 X116.605 Y26.925 E46.64728
G1 X116.605 Y56.597 E47.78714
G1 X116.523 Y56.795 E47.79538
G1 X116.359 Y56.959 E47.80429
G1 X116.161 Y57.041 E47.81252
G1 X96.455 Y57.041 E48.56953
G1 X96.455 Y69.097 E49.03267
G1 X96.373 Y69.295 E49.0409
G1 X96.209 Y69.459 E49.04981
G1 X96.011 Y69.541 E49.05805
G1 X93.844 Y69.541 E49.14129
G1 X93.646 Y69.459 E49.14952
G1 X93.482 Y69.295 E49.15843
G1 X93.4 Y69.097 E49.16667
G1 X93.399 Y14.425 E51.26692
M204 S3000
M205 X10 Y10
G1 F2400 E45.26692
;MESH:termostato.stl
G0 F1800 X94.533 Y15.115
G0 X95.307 Y27.629
G0 X105.134 Y39.763
G0 X105.652 Y40.17
M204 S1800
M205 X8 Y8
;TYPE:WALL-OUTER
G1 F2400 E51.26692
G1 F900 X105.26 Y40.669 E51.29129
G1 X105.073 Y41.083 E51.30874
G1 X104.967 Y41.696 E51.33264
G1 X105.041 Y42.333 E51.35728
G1 X105.294 Y42.914 E51.38162
G1 X105.57 Y43.269 E51.3989
G1 X106.058 Y43.651 E51.4227
G1 X106.472 Y43.838 E51.44015
G1 X107.079 Y43.943 E51.46382
G1 X107.531 Y43.911 E51.48123
G1 X108.122 Y43.717 E51.50512
G1 X108.648 Y43.352 E51.52972
G1 X109.04 Y42.853 E51.55409
G1 X109.227 Y42.439 E51.57154
G1 X109.334 Y41.818 E51.59575
G1 X109.257 Y41.182 E51.62036
G1 X108.999 Y40.595 E51.64499
G1 X108.59 Y40.12 E51.66907
G1 X108.229 Y39.864 E51.68608
G1 X107.827 Y39.684 E51.703
G1 X107.221 Y39.579 E51.72662
G1 X106.769 Y39.611 E51.74403
G1 X106.178 Y39.805 E51.76793
G1 X105.652 Y40.17 E51.79252
M204 S3000
M205 X10 Y10
G0 F1800 X105.529 Y40.327
G0 X105.011 Y39.92
G0 X95.895 Y55.821
G0 X95.895 Y56.481
M204 S1800
M205 X8 Y8
G1 F900 X95.895 Y68.981 E52.27271
G1 X93.96 Y68.981 E52.34705
G1 X93.959 Y14.821 E54.42763
G1 X93.959 Y14.541 E54.43838
G1 X94.239 Y14.541 E54.44535
G1 X95.895 Y14.541 E54.50896
G1 X95.895 Y27.041 E54.98916
G1 X116.045 Y27.041 E55.76323
G1 X116.045 Y56.481 E56.89418
G1 X95.895 Y56.481 E57.66825
M204 S3000
M205 X10 Y10
G0 F1800 X95.895 Y56.681
G0 X95.335 Y55.921
M204 S1800
M205 X8 Y8
;TYPE:WALL-INNER
G1 F900 X95.335 Y68.421 E58.14844
G1 X94.52 Y68.421 E58.17975
G1 X94.519 Y15.381 E60.21731
G1 X94.519 Y15.101 E60.22806
G1 X94.799 Y15.101 E60.23503
G1 X95.335 Y15.101 E60.25562
G1 X95.335 Y27.601 E60.73581
G1 X115.485 Y27.601 E61.50988
G1 X115.485 Y55.921 E62.59781
G1 X95.335 Y55.921 E63.37188
M204 S3000
M205 X10 Y10
G0 F1800 X95.265 Y55.851
G0 X105.196 Y39.686
G0 X105.264 Y39.758
M204 S1800
M205 X8 Y8
G1 F900 X104.778 Y40.377 E63.40211
G1 X104.533 Y40.917 E63.42489
G1 X104.401 Y41.68 E63.45464
G1 X104.494 Y42.48 E63.48558
G1 X104.809 Y43.202 E63.51584
G1 X105.17 Y43.667 E63.53845
G1 X105.766 Y44.134 E63.56754
G1 X106.306 Y44.378 E63.5903
G1 X107.051 Y44.506 E63.61934
G1 X107.64 Y44.465 E63.64202
G1 X108.374 Y44.224 E63.6717
G1 X109.036 Y43.764 E63.70267
G1 X109.522 Y43.145 E63.7329
G1 X109.767 Y42.604 E63.75572
G1 X109.9 Y41.832 E63.78581
G1 X109.803 Y41.032 E63.81677
G1 X109.478 Y40.293 E63.84778
G1 X108.97 Y39.703 E63.87769
G1 X108.508 Y39.375 E63.89946
G1 X107.992 Y39.144 E63.92117
G1 X107.249 Y39.016 E63.95014
G1 X106.66 Y39.057 E63.97282
G1 X105.926 Y39.298 E64.0025
G1 X105.264 Y39.758 E64.03346
