;FLAVOR:Marlin
;TIME:2835
;Filament used: 2.81604m
;Layer height: 0.2
;MINX:90.302
;MINY:11.743
;MINZ:0.15
;MAXX:119.698
;MAXY:41.139
;MAXZ:39.95
;Generated with Cura_SteamEngine 4.5.0
M140 S60
M105
M190 S60
M104 S200
M105
M109 S200
M82 ;absolute extrusion mode
G21 ;metric values
G90 ;absolute positioning
M82 ;set extruder to absolute mode
M107 ;start with the fan off
G28 X0 Y0 ;move X/Y to min endstops
G28 Z0 ;move Z to min endstops
G1 Z15.0 F100 ;move the platform down 15mm
G92 E0 ;zero the extruded length
G1 F200 E3 ;extrude 3mm of feed stock
G92 E0 ;zero the extruded length again
G1 F100
G0 Y20 F100
M117 Printing...
G5
G92 E0
G92 E0
G1 F2400 E-6
;LAYER_COUNT:200
;LAYER:0
M106 S255
M204 S3000
M205 X10 Y10
G1 F600 Z0.225
G0 F1800 X90.454 Y21.32 Z0.225
M204 S1800
M205 X8 Y8
;TYPE:SKIRT
G1 F600 Z0.15
G1 F2400 E0
G1 X90.647 Y20.774 E0.02225
G1 X90.913 Y20.26 E0.04448
G1 X91.247 Y19.786 E0.06676
G1 X91.644 Y19.364 E0.08901
G1 X92.094 Y19 E0.11125
G1 X92.591 Y18.701 E0.13353
G1 X93.123 Y18.474 E0.15575
G1 X93.682 Y18.322 E0.178
G1 X94.502 Y18.241 E0.20966
G1 X96.795 Y18.241 E0.29774
G1 X96.8 Y15.935 E0.38633
G1 X96.841 Y15.357 E0.40859
G1 X96.961 Y14.79 E0.43085
G1 X97.158 Y14.245 E0.45311
G1 X97.429 Y13.733 E0.47537
G1 X97.767 Y13.262 E0.49764
G1 X98.166 Y12.843 E0.51987
G1 X98.62 Y12.483 E0.54212
G1 X99.119 Y12.188 E0.56439
G1 X99.653 Y11.965 E0.58662
G1 X100.213 Y11.817 E0.60888
G1 X101 Y11.743 E0.63924
G1 X102.998 Y11.743 E0.716
G1 X103.576 Y11.783 E0.73825
G1 X104.143 Y11.902 E0.76051
G1 X104.688 Y12.098 E0.78276
G1 X105.009 Y12.266 E0.79668
G1 X105.653 Y11.977 E0.82379
G1 X106.213 Y11.83 E0.84603
G1 X106.977 Y11.755 E0.87552
G1 X108.975 Y11.743 E0.95228
G1 X109.553 Y11.78 E0.97453
G1 X110.121 Y11.895 E0.99679
G1 X110.667 Y12.088 E1.01904
G1 X111.182 Y12.354 E1.04131
G1 X111.655 Y12.688 E1.06355
G1 X112.077 Y13.085 E1.08581
G1 X112.441 Y13.535 E1.10804
G1 X112.74 Y14.032 E1.13032
G1 X112.967 Y14.564 E1.15254
G1 X113.119 Y15.123 E1.1748
G1 X113.2 Y15.943 E1.20645
G1 X113.2 Y18.236 E1.29454
G1 X115.493 Y18.241 E1.38262
G1 X116.071 Y18.282 E1.40488
G1 X116.638 Y18.402 E1.42715
G1 X117.183 Y18.599 E1.44941
G1 X117.695 Y18.87 E1.47166
G1 X118.166 Y19.208 E1.49394
G1 X118.585 Y19.607 E1.51616
G1 X118.945 Y20.061 E1.53842
G1 X119.24 Y20.56 E1.56069
G1 X119.463 Y21.094 E1.58292
G1 X119.611 Y21.654 E1.60517
G1 X119.685 Y22.414 E1.6345
G1 X119.698 Y24.411 E1.71122
G1 X119.662 Y24.989 E1.73347
G1 X119.546 Y25.557 E1.75574
G1 X119.354 Y26.103 E1.77797
G1 X119.175 Y26.45 E1.79297
G1 X119.464 Y27.095 E1.82012
G1 X119.611 Y27.655 E1.84237
G1 X119.686 Y28.419 E1.87186
G1 X119.698 Y30.411 E1.94838
G1 X119.661 Y30.989 E1.97063
G1 X119.546 Y31.557 E1.99289
G1 X119.353 Y32.103 E2.01514
G1 X119.087 Y32.617 E2.03737
G1 X118.753 Y33.091 E2.05965
G1 X118.357 Y33.513 E2.08188
G1 X117.906 Y33.877 E2.10414
G1 X117.409 Y34.176 E2.12642
G1 X116.877 Y34.403 E2.14864
G1 X116.318 Y34.555 E2.1709
G1 X115.501 Y34.636 E2.20244
G1 X113.205 Y34.638 E2.29064
G1 X113.2 Y36.934 E2.37884
G1 X113.159 Y37.512 E2.4011
G1 X113.039 Y38.079 E2.42337
G1 X112.842 Y38.624 E2.44563
G1 X112.571 Y39.136 E2.46788
G1 X112.233 Y39.607 E2.49015
G1 X111.834 Y40.026 E2.51238
G1 X111.38 Y40.386 E2.53464
G1 X110.881 Y40.681 E2.55691
G1 X110.347 Y40.904 E2.57914
G1 X109.787 Y41.052 E2.60139
G1 X109.027 Y41.126 E2.63072
G1 X107.029 Y41.139 E2.70748
G1 X106.451 Y41.103 E2.72972
G1 X105.883 Y40.987 E2.752
G1 X105.337 Y40.795 E2.77423
G1 X104.991 Y40.616 E2.78919
G1 X104.347 Y40.905 E2.81631
G1 X103.787 Y41.052 E2.83855
G1 X103.023 Y41.127 E2.86804
G1 X101.03 Y41.139 E2.94461
G1 X100.452 Y41.102 E2.96686
G1 X99.884 Y40.987 E2.98912
G1 X99.338 Y40.794 E3.01136
G1 X98.824 Y40.528 E3.0336
G1 X98.35 Y40.194 E3.05587
G1 X97.928 Y39.797 E3.07813
G1 X97.564 Y39.347 E3.10037
G1 X97.265 Y38.85 E3.12265
G1 X97.038 Y38.318 E3.14487
G1 X96.886 Y37.759 E3.16712
G1 X96.805 Y36.942 E3.19866
G1 X96.803 Y34.646 E3.28686
G1 X94.494 Y34.641 E3.37556
G1 X93.916 Y34.6 E3.39782
G1 X93.349 Y34.48 E3.42009
G1 X92.804 Y34.283 E3.44235
G1 X92.292 Y34.012 E3.4646
G1 X91.821 Y33.674 E3.48687
G1 X91.402 Y33.275 E3.5091
G1 X91.042 Y32.821 E3.53136
G1 X90.747 Y32.322 E3.55363
G1 X90.524 Y31.788 E3.57586
G1 X90.376 Y31.228 E3.59811
G1 X90.302 Y30.441 E3.62848
G1 X90.302 Y28.449 E3.705
G1 X90.342 Y27.871 E3.72726
G1 X90.461 Y27.304 E3.74951
G1 X90.657 Y26.759 E3.77176
G1 X90.827 Y26.435 E3.78582
G1 X90.536 Y25.787 E3.81311
G1 X90.389 Y25.227 E3.83535
G1 X90.314 Y24.463 E3.86484
G1 X90.302 Y22.466 E3.94155
G1 X90.339 Y21.888 E3.9638
G1 X90.454 Y21.32 E3.98607
M204 S3000
M205 X10 Y10
G0 F1800 X91.015 Y21.398
M204 S1800
M205 X8 Y8
G1 F2400 X91.207 Y20.894 E4.00679
G1 X91.472 Y20.425 E4.02748
G1 X91.803 Y19.999 E4.0482
G1 X92.193 Y19.627 E4.06891
G1 X92.634 Y19.317 E4.08962
G1 X93.116 Y19.075 E4.11034
G1 X93.629 Y18.907 E4.13107
G1 X94.16 Y18.817 E4.15176
G1 X97.354 Y18.801 E4.27446
G1 X97.36 Y15.936 E4.38452
G1 X97.401 Y15.398 E4.40525
G1 X97.521 Y14.872 E4.42598
G1 X97.717 Y14.37 E4.44668
G1 X97.986 Y13.902 E4.46742
G1 X98.32 Y13.479 E4.48812
G1 X98.714 Y13.111 E4.50883
G1 X99.157 Y12.804 E4.52954
G1 X99.641 Y12.566 E4.55026
G1 X100.155 Y12.402 E4.57098
G1 X100.687 Y12.316 E4.59168
G1 X102.998 Y12.303 E4.68046
G1 X103.536 Y12.343 E4.70119
G1 X104.062 Y12.462 E4.72191
G1 X104.564 Y12.657 E4.74259
G1 X105.016 Y12.915 E4.76259
G1 X105.642 Y12.579 E4.78988
G1 X106.155 Y12.415 E4.81057
G1 X106.688 Y12.329 E4.83131
G1 X108.978 Y12.303 E4.91929
G1 X109.516 Y12.34 E4.94
G1 X110.043 Y12.456 E4.96073
G1 X110.547 Y12.648 E4.98145
G1 X111.016 Y12.913 E5.00215
G1 X111.442 Y13.244 E5.02287
G1 X111.814 Y13.634 E5.04357
G1 X112.124 Y14.075 E5.06428
G1 X112.366 Y14.557 E5.085
G1 X112.534 Y15.07 E5.10574
G1 X112.624 Y15.601 E5.12643
G1 X112.64 Y18.795 E5.24913
G1 X115.492 Y18.801 E5.35869
G1 X116.03 Y18.842 E5.37942
G1 X116.556 Y18.962 E5.40014
G1 X117.058 Y19.158 E5.42085
G1 X117.526 Y19.427 E5.44158
G1 X117.949 Y19.761 E5.46229
G1 X118.317 Y20.155 E5.483
G1 X118.624 Y20.598 E5.5037
G1 X118.862 Y21.082 E5.52442
G1 X119.026 Y21.596 E5.54515
G1 X119.112 Y22.129 E5.56589
G1 X119.138 Y24.414 E5.65367
G1 X119.101 Y24.952 E5.67439
G1 X118.986 Y25.479 E5.69511
G1 X118.794 Y25.983 E5.71583
G1 X118.529 Y26.453 E5.73656
G1 X118.862 Y27.084 E5.76397
G1 X119.026 Y27.597 E5.78466
G1 X119.112 Y28.13 E5.8054
G1 X119.138 Y30.414 E5.89314
G1 X119.101 Y30.952 E5.91386
G1 X118.985 Y31.479 E5.93459
G1 X118.793 Y31.983 E5.95531
G1 X118.528 Y32.452 E5.976
G1 X118.197 Y32.878 E5.99673
G1 X117.807 Y33.25 E6.01743
G1 X117.366 Y33.56 E6.03814
G1 X116.884 Y33.802 E6.05886
G1 X116.371 Y33.97 E6.07959
G1 X115.84 Y34.06 E6.10028
G1 X112.646 Y34.078 E6.22298
G1 X112.64 Y36.933 E6.33266
G1 X112.599 Y37.471 E6.35339
G1 X112.479 Y37.997 E6.37411
G1 X112.283 Y38.499 E6.39482
G1 X112.014 Y38.967 E6.41555
G1 X111.68 Y39.39 E6.43626
G1 X111.286 Y39.758 E6.45697
G1 X110.843 Y40.065 E6.47767
G1 X110.359 Y40.303 E6.49839
G1 X109.845 Y40.467 E6.51912
G1 X109.312 Y40.553 E6.53986
G1 X107.026 Y40.579 E6.62768
G1 X106.488 Y40.542 E6.6484
G1 X105.961 Y40.427 E6.66912
G1 X105.457 Y40.235 E6.68984
G1 X104.987 Y39.97 E6.71057
G1 X104.358 Y40.303 E6.73791
G1 X103.845 Y40.467 E6.7586
G1 X103.312 Y40.553 E6.77934
G1 X101.027 Y40.579 E6.86712
G1 X100.489 Y40.542 E6.88784
G1 X99.962 Y40.426 E6.90857
G1 X99.458 Y40.234 E6.92929
G1 X98.989 Y39.969 E6.94998
G1 X98.563 Y39.638 E6.97071
G1 X98.191 Y39.248 E6.99141
G1 X97.881 Y38.807 E7.01212
G1 X97.639 Y38.325 E7.03284
G1 X97.471 Y37.812 E7.05357
G1 X97.381 Y37.281 E7.07426
G1 X97.363 Y34.087 E7.19696
G1 X94.495 Y34.081 E7.30714
G1 X93.957 Y34.04 E7.32787
G1 X93.431 Y33.92 E7.34859
G1 X92.929 Y33.724 E7.3693
G1 X92.461 Y33.455 E7.39003
G1 X92.038 Y33.121 E7.41074
G1 X91.67 Y32.727 E7.43145
G1 X91.363 Y32.284 E7.45215
G1 X91.125 Y31.8 E7.47287
G1 X90.961 Y31.286 E7.4936
G1 X90.875 Y30.754 E7.5143
G1 X90.862 Y28.449 E7.60285
G1 X90.902 Y27.911 E7.62357
G1 X91.021 Y27.385 E7.64429
G1 X91.216 Y26.883 E7.66498
G1 X91.476 Y26.427 E7.68515
G1 X91.138 Y25.798 E7.71258
G1 X90.974 Y25.285 E7.73327
G1 X90.888 Y24.752 E7.75401
G1 X90.862 Y22.463 E7.84194
G1 X90.899 Y21.925 E7.86266
G1 X91.015 Y21.398 E7.88339
M204 S3000
M205 X10 Y10
G0 F1800 X91.575 Y21.483
M204 S1800
M205 X8 Y8
G1 F2400 X91.767 Y21.025 E7.90247
G1 X92.029 Y20.605 E7.92148
G1 X92.356 Y20.231 E7.94057
G1 X92.739 Y19.916 E7.95962
G1 X93.167 Y19.665 E7.97868
G1 X93.63 Y19.487 E7.99774
G1 X94.115 Y19.385 E8.01677
G1 X97.913 Y19.361 E8.16268
G1 X97.92 Y15.937 E8.29421
G1 X97.961 Y15.443 E8.31326
G1 X98.081 Y14.961 E8.33234
G1 X98.276 Y14.505 E8.35139
G1 X98.542 Y14.087 E8.37042
G1 X98.872 Y13.716 E8.3895
G1 X99.257 Y13.404 E8.40853
G1 X99.687 Y13.157 E8.42758
G1 X100.151 Y12.982 E8.44664
G1 X100.638 Y12.884 E8.46572
G1 X102.998 Y12.863 E8.55638
G1 X103.974 Y13.022 E8.59437
G1 X104.43 Y13.216 E8.61341
G1 X105.006 Y13.621 E8.64046
G1 X105.258 Y13.417 E8.65291
G1 X105.688 Y13.169 E8.67198
G1 X106.152 Y12.995 E8.69102
G1 X106.638 Y12.897 E8.71006
G1 X108.982 Y12.863 E8.80012
G1 X109.476 Y12.9 E8.81915
G1 X109.958 Y13.016 E8.83819
G1 X110.416 Y13.208 E8.85727
G1 X110.836 Y13.47 E8.87629
G1 X111.21 Y13.797 E8.89537
G1 X111.525 Y14.18 E8.91442
G1 X111.776 Y14.608 E8.93348
G1 X111.954 Y15.071 E8.95254
G1 X112.056 Y15.556 E8.97158
G1 X112.08 Y19.354 E9.11748
G1 X115.491 Y19.361 E9.24852
G1 X115.985 Y19.402 E9.26756
G1 X116.467 Y19.522 E9.28664
G1 X116.923 Y19.717 E9.30569
G1 X117.341 Y19.983 E9.32473
G1 X117.712 Y20.313 E9.3438
G1 X118.024 Y20.698 E9.36284
G1 X118.271 Y21.128 E9.38189
G1 X118.446 Y21.592 E9.40094
G1 X118.544 Y22.079 E9.42002
G1 X118.578 Y24.418 E9.50989
G1 X118.541 Y24.913 E9.52895
G1 X118.426 Y25.395 E9.54799
G1 X118.234 Y25.852 E9.56703
G1 X117.972 Y26.273 E9.58608
G1 X117.819 Y26.447 E9.59498
G1 X118.024 Y26.7 E9.60749
G1 X118.272 Y27.13 E9.62656
G1 X118.446 Y27.594 E9.6456
G1 X118.544 Y28.08 E9.66464
G1 X118.578 Y30.417 E9.75443
G1 X118.541 Y30.912 E9.7735
G1 X118.425 Y31.394 E9.79254
G1 X118.233 Y31.852 E9.81162
G1 X117.971 Y32.272 E9.83064
G1 X117.644 Y32.645 E9.84969
G1 X117.261 Y32.961 E9.86877
G1 X116.833 Y33.212 E9.88783
G1 X116.37 Y33.39 E9.90688
G1 X115.885 Y33.492 E9.92592
G1 X112.087 Y33.519 E10.07183
G1 X112.08 Y36.932 E10.20294
G1 X112.039 Y37.426 E10.22198
G1 X111.919 Y37.908 E10.24106
G1 X111.724 Y38.364 E10.26012
G1 X111.458 Y38.782 E10.27915
G1 X111.128 Y39.153 E10.29822
G1 X110.743 Y39.465 E10.31726
G1 X110.313 Y39.712 E10.33631
G1 X109.849 Y39.887 E10.35536
G1 X109.362 Y39.985 E10.37444
G1 X107.022 Y40.019 E10.46435
G1 X106.527 Y39.982 E10.48341
G1 X106.045 Y39.867 E10.50245
G1 X105.588 Y39.675 E10.52149
G1 X105.167 Y39.413 E10.54054
G1 X104.994 Y39.261 E10.54939
G1 X104.742 Y39.465 E10.56184
G1 X104.312 Y39.713 E10.58091
G1 X103.848 Y39.887 E10.59995
G1 X103.362 Y39.985 E10.619
G1 X101.024 Y40.019 E10.70882
G1 X100.529 Y39.982 E10.72789
G1 X100.047 Y39.866 E10.74693
G1 X99.589 Y39.674 E10.76601
G1 X99.169 Y39.412 E10.78503
G1 X98.796 Y39.085 E10.80408
G1 X98.48 Y38.702 E10.82316
G1 X98.229 Y38.274 E10.84222
G1 X98.051 Y37.811 E10.86127
G1 X97.949 Y37.326 E10.88031
G1 X97.922 Y33.528 E11.02622
G1 X94.496 Y33.521 E11.15783
G1 X94.002 Y33.48 E11.17687
G1 X93.52 Y33.36 E11.19595
G1 X93.064 Y33.165 E11.21501
G1 X92.646 Y32.899 E11.23404
G1 X92.275 Y32.569 E11.25311
G1 X91.963 Y32.184 E11.27215
G1 X91.716 Y31.754 E11.2912
G1 X91.541 Y31.29 E11.31025
G1 X91.443 Y30.803 E11.32933
G1 X91.422 Y28.449 E11.41977
G1 X91.462 Y27.955 E11.43881
G1 X91.581 Y27.473 E11.45788
G1 X91.775 Y27.017 E11.47692
G1 X92.183 Y26.437 E11.50416
G1 X91.976 Y26.182 E11.51678
G1 X91.728 Y25.752 E11.53584
G1 X91.554 Y25.288 E11.55488
G1 X91.456 Y24.802 E11.57393
G1 X91.422 Y22.46 E11.66391
G1 X91.459 Y21.965 E11.68297
G1 X91.575 Y21.483 E11.70202
M204 S3000
M205 X10 Y10
G0 F1800 X92.135 Y21.576
M204 S1800
M205 X8 Y8
G1 F2400 X92.326 Y21.17 E11.71926
G1 X92.586 Y20.804 E11.7365
G1 X92.906 Y20.49 E11.75373
G1 X93.278 Y20.239 E11.77096
G1 X93.687 Y20.056 E11.78818
G1 X94.123 Y19.95 E11.80541
G1 X94.502 Y19.921 E11.82002
G1 X98.472 Y19.921 E11.97253
G1 X98.48 Y15.938 E12.12553
G1 X98.521 Y15.491 E12.14278
G1 X98.64 Y15.059 E12.15999
G1 X98.834 Y14.655 E12.17721
G1 X99.097 Y14.291 E12.19446
G1 X99.42 Y13.98 E12.21168
G1 X99.793 Y13.731 E12.22891
G1 X100.205 Y13.552 E12.24617
G1 X100.641 Y13.449 E12.26338
G1 X102.998 Y13.423 E12.35393
G1 X103.877 Y13.581 E12.38824
G1 X104.282 Y13.775 E12.40549
G1 X104.646 Y14.037 E12.42272
G1 X105.006 Y14.431 E12.44322
G1 X105.421 Y13.993 E12.4664
G1 X105.794 Y13.743 E12.48365
G1 X106.205 Y13.564 E12.50087
G1 X106.642 Y13.461 E12.51812
G1 X108.985 Y13.423 E12.60814
G1 X109.432 Y13.46 E12.62537
G1 X109.865 Y13.576 E12.64259
G1 X110.271 Y13.767 E12.65983
G1 X110.637 Y14.027 E12.67707
G1 X110.951 Y14.347 E12.69429
G1 X111.203 Y14.719 E12.71156
G1 X111.385 Y15.128 E12.72875
G1 X111.491 Y15.564 E12.74599
G1 X111.52 Y15.943 E12.76059
G1 X111.52 Y19.913 E12.9131
G1 X115.49 Y19.921 E13.06561
G1 X115.937 Y19.962 E13.08285
G1 X116.369 Y20.081 E13.10007
G1 X116.773 Y20.275 E13.11728
G1 X117.137 Y20.538 E13.13454
G1 X117.448 Y20.861 E13.15176
G1 X117.697 Y21.234 E13.16899
G1 X117.876 Y21.646 E13.18625
G1 X117.979 Y22.082 E13.20346
G1 X118.018 Y24.422 E13.29336
G1 X117.981 Y24.869 E13.31059
G1 X117.865 Y25.302 E13.32781
G1 X117.675 Y25.708 E13.34503
G1 X117.415 Y26.074 E13.36228
G1 X117.008 Y26.447 E13.38349
G1 X117.448 Y26.863 E13.40675
G1 X117.698 Y27.236 E13.424
G1 X117.877 Y27.647 E13.44122
G1 X117.98 Y28.084 E13.45847
G1 X118.018 Y30.421 E13.54825
G1 X117.981 Y30.868 E13.56549
G1 X117.865 Y31.301 E13.58271
G1 X117.674 Y31.707 E13.59994
G1 X117.414 Y32.073 E13.61719
G1 X117.094 Y32.386 E13.63438
G1 X116.723 Y32.638 E13.65161
G1 X116.313 Y32.821 E13.66886
G1 X115.877 Y32.927 E13.6861
G1 X115.5 Y32.956 E13.70062
G1 X111.528 Y32.959 E13.85321
G1 X111.52 Y36.931 E14.0058
G1 X111.479 Y37.378 E14.02304
G1 X111.36 Y37.81 E14.04025
G1 X111.166 Y38.214 E14.05747
G1 X110.903 Y38.578 E14.07472
G1 X110.58 Y38.889 E14.09195
G1 X110.207 Y39.138 E14.10917
G1 X109.795 Y39.317 E14.12643
G1 X109.359 Y39.42 E14.14364
G1 X107.018 Y39.459 E14.23358
G1 X106.571 Y39.422 E14.25082
G1 X106.138 Y39.306 E14.26804
G1 X105.732 Y39.116 E14.28526
G1 X105.366 Y38.856 E14.3025
G1 X104.994 Y38.45 E14.32366
G1 X104.579 Y38.889 E14.34686
G1 X104.206 Y39.139 E14.36411
G1 X103.795 Y39.318 E14.38133
G1 X103.358 Y39.421 E14.39858
G1 X101.02 Y39.459 E14.48841
G1 X100.573 Y39.422 E14.50564
G1 X100.14 Y39.306 E14.52286
G1 X99.734 Y39.115 E14.5401
G1 X99.368 Y38.855 E14.55734
G1 X99.055 Y38.535 E14.57454
G1 X98.803 Y38.164 E14.59177
G1 X98.62 Y37.754 E14.60902
G1 X98.514 Y37.318 E14.62625
G1 X98.485 Y36.941 E14.64078
G1 X98.482 Y32.969 E14.79336
G1 X94.497 Y32.961 E14.94645
G1 X94.05 Y32.92 E14.96369
G1 X93.618 Y32.801 E14.98091
G1 X93.214 Y32.607 E14.99812
G1 X92.85 Y32.344 E15.01537
G1 X92.539 Y32.021 E15.0326
G1 X92.29 Y31.648 E15.04983
G1 X92.111 Y31.236 E15.06708
G1 X92.008 Y30.8 E15.08429
G1 X91.982 Y28.449 E15.17462
G1 X92.022 Y28.002 E15.19186
G1 X92.14 Y27.57 E15.20906
G1 X92.334 Y27.165 E15.22631
G1 X92.596 Y26.801 E15.24354
G1 X92.995 Y26.437 E15.26429
G1 X92.552 Y26.019 E15.28768
G1 X92.302 Y25.646 E15.30493
G1 X92.123 Y25.235 E15.32216
G1 X92.02 Y24.798 E15.3394
G1 X91.982 Y22.456 E15.42938
G1 X92.019 Y22.009 E15.44661
G1 X92.135 Y21.576 E15.46383
M204 S3000
M205 X10 Y10
G0 F1800 X92.58 Y22.059
M204 S1800
M205 X8 Y8
G1 F2400 X92.695 Y21.681 E15.47901
G1 X92.885 Y21.334 E15.49421
G1 X93.14 Y21.032 E15.50939
G1 X93.451 Y20.787 E15.5246
G1 X93.804 Y20.609 E15.53979
G1 X94.186 Y20.507 E15.55498
G1 X99.031 Y20.481 E15.74111
G1 X99.04 Y15.939 E15.91559
G1 X99.081 Y15.546 E15.93077
G1 X99.2 Y15.169 E15.94595
G1 X99.392 Y14.823 E15.96116
G1 X99.649 Y14.523 E15.97633
G1 X99.962 Y14.281 E15.99153
G1 X100.317 Y14.106 E16.00673
G1 X100.699 Y14.006 E16.0219
G1 X102.998 Y13.983 E16.11023
G1 X103.769 Y14.141 E16.14046
G1 X104.115 Y14.332 E16.15564
G1 X104.416 Y14.589 E16.17085
G1 X104.658 Y14.902 E16.18604
G1 X104.834 Y15.256 E16.20123
G1 X104.934 Y15.639 E16.21644
