;FLAVOR:Marlin
;TIME:9885
;Filament used: 6.37887m
;Layer height: 0.18
;MINX:55.324
;MINY:7.262
;MINZ:0.15
;MAXX:154.677
;MAXY:135.634
;MAXZ:14.265
;Generated with Cura_SteamEngine 4.5.0
M140 S60
M105
M190 S60
M104 S205
M105
M109 S205
M82 ;absolute extrusion mode
G21 ;metric values
G90 ;absolute positioning
M82 ;set extruder to absolute mode
M107 ;start with the fan off
G28 X0 Y0 ;move X/Y to min endstops
G28 Z0 ;move Z to min endstops
G1 Z15.0 F80 ;move the platform down 15mm
G92 E0 ;zero the extruded length
G1 F200 E3 ;extrude 3mm of feed stock
G92 E0 ;zero the extruded length again
G1 F80
G0 Y20 F80
M117 Printing...
G5
G92 E0
G92 E0
G1 F2400 E-6
;LAYER_COUNT:79
;LAYER:0
M106 S255
M204 S3000
M205 X10 Y10
G1 F600 Z0.225
G0 F1440 X55.591 Y14.213 Z0.225
M204 S1800
M205 X8 Y8
;TYPE:SKIRT
G1 F600 Z0.15
G1 F2400 E0
G1 X55.825 Y13.433 E0.03128
G1 X56.195 Y12.527 E0.06888
G1 X56.586 Y11.788 E0.101
G1 X57.133 Y10.966 E0.13893
G1 X57.652 Y10.332 E0.1704
G1 X58.337 Y9.643 E0.20772
G1 X58.973 Y9.117 E0.23943
G1 X59.789 Y8.569 E0.27719
G1 X60.511 Y8.181 E0.30868
G1 X61.413 Y7.804 E0.34623
G1 X62.204 Y7.562 E0.37801
G1 X63.168 Y7.368 E0.41578
G1 X63.98 Y7.285 E0.44714
G1 X64.955 Y7.281 E0.4846
G1 X65.779 Y7.359 E0.51639
G1 X66.744 Y7.548 E0.55417
G1 X67.527 Y7.783 E0.58557
G1 X68.434 Y8.154 E0.62322
G1 X69.167 Y8.542 E0.65508
G1 X69.982 Y9.083 E0.69266
G1 X70.62 Y9.604 E0.7243
G1 X71.314 Y10.294 E0.76189
G1 X71.84 Y10.93 E0.7936
G1 X72.39 Y11.749 E0.8315
G1 X137.607 Y11.757 E3.33684
G1 X138.126 Y10.975 E3.37289
G1 X138.647 Y10.337 E3.40454
G1 X139.337 Y9.643 E3.44213
G1 X139.973 Y9.117 E3.47384
G1 X140.789 Y8.569 E3.5116
G1 X141.512 Y8.18 E3.54314
G1 X142.417 Y7.802 E3.58081
G1 X143.014 Y7.604 E3.60497
G1 X143.516 Y7.478 E3.62486
G1 X144.128 Y7.372 E3.64872
G1 X145.075 Y7.279 E3.68527
G1 X145.654 Y7.262 E3.70752
G1 X147.532 Y7.511 E3.7803
G1 X148.099 Y7.633 E3.80258
G1 X149.443 Y8.159 E3.85802
G1 X150.167 Y8.543 E3.88951
G1 X150.979 Y9.081 E3.92693
G1 X151.62 Y9.604 E3.95871
G1 X152.314 Y10.294 E3.9963
G1 X152.84 Y10.93 E4.02801
G1 X153.39 Y11.749 E4.0659
G1 X153.78 Y12.476 E4.0976
G1 X154.155 Y13.376 E4.13505
G1 X154.395 Y14.162 E4.16662
G1 X154.589 Y15.125 E4.20436
G1 X154.672 Y15.932 E4.23553
G1 X154.677 Y16.902 E4.27279
G1 X154.599 Y17.732 E4.30481
G1 X154.409 Y18.701 E4.34275
G1 X154.175 Y19.482 E4.37407
G1 X153.804 Y20.39 E4.41175
G1 X153.415 Y21.124 E4.44366
G1 X152.874 Y21.939 E4.48124
G1 X152.353 Y22.577 E4.51288
G1 X151.663 Y23.271 E4.55048
G1 X151.027 Y23.797 E4.58218
G1 X150.211 Y24.345 E4.61994
G1 X150.2 Y118.565 E8.23945
G1 X150.979 Y119.081 E8.27534
G1 X151.622 Y119.606 E8.30723
G1 X152.312 Y120.293 E8.34464
G1 X152.832 Y120.922 E8.37599
G1 X153.386 Y121.744 E8.41407
G1 X153.78 Y122.476 E8.446
G1 X154.155 Y123.376 E8.48346
G1 X154.395 Y124.162 E8.51503
G1 X154.589 Y125.125 E8.55276
G1 X154.672 Y125.937 E8.58412
G1 X154.676 Y126.912 E8.62158
G1 X154.598 Y127.735 E8.65333
G1 X154.409 Y128.701 E8.69115
G1 X154.241 Y129.311 E8.71545
G1 X154.067 Y129.797 E8.73528
G1 X153.82 Y130.356 E8.75876
G1 X153.374 Y131.193 E8.79519
G1 X152.923 Y131.871 E8.82648
G1 X152.302 Y132.633 E8.86424
G1 X151.719 Y133.22 E8.89602
G1 X150.964 Y133.843 E8.93362
G1 X150.467 Y134.195 E8.95702
G1 X150.023 Y134.464 E8.97696
G1 X149.447 Y134.755 E9.00175
G1 X148.566 Y135.118 E9.03836
G1 X147.796 Y135.352 E9.06927
G1 X146.829 Y135.547 E9.10717
G1 X146.012 Y135.63 E9.13871
G1 X145.041 Y135.633 E9.17602
G1 X144.219 Y135.554 E9.20774
G1 X143.251 Y135.364 E9.24563
G1 X142.465 Y135.128 E9.27716
G1 X141.564 Y134.758 E9.31458
G1 X140.837 Y134.373 E9.34618
G1 X140.014 Y133.827 E9.38412
G1 X139.373 Y133.303 E9.41593
G1 X138.688 Y132.621 E9.45306
G1 X138.168 Y131.992 E9.48441
G1 X137.616 Y131.173 E9.52235
G1 X72.391 Y131.157 E12.028
G1 X71.87 Y131.943 E12.06423
G1 X71.348 Y132.582 E12.09592
G1 X70.663 Y133.271 E12.13325
G1 X70.027 Y133.797 E12.16495
G1 X69.211 Y134.345 E12.20271
G1 X68.489 Y134.733 E12.2342
G1 X67.587 Y135.11 E12.27175
G1 X66.796 Y135.352 E12.30353
G1 X65.832 Y135.546 E12.34131
G1 X65.025 Y135.629 E12.37247
G1 X64.053 Y135.634 E12.40981
G1 X63.226 Y135.556 E12.44172
G1 X62.263 Y135.368 E12.47941
G1 X61.471 Y135.13 E12.51118
G1 X60.559 Y134.755 E12.54906
G1 X59.834 Y134.371 E12.58058
G1 X59.014 Y133.827 E12.61838
G1 X58.375 Y133.305 E12.65008
G1 X57.686 Y132.62 E12.6874
G1 X57.16 Y131.984 E12.71911
G1 X56.612 Y131.168 E12.75687
G1 X56.224 Y130.446 E12.78836
G1 X55.847 Y129.544 E12.82591
G1 X55.605 Y128.753 E12.85769
G1 X55.411 Y127.789 E12.89546
G1 X55.328 Y126.977 E12.92682
G1 X55.324 Y126.002 E12.96427
G1 X55.401 Y125.182 E12.99591
G1 X55.588 Y124.222 E13.03349
G1 X55.825 Y123.431 E13.06521
G1 X56.198 Y122.522 E13.10295
G1 X56.584 Y121.794 E13.13461
G1 X57.13 Y120.971 E13.17255
G1 X57.654 Y120.33 E13.20435
G1 X58.339 Y119.642 E13.24165
G1 X58.969 Y119.122 E13.27303
G1 X59.787 Y118.571 E13.31092
G1 X59.8 Y24.348 E16.93054
G1 X59.014 Y23.827 E16.96676
G1 X58.373 Y23.303 E16.99857
G1 X57.688 Y22.621 E17.0357
G1 X57.168 Y21.992 E17.06705
G1 X56.616 Y21.173 E17.10499
G1 X56.224 Y20.446 E17.13672
G1 X55.847 Y19.544 E17.17428
G1 X55.605 Y18.753 E17.20606
G1 X55.411 Y17.789 E17.24383
G1 X55.328 Y16.977 E17.27519
G1 X55.324 Y16.002 E17.31264
G1 X55.402 Y15.177 E17.34448
G1 X55.591 Y14.213 E17.38221
M204 S3000
M205 X10 Y10
G0 F1440 X56.141 Y14.321
M204 S1800
M205 X8 Y8
G1 F2400 X56.343 Y13.645 E17.40932
G1 X56.713 Y12.739 E17.44691
G1 X57.053 Y12.098 E17.47479
G1 X57.6 Y11.276 E17.51272
G1 X58.049 Y10.727 E17.53996
G1 X58.734 Y10.038 E17.57728
G1 X59.286 Y9.582 E17.60479
G1 X60.102 Y9.034 E17.64255
G1 X60.727 Y8.698 E17.66981
G1 X61.629 Y8.321 E17.70736
G1 X62.315 Y8.111 E17.73492
G1 X63.279 Y7.917 E17.7727
G1 X63.982 Y7.845 E17.79985
G1 X64.957 Y7.841 E17.8373
G1 X65.672 Y7.909 E17.86489
G1 X66.637 Y8.098 E17.90267
G1 X67.315 Y8.301 E17.92986
G1 X68.222 Y8.672 E17.9675
G1 X68.857 Y9.008 E17.9951
G1 X69.672 Y9.549 E18.03268
G1 X70.225 Y10.001 E18.06012
G1 X70.919 Y10.691 E18.09771
G1 X71.375 Y11.243 E18.12522
G1 X71.925 Y12.062 E18.16311
G1 X72.062 Y12.317 E18.17423
G1 X137.936 Y12.317 E20.70481
G1 X138.592 Y11.285 E20.75179
G1 X139.044 Y10.732 E20.77923
G1 X139.734 Y10.038 E20.81682
G1 X140.286 Y9.582 E20.84433
G1 X141.102 Y9.034 E20.88209
G1 X141.728 Y8.697 E20.9094
G1 X142.633 Y8.319 E20.94707
G1 X143.15 Y8.148 E20.96799
G1 X143.652 Y8.022 E20.98788
G1 X144.182 Y7.929 E21.00855
G1 X145.129 Y7.836 E21.0451
G1 X145.668 Y7.824 E21.06581
G1 X147.452 Y8.065 E21.13497
G1 X147.979 Y8.182 E21.15571
G1 X149.231 Y8.677 E21.20743
G1 X149.857 Y9.01 E21.23466
G1 X150.669 Y9.548 E21.27208
G1 X151.225 Y10.001 E21.29963
G1 X151.919 Y10.691 E21.33723
G1 X152.375 Y11.243 E21.36473
G1 X152.925 Y12.062 E21.40263
G1 X153.263 Y12.691 E21.43006
G1 X153.638 Y13.591 E21.46752
G1 X153.846 Y14.272 E21.49487
G1 X154.04 Y15.235 E21.53261
G1 X154.112 Y15.935 E21.55964
G1 X154.117 Y16.905 E21.59691
G1 X154.049 Y17.624 E21.62465
G1 X153.859 Y18.593 E21.66258
G1 X153.657 Y19.27 E21.68972
G1 X153.286 Y20.178 E21.7274
G1 X152.949 Y20.814 E21.75505
G1 X152.408 Y21.629 E21.79263
G1 X151.956 Y22.182 E21.82007
G1 X151.266 Y22.876 E21.85766
G1 X150.714 Y23.332 E21.88517
G1 X149.898 Y23.88 E21.92293
G1 X149.64 Y24.019 E21.93419
G1 X149.64 Y118.894 E25.57885
G1 X150.67 Y119.548 E25.62572
G1 X151.227 Y120.003 E25.65335
G1 X151.917 Y120.69 E25.69076
G1 X152.367 Y121.235 E25.71791
G1 X152.921 Y122.057 E25.75599
G1 X153.263 Y122.691 E25.78366
G1 X153.638 Y123.591 E25.82112
G1 X153.846 Y124.272 E25.84847
G1 X154.04 Y125.235 E25.88621
G1 X154.112 Y125.939 E25.91339
G1 X154.116 Y126.914 E25.95085
G1 X154.048 Y127.628 E25.9784
G1 X153.859 Y128.594 E26.01621
G1 X153.714 Y129.122 E26.03725
G1 X153.54 Y129.608 E26.05708
G1 X153.325 Y130.093 E26.07746
G1 X152.879 Y130.93 E26.11389
G1 X152.489 Y131.518 E26.141
G1 X151.868 Y132.28 E26.17876
G1 X151.363 Y132.788 E26.20628
G1 X150.608 Y133.411 E26.24388
G1 X150.177 Y133.716 E26.26416
G1 X149.733 Y133.985 E26.28411
G1 X149.234 Y134.238 E26.3056
G1 X148.353 Y134.601 E26.3422
G1 X147.686 Y134.803 E26.36898
G1 X146.719 Y134.998 E26.40687
G1 X146.01 Y135.07 E26.43425
G1 X145.039 Y135.073 E26.47155
G1 X144.327 Y135.005 E26.49903
G1 X143.359 Y134.815 E26.53692
G1 X142.677 Y134.61 E26.56428
G1 X141.776 Y134.24 E26.6017
G1 X141.147 Y133.906 E26.62906
G1 X140.324 Y133.36 E26.667
G1 X139.768 Y132.907 E26.69455
G1 X139.083 Y132.225 E26.73168
G1 X138.633 Y131.679 E26.75886
G1 X138.081 Y130.86 E26.7968
G1 X137.939 Y130.597 E26.80828
G1 X72.062 Y130.597 E29.33898
G1 X71.403 Y131.633 E29.38615
G1 X70.951 Y132.187 E29.41361
G1 X70.266 Y132.876 E29.45094
G1 X69.714 Y133.332 E29.47844
G1 X68.898 Y133.88 E29.5162
G1 X68.273 Y134.216 E29.54346
G1 X67.371 Y134.593 E29.58102
G1 X66.685 Y134.803 E29.60858
G1 X65.721 Y134.997 E29.64635
G1 X65.022 Y135.069 E29.67335
G1 X64.05 Y135.074 E29.71069
G1 X63.334 Y135.007 E29.73831
G1 X62.371 Y134.819 E29.776
G1 X61.684 Y134.613 E29.80356
G1 X60.772 Y134.238 E29.84144
G1 X60.144 Y133.904 E29.86876
G1 X59.324 Y133.36 E29.90656
G1 X58.77 Y132.908 E29.93403
G1 X58.081 Y132.223 E29.97135
G1 X57.625 Y131.671 E29.99886
G1 X57.077 Y130.855 E30.03662
G1 X56.741 Y130.23 E30.06388
G1 X56.364 Y129.328 E30.10143
G1 X56.154 Y128.642 E30.12899
G1 X55.96 Y127.678 E30.16677
G1 X55.888 Y126.975 E30.19392
G1 X55.884 Y126 E30.23137
G1 X55.951 Y125.289 E30.25881
G1 X56.138 Y124.329 E30.29638
G1 X56.343 Y123.643 E30.32388
G1 X56.716 Y122.734 E30.36163
G1 X57.051 Y122.104 E30.38904
G1 X57.597 Y121.281 E30.42698
G1 X58.051 Y120.725 E30.45456
G1 X58.736 Y120.037 E30.49185
G1 X59.281 Y119.586 E30.51903
G1 X60.099 Y119.035 E30.55691
G1 X60.36 Y118.895 E30.56829
G1 X60.36 Y24.019 E34.213
G1 X59.324 Y23.36 E34.26016
G1 X58.768 Y22.907 E34.28772
G1 X58.083 Y22.225 E34.32485
G1 X57.633 Y21.679 E34.35203
G1 X57.081 Y20.86 E34.38997
G1 X56.741 Y20.23 E34.41747
G1 X56.364 Y19.328 E34.45503
G1 X56.154 Y18.642 E34.48259
G1 X55.96 Y17.678 E34.52036
G1 X55.888 Y16.975 E34.54751
G1 X55.884 Y16 E34.58497
G1 X55.952 Y15.285 E34.61256
G1 X56.141 Y14.321 E34.65029
M204 S3000
M205 X10 Y10
G0 F1440 X56.691 Y14.428
M204 S1800
M205 X8 Y8
G1 F2400 X56.862 Y13.857 E34.67319
G1 X57.232 Y12.951 E34.71079
G1 X57.519 Y12.409 E34.73435
G1 X58.066 Y11.587 E34.77228
G1 X58.446 Y11.121 E34.79538
G1 X59.131 Y10.432 E34.8327
G1 X59.598 Y10.047 E34.85595
G1 X60.414 Y9.499 E34.89371
G1 X60.943 Y9.214 E34.91679
G1 X61.845 Y8.837 E34.95435
G1 X62.425 Y8.66 E34.97764
G1 X63.389 Y8.466 E35.01542
G1 X63.984 Y8.405 E35.0384
G1 X64.959 Y8.401 E35.07585
G1 X65.564 Y8.458 E35.0992
G1 X66.529 Y8.647 E35.13697
G1 X67.103 Y8.819 E35.15999
G1 X68.01 Y9.19 E35.19763
G1 X68.547 Y9.475 E35.22099
G1 X69.362 Y10.016 E35.25857
G1 X69.831 Y10.398 E35.2818
G1 X70.525 Y11.088 E35.3194
G1 X70.91 Y11.555 E35.34265
G1 X71.46 Y12.374 E35.38055
G1 X71.73 Y12.877 E35.40248
G1 X138.27 Y12.877 E37.95864
G1 X138.518 Y12.41 E37.97896
G1 X139.059 Y11.595 E38.01653
G1 X139.441 Y11.126 E38.03977
G1 X140.131 Y10.432 E38.07737
G1 X140.598 Y10.047 E38.10062
G1 X141.414 Y9.499 E38.13838
G1 X141.944 Y9.214 E38.16149
G1 X142.849 Y8.836 E38.19917
G1 X143.788 Y8.565 E38.23672
G1 X145.184 Y8.394 E38.29074
G1 X145.925 Y8.411 E38.31922
G1 X147.372 Y8.62 E38.37538
G1 X148.103 Y8.819 E38.40449
G1 X149.018 Y9.195 E38.44249
G1 X149.548 Y9.476 E38.46553
G1 X150.36 Y10.014 E38.50295
G1 X150.831 Y10.398 E38.5263
G1 X151.525 Y11.088 E38.56389
G1 X151.91 Y11.555 E38.58714
G1 X152.46 Y12.374 E38.62504
G1 X152.746 Y12.906 E38.64824
G1 X153.121 Y13.806 E38.6857
G1 X153.297 Y14.383 E38.70887
G1 X153.491 Y15.346 E38.74661
G1 X153.552 Y15.938 E38.76947
G1 X153.557 Y16.908 E38.80673
G1 X153.499 Y17.517 E38.83024
G1 X153.309 Y18.486 E38.86817
G1 X153.138 Y19.058 E38.8911
G1 X152.767 Y19.966 E38.92878
G1 X152.482 Y20.504 E38.95217
G1 X151.941 Y21.319 E38.98975
G1 X151.559 Y21.788 E39.01299
G1 X150.869 Y22.482 E39.05058
G1 X150.402 Y22.867 E39.07383
G1 X149.586 Y23.415 E39.11159
G1 X149.08 Y23.687 E39.13366
G1 X149.08 Y119.228 E42.80391
G1 X149.545 Y119.474 E42.82412
G1 X150.36 Y120.014 E42.86168
G1 X150.832 Y120.399 E42.88508
G1 X151.522 Y121.086 E42.92248
G1 X151.903 Y121.548 E42.94549
G1 X152.457 Y122.37 E42.98357
G1 X152.746 Y122.906 E43.00696
G1 X153.121 Y123.806 E43.04442
G1 X153.297 Y124.383 E43.06759
G1 X153.491 Y125.346 E43.10533
G1 X153.552 Y125.941 E43.1283
G1 X153.556 Y126.916 E43.16576
G1 X153.499 Y127.52 E43.18907
G1 X153.31 Y128.486 E43.22688
G1 X153.013 Y129.419 E43.26449
G1 X152.385 Y130.666 E43.31813
G1 X152.055 Y131.164 E43.34108
G1 X151.434 Y131.926 E43.37884
G1 X151.006 Y132.356 E43.40215
G1 X150.251 Y132.979 E43.43975
G1 X149.443 Y133.506 E43.47681
G1 X148.139 Y134.083 E43.53159
G1 X147.575 Y134.254 E43.55423
G1 X146.608 Y134.449 E43.59212
G1 X146.009 Y134.51 E43.61525
G1 X145.038 Y134.513 E43.65255
G1 X144.435 Y134.455 E43.67583
G1 X143.467 Y134.265 E43.71372
G1 X142.89 Y134.092 E43.73686
G1 X141.989 Y133.722 E43.77428
G1 X141.456 Y133.44 E43.79744
G1 X140.633 Y132.894 E43.83538
G1 X140.163 Y132.51 E43.8587
G1 X139.478 Y131.828 E43.89583
G1 X139.097 Y131.366 E43.91884
G1 X138.545 Y130.547 E43.95678
G1 X138.269 Y130.037 E43.97906
G1 X71.728 Y130.037 E46.53526
G1 X71.483 Y130.501 E46.55542
G1 X70.937 Y131.324 E46.59336
G1 X70.554 Y131.793 E46.61662
G1 X69.869 Y132.482 E46.65394
G1 X69.402 Y132.867 E46.67719
G1 X68.586 Y133.415 E46.71495
G1 X68.057 Y133.7 E46.73803
G1 X67.155 Y134.077 E46.77559
G1 X66.575 Y134.254 E46.79889
G1 X65.611 Y134.448 E46.83666
G1 X65.019 Y134.509 E46.85952
G1 X64.047 Y134.514 E46.89686
G1 X63.441 Y134.457 E46.92025
G1 X62.478 Y134.269 E46.95794
G1 X61.897 Y134.095 E46.98124
G1 X60.985 Y133.72 E47.01912
G1 X60.453 Y133.438 E47.04225
G1 X59.633 Y132.894 E47.08005
G1 X59.164 Y132.511 E47.10331
G1 X58.475 Y131.826 E47.14064
G1 X58.09 Y131.359 E47.16389
G1 X57.542 Y130.543 E47.20165
G1 X57.257 Y130.014 E47.22473
G1 X56.88 Y129.112 E47.26228
G1 X56.703 Y128.532 E47.28558
G1 X56.509 Y127.568 E47.32335
G1 X56.448 Y126.973 E47.34633
G1 X56.444 Y125.998 E47.38379
G1 X56.501 Y125.396 E47.40702
G1 X56.688 Y124.436 E47.44459
G1 X56.862 Y123.856 E47.46785
G1 X57.235 Y122.947 E47.5056
G1 X57.517 Y122.413 E47.52879
G1 X58.063 Y121.59 E47.56674
G1 X58.447 Y121.12 E47.59005
G1 X59.132 Y120.432 E47.62735
G1 X59.594 Y120.05 E47.65038
G1 X60.412 Y119.499 E47.68826
G1 X60.92 Y119.226 E47.71042
G1 X60.92 Y23.686 E51.38063
G1 X60.456 Y23.44 E51.40081
G1 X59.633 Y22.894 E51.43875
G1 X59.163 Y22.51 E51.46206
G1 X58.478 Y21.828 E51.4992
G1 X58.097 Y21.366 E51.5222
G1 X57.545 Y20.547 E51.56014
G1 X57.257 Y20.014 E51.58341
G1 X56.88 Y19.112 E51.62097
G1 X56.703 Y18.532 E51.64427
G1 X56.509 Y17.568 E51.68204
G1 X56.448 Y16.973 E51.70502
G1 X56.444 Y15.998 E51.74247
G1 X56.502 Y15.392 E51.76586
G1 X56.691 Y14.428 E51.8036
M204 S3000
M205 X10 Y10
G0 F1440 X57.24 Y14.536
M204 S1800
M205 X8 Y8
G1 F2400 X57.38 Y14.068 E51.82236
G1 X57.75 Y13.162 E51.85996
G1 X57.985 Y12.719 E51.87922
G1 X58.532 Y11.897 E51.91715
G1 X58.843 Y11.516 E51.93604
G1 X59.528 Y10.827 E51.97337
G1 X59.91 Y10.512 E51.99239
G1 X60.726 Y9.964 E52.03015
G1 X61.159 Y9.731 E52.04904
G1 X62.061 Y9.354 E52.08659
G1 X62.536 Y9.209 E52.10567
G1 X63.5 Y9.015 E52.14345
G1 X63.987 Y8.965 E52.16225
G1 X64.962 Y8.961 E52.19971
G1 X65.456 Y9.008 E52.21877
G1 X66.421 Y9.197 E52.25655
G1 X66.891 Y9.338 E52.2754
G1 X67.798 Y9.709 E52.31304
G1 X68.238 Y9.941 E52.33215
G1 X69.053 Y10.482 E52.36973
G1 X69.436 Y10.795 E52.38873
G1 X70.13 Y11.485 E52.42633
G1 X70.445 Y11.867 E52.44535
G1 X70.995 Y12.686 E52.48324
G1 X71.36 Y13.437 E52.51532
G1 X138.638 Y13.437 E55.09984
G1 X138.984 Y12.719 E55.13045
G1 X139.525 Y11.904 E55.16803
G1 X139.838 Y11.521 E55.18703
G1 X140.528 Y10.827 E55.22463
G1 X140.91 Y10.512 E55.24365
G1 X141.726 Y9.964 E55.28141
G1 X142.16 Y9.731 E55.30033
G1 X143.065 Y9.353 E55.33801
G1 X143.925 Y9.108 E55.37236
G1 X145.239 Y8.951 E55.4232
G1 X145.845 Y8.965 E55.44648
G1 X147.292 Y9.174 E55.50265
G1 X147.89 Y9.337 E55.52646
G1 X148.805 Y9.713 E55.56446
G1 X149.239 Y9.943 E55.58333
G1 X150.051 Y10.481 E55.62075
G1 X150.436 Y10.795 E55.63983
