;FLAVOR:Marlin
;TIME:10873
;Filament used: 7.15442m
;Layer height: 0.16
;MINX:54.806
;MINY:13.184
;MINZ:0.15
;MAXX:155.194
;MAXY:147.574
;MAXZ:5.505
;Generated with Cura_SteamEngine 4.5.0
M140 S60
M105
M190 S60
M104 S200
M105
M109 S200
M82 ;absolute extrusion mode
G21 ;metric values
G90 ;absolute positioning
M82 ;set extruder to absolute mode
M107 ;start with the fan off
G28 X0 Y0 ;move X/Y to min endstops
G28 Z0 ;move Z to min endstops
G1 Z15.0 F100 ;move the platform down 15mm
G92 E0 ;zero the extruded length
G1 F200 E3 ;extrude 3mm of feed stock
G92 E0 ;zero the extruded length again
G1 F100
G0 Y20 F100
M117 Printing...
G5
G92 E0
G92 E0
G1 F2400 E-6
;LAYER_COUNT:34
;LAYER:0
M106 S255
M204 S3000
M205 X10 Y10
G1 F600 Z0.225
G0 F1800 X55.504 Y19.666 Z0.225
M204 S1800
M205 X8 Y8
;TYPE:SKIRT
G1 F600 Z0.15
G1 F2400 E0
G1 X55.908 Y18.762 E0.03804
G1 X56.407 Y17.888 E0.0767
G1 X56.99 Y17.069 E0.11532
G1 X57.64 Y16.321 E0.15339
G1 X58.368 Y15.633 E0.19187
G1 X59.156 Y15.024 E0.23012
G1 X59.997 Y14.494 E0.26831
G1 X60.9 Y14.044 E0.30707
G1 X61.826 Y13.69 E0.34515
G1 X62.789 Y13.425 E0.38352
G1 X63.786 Y13.256 E0.42237
G1 X64.777 Y13.185 E0.46054
G1 X65.771 Y13.211 E0.49874
G1 X66.767 Y13.336 E0.5373
G1 X67.749 Y13.559 E0.57598
G1 X68.697 Y13.875 E0.61437
G1 X69.612 Y14.285 E0.65289
G1 X70.478 Y14.778 E0.69117
G1 X71.29 Y15.353 E0.72939
G1 X72.055 Y16.016 E0.76828
G1 X72.747 Y16.75 E0.80703
G1 X73.355 Y17.534 E0.84514
G1 X73.493 Y17.74 E0.85467
G1 X136.505 Y17.741 E3.2753
G1 X136.99 Y17.069 E3.30714
G1 X137.64 Y16.321 E3.34521
G1 X138.377 Y15.626 E3.38412
G1 X139.159 Y15.021 E3.42211
G1 X139.997 Y14.494 E3.46013
G1 X140.9 Y14.044 E3.49889
G1 X141.826 Y13.69 E3.53698
G1 X142.789 Y13.425 E3.57535
G1 X143.786 Y13.256 E3.61419
G1 X144.777 Y13.185 E3.65236
G1 X145.184 Y13.184 E3.66799
G1 X145.771 Y13.211 E3.69057
G1 X146.767 Y13.336 E3.72913
G1 X147.749 Y13.559 E3.76781
G1 X148.697 Y13.875 E3.8062
G1 X149.612 Y14.285 E3.84472
G1 X150.478 Y14.778 E3.883
G1 X151.29 Y15.353 E3.92122
G1 X152.055 Y16.016 E3.96011
G1 X152.74 Y16.741 E3.99843
G1 X153.352 Y17.531 E4.03682
G1 X153.885 Y18.377 E4.07523
G1 X154.335 Y19.279 E4.11395
G1 X154.689 Y20.205 E4.15204
G1 X154.954 Y21.168 E4.19041
G1 X155.123 Y22.161 E4.2291
G1 X155.194 Y23.16 E4.26757
G1 X155.166 Y24.173 E4.3065
G1 X155.043 Y25.148 E4.34426
G1 X154.82 Y26.128 E4.38287
G1 X154.496 Y27.092 E4.42193
G1 X154.092 Y27.996 E4.45997
G1 X153.598 Y28.861 E4.49824
G1 X153.026 Y29.669 E4.53627
G1 X152.358 Y30.44 E4.57546
G1 X151.623 Y31.132 E4.61424
G1 X150.865 Y31.719 E4.65107
G1 X150.866 Y41.961 E5.04452
G1 X150.866 Y117.486 E7.94585
G1 X150.865 Y129.04 E8.3897
G1 X151.29 Y129.353 E8.40997
G1 X152.055 Y130.016 E8.44886
G1 X152.74 Y130.741 E8.48718
G1 X153.352 Y131.531 E8.52557
G1 X153.885 Y132.377 E8.56398
G1 X154.335 Y133.279 E8.6027
G1 X154.689 Y134.205 E8.64079
G1 X154.954 Y135.168 E8.67916
G1 X155.123 Y136.161 E8.71785
G1 X155.194 Y137.155 E8.75613
G1 X155.168 Y138.15 E8.79437
G1 X155.043 Y139.146 E8.83293
G1 X154.82 Y140.128 E8.87162
G1 X154.505 Y141.072 E8.90985
G1 X154.094 Y141.991 E8.94852
G1 X153.601 Y142.857 E8.9868
G1 X153.026 Y143.669 E9.02502
G1 X152.363 Y144.434 E9.06391
G1 X151.638 Y145.119 E9.10223
G1 X150.844 Y145.734 E9.14081
G1 X149.996 Y146.268 E9.17931
G1 X149.086 Y146.721 E9.21836
G1 X148.163 Y147.073 E9.25631
G1 X147.196 Y147.337 E9.29481
G1 X146.198 Y147.505 E9.33369
G1 X145.207 Y147.574 E9.37185
G1 X144.219 Y147.546 E9.40982
G1 X143.219 Y147.42 E9.44854
G1 X142.235 Y147.194 E9.48733
G1 X141.281 Y146.873 E9.52599
G1 X140.383 Y146.471 E9.56379
G1 X139.509 Y145.972 E9.60245
G1 X138.688 Y145.387 E9.64118
G1 X137.94 Y144.737 E9.67925
G1 X137.253 Y144.009 E9.7177
G1 X136.641 Y143.219 E9.75609
G1 X136.542 Y143.072 E9.7629
G1 X73.458 Y143.071 E12.1863
G1 X73.026 Y143.669 E12.21464
G1 X72.363 Y144.434 E12.25353
G1 X71.629 Y145.126 E12.29228
G1 X70.837 Y145.74 E12.33078
G1 X69.987 Y146.274 E12.36934
G1 X69.086 Y146.721 E12.40798
G1 X68.163 Y147.073 E12.44592
G1 X67.2 Y147.336 E12.48427
G1 X66.209 Y147.504 E12.52289
G1 X65.207 Y147.574 E12.56147
G1 X64.219 Y147.546 E12.59944
G1 X63.219 Y147.42 E12.63816
G1 X62.235 Y147.194 E12.67695
G1 X61.281 Y146.873 E12.71561
G1 X60.392 Y146.476 E12.75302
G1 X59.513 Y145.974 E12.7919
G1 X58.688 Y145.387 E12.8308
G1 X57.945 Y144.742 E12.8686
G1 X57.251 Y144.007 E12.90743
G1 X56.638 Y143.215 E12.9459
G1 X56.105 Y142.366 E12.98441
G1 X55.657 Y141.463 E13.02314
G1 X55.305 Y140.54 E13.06108
G1 X55.043 Y139.579 E13.09935
G1 X54.875 Y138.588 E13.13796
G1 X54.806 Y137.593 E13.17628
G1 X54.834 Y136.595 E13.21463
G1 X54.957 Y135.61 E13.25276
G1 X55.184 Y134.616 E13.29193
G1 X55.504 Y133.664 E13.33051
G1 X55.904 Y132.771 E13.3681
G1 X56.399 Y131.901 E13.40656
G1 X56.987 Y131.073 E13.44557
G1 X57.64 Y130.321 E13.48383
G1 X58.377 Y129.626 E13.52274
G1 X59.096 Y129.068 E13.55771
G1 X59.096 Y42.285 E16.89151
G1 X59.097 Y31.691 E17.29849
G1 X58.688 Y31.387 E17.31806
G1 X57.945 Y30.742 E17.35586
G1 X57.251 Y30.007 E17.39469
G1 X56.641 Y29.218 E17.43301
G1 X56.115 Y28.382 E17.47095
G1 X55.665 Y27.479 E17.50971
G1 X55.308 Y26.549 E17.54798
G1 X55.042 Y25.575 E17.58676
G1 X54.875 Y24.581 E17.62548
G1 X54.806 Y23.599 E17.6633
G1 X54.834 Y22.585 E17.70227
G1 X54.957 Y21.61 E17.74002
G1 X55.18 Y20.63 E17.77863
G1 X55.504 Y19.666 E17.8177
M204 S3000
M205 X10 Y10
G0 F1800 X56.031 Y19.855
M204 S1800
M205 X8 Y8
G1 F2400 X56.415 Y19 E17.8537
G1 X56.888 Y18.176 E17.8902
G1 X57.44 Y17.403 E17.92669
G1 X58.055 Y16.696 E17.96269
G1 X58.744 Y16.049 E17.999
G1 X59.49 Y15.473 E18.0352
G1 X60.286 Y14.974 E18.07129
G1 X61.139 Y14.55 E18.10789
G1 X62.016 Y14.217 E18.14393
G1 X62.926 Y13.968 E18.18017
G1 X63.869 Y13.81 E18.2169
G1 X64.805 Y13.745 E18.25294
G1 X65.745 Y13.771 E18.28907
G1 X66.686 Y13.89 E18.3255
G1 X67.613 Y14.102 E18.36203
G1 X68.509 Y14.403 E18.39834
G1 X69.373 Y14.791 E18.43473
G1 X70.19 Y15.259 E18.4709
G1 X70.958 Y15.804 E18.50708
G1 X71.679 Y16.431 E18.54378
G1 X72.333 Y17.126 E18.58044
G1 X72.906 Y17.868 E18.61646
G1 X73.186 Y18.3 E18.63623
G1 X136.522 Y18.301 E21.06931
G1 X136.813 Y18.301 E21.08049
G1 X137.088 Y17.877 E21.09991
G1 X137.44 Y17.403 E21.12259
G1 X138.055 Y16.696 E21.15859
G1 X138.752 Y16.042 E21.1953
G1 X139.493 Y15.471 E21.23124
G1 X140.286 Y14.974 E21.26719
G1 X141.139 Y14.55 E21.30378
G1 X142.016 Y14.217 E21.33982
G1 X142.926 Y13.968 E21.37607
G1 X143.869 Y13.81 E21.4128
G1 X144.805 Y13.745 E21.44884
G1 X145.745 Y13.771 E21.48496
G1 X146.686 Y13.89 E21.5214
G1 X147.613 Y14.102 E21.55793
G1 X148.509 Y14.403 E21.59424
G1 X149.373 Y14.791 E21.63063
G1 X150.19 Y15.259 E21.6668
G1 X150.958 Y15.804 E21.70297
G1 X151.679 Y16.431 E21.73968
G1 X152.326 Y17.118 E21.77593
G1 X152.903 Y17.865 E21.81219
G1 X153.406 Y18.666 E21.84853
G1 X153.829 Y19.518 E21.88507
G1 X154.162 Y20.395 E21.92111
G1 X154.411 Y21.305 E21.95735
G1 X154.569 Y22.244 E21.99393
G1 X154.635 Y23.189 E22.03032
G1 X154.607 Y24.145 E22.06706
G1 X154.489 Y25.067 E22.10277
G1 X154.277 Y25.992 E22.13922
G1 X153.969 Y26.903 E22.17617
G1 X153.585 Y27.758 E22.21217
G1 X153.118 Y28.573 E22.24826
G1 X152.575 Y29.337 E22.28426
G1 X151.943 Y30.064 E22.32127
G1 X151.248 Y30.716 E22.35788
G1 X150.503 Y31.291 E22.39403
G1 X150.305 Y31.423 E22.40317
G1 X150.306 Y41.961 E22.80799
G1 X150.306 Y117.486 E25.70932
G1 X150.305 Y129.336 E26.16454
G1 X150.958 Y129.804 E26.19541
G1 X151.679 Y130.431 E26.23211
G1 X152.326 Y131.118 E26.26836
G1 X152.903 Y131.865 E26.30462
G1 X153.406 Y132.666 E26.34096
G1 X153.829 Y133.518 E26.3775
G1 X154.162 Y134.395 E26.41354
G1 X154.411 Y135.305 E26.44978
G1 X154.569 Y136.244 E26.48636
G1 X154.634 Y137.184 E26.52256
G1 X154.608 Y138.124 E26.55868
G1 X154.489 Y139.065 E26.59512
G1 X154.277 Y139.992 E26.63165
G1 X153.978 Y140.885 E26.66783
G1 X153.588 Y141.752 E26.70435
G1 X153.12 Y142.569 E26.74052
G1 X152.575 Y143.337 E26.77669
G1 X151.948 Y144.058 E26.8134
G1 X151.261 Y144.705 E26.84965
G1 X150.51 Y145.285 E26.8861
G1 X149.707 Y145.788 E26.9225
G1 X148.847 Y146.214 E26.95937
G1 X147.973 Y146.546 E26.99529
G1 X147.059 Y146.794 E27.03167
G1 X146.116 Y146.951 E27.06839
G1 X145.18 Y147.015 E27.10444
G1 X144.246 Y146.987 E27.14033
G1 X143.3 Y146.866 E27.17697
G1 X142.372 Y146.651 E27.21356
G1 X141.471 Y146.346 E27.2501
G1 X140.622 Y145.964 E27.28587
G1 X139.797 Y145.491 E27.3224
G1 X139.022 Y144.938 E27.35897
G1 X138.315 Y144.321 E27.39502
G1 X137.668 Y143.634 E27.43128
G1 X137.09 Y142.884 E27.46765
G1 X136.846 Y142.512 E27.48474
G1 X73.454 Y142.511 E29.91997
G1 X73.155 Y142.511 E29.93146
G1 X72.575 Y143.337 E29.97023
G1 X71.948 Y144.058 E30.00694
G1 X71.253 Y144.712 E30.0436
G1 X70.503 Y145.291 E30.08
G1 X69.699 Y145.793 E30.11641
G1 X68.847 Y146.214 E30.15292
G1 X67.973 Y146.546 E30.18883
G1 X67.064 Y146.792 E30.22501
G1 X66.126 Y146.95 E30.26155
G1 X65.18 Y147.015 E30.29798
G1 X64.246 Y146.987 E30.33387
G1 X63.3 Y146.866 E30.37051
G1 X62.372 Y146.651 E30.4071
G1 X61.471 Y146.346 E30.44364
G1 X60.631 Y145.969 E30.47901
G1 X59.801 Y145.494 E30.51575
G1 X59.022 Y144.938 E30.55252
G1 X58.321 Y144.326 E30.58827
G1 X57.666 Y143.631 E30.62495
G1 X57.088 Y142.881 E30.66133
G1 X56.586 Y142.078 E30.69771
G1 X56.164 Y141.225 E30.73427
G1 X55.832 Y140.351 E30.77018
G1 X55.587 Y139.443 E30.80631
G1 X55.429 Y138.505 E30.84285
G1 X55.365 Y137.565 E30.87905
G1 X55.393 Y136.621 E30.91533
G1 X55.511 Y135.691 E30.95134
G1 X55.727 Y134.752 E30.98835
G1 X56.031 Y133.853 E31.02481
G1 X56.41 Y133.009 E31.06035
G1 X56.88 Y132.189 E31.09666
G1 X57.437 Y131.407 E31.13354
G1 X58.055 Y130.696 E31.16973
G1 X58.752 Y130.042 E31.20645
G1 X59.493 Y129.471 E31.24239
G1 X59.656 Y129.362 E31.24992
G1 X59.656 Y42.285 E34.59502
G1 X59.657 Y31.398 E35.01325
G1 X59.022 Y30.938 E35.04337
G1 X58.321 Y30.326 E35.07912
G1 X57.666 Y29.631 E35.11581
G1 X57.091 Y28.885 E35.15199
G1 X56.595 Y28.093 E35.18789
G1 X56.171 Y27.24 E35.22448
G1 X55.835 Y26.358 E35.26074
G1 X55.585 Y25.438 E35.29736
G1 X55.429 Y24.5 E35.33389
G1 X55.365 Y23.569 E35.36974
G1 X55.393 Y22.613 E35.40648
G1 X55.511 Y21.691 E35.44219
G1 X55.723 Y20.766 E35.47865
G1 X56.031 Y19.855 E35.51559
M204 S3000
M205 X10 Y10
G0 F1800 X56.558 Y20.044
M204 S1800
M205 X8 Y8
G1 F2400 X56.922 Y19.239 E35.54953
G1 X57.368 Y18.464 E35.58388
G1 X57.889 Y17.737 E35.61824
G1 X58.471 Y17.072 E35.65218
G1 X59.12 Y16.464 E35.68635
G1 X59.824 Y15.923 E35.72046
G1 X60.575 Y15.454 E35.75447
G1 X61.379 Y15.056 E35.78893
G1 X62.206 Y14.743 E35.8229
G1 X63.063 Y14.511 E35.85701
G1 X63.951 Y14.364 E35.89159
G1 X64.834 Y14.304 E35.92558
G1 X65.72 Y14.33 E35.95964
G1 X66.606 Y14.444 E35.99395
G1 X67.478 Y14.646 E36.02834
G1 X68.321 Y14.93 E36.06251
G1 X69.134 Y15.297 E36.09678
G1 X69.903 Y15.74 E36.13087
G1 X70.626 Y16.254 E36.16495
G1 X71.303 Y16.846 E36.1995
G1 X71.918 Y17.502 E36.23404
G1 X72.456 Y18.202 E36.26795
G1 X72.869 Y18.86 E36.2978
G1 X137.13 Y18.861 E38.76641
G1 X137.537 Y18.211 E38.79587
G1 X137.889 Y17.737 E38.81856
G1 X138.471 Y17.072 E38.8525
G1 X139.128 Y16.457 E38.88707
G1 X139.827 Y15.921 E38.92091
G1 X140.575 Y15.454 E38.95479
G1 X141.379 Y15.056 E38.98925
G1 X142.206 Y14.743 E39.02322
G1 X143.063 Y14.511 E39.05733
G1 X143.951 Y14.364 E39.0919
G1 X144.834 Y14.304 E39.1259
G1 X145.72 Y14.33 E39.15995
G1 X146.606 Y14.444 E39.19427
G1 X147.478 Y14.646 E39.22866
G1 X148.321 Y14.93 E39.26283
G1 X149.134 Y15.297 E39.2971
G1 X149.903 Y15.74 E39.33119
G1 X150.626 Y16.254 E39.36527
G1 X151.303 Y16.846 E39.39981
G1 X151.911 Y17.494 E39.43395
G1 X152.454 Y18.199 E39.46813
G1 X152.926 Y18.955 E39.50237
G1 X153.323 Y19.758 E39.53678
G1 X153.636 Y20.585 E39.57075
G1 X153.868 Y21.442 E39.60486
G1 X154.015 Y22.326 E39.63929
G1 X154.076 Y23.218 E39.67363
G1 X154.047 Y24.118 E39.70822
G1 X153.935 Y24.986 E39.74184
G1 X153.733 Y25.857 E39.77619
G1 X153.442 Y26.714 E39.81096
G1 X153.078 Y27.519 E39.8449
G1 X152.637 Y28.285 E39.87885
G1 X152.125 Y29.005 E39.91279
G1 X151.527 Y29.688 E39.94767
G1 X150.872 Y30.301 E39.98213
G1 X150.169 Y30.841 E40.01618
G1 X149.745 Y31.113 E40.03553
G1 X149.746 Y41.961 E40.45227
G1 X149.746 Y117.486 E43.35359
G1 X149.745 Y129.646 E43.82073
G1 X150.626 Y130.254 E43.86185
G1 X151.303 Y130.846 E43.89639
G1 X151.911 Y131.494 E43.93053
G1 X152.454 Y132.199 E43.96471
G1 X152.926 Y132.955 E43.99895
G1 X153.323 Y133.758 E44.03336
G1 X153.636 Y134.585 E44.06733
G1 X153.868 Y135.442 E44.10144
G1 X154.015 Y136.326 E44.13587
G1 X154.075 Y137.212 E44.16998
G1 X154.049 Y138.098 E44.20403
G1 X153.935 Y138.985 E44.23838
G1 X153.733 Y139.857 E44.27277
G1 X153.45 Y140.697 E44.30682
G1 X153.081 Y141.513 E44.34122
G1 X152.639 Y142.282 E44.3753
G1 X152.125 Y143.005 E44.40938
G1 X151.533 Y143.682 E44.44392
G1 X150.885 Y144.29 E44.47806
G1 X150.176 Y144.835 E44.51241
G1 X149.418 Y145.309 E44.54676
G1 X148.609 Y145.708 E44.58141
G1 X147.784 Y146.019 E44.61528
G1 X146.923 Y146.251 E44.64953
G1 X146.035 Y146.397 E44.6841
G1 X145.152 Y146.455 E44.7181
G1 X144.273 Y146.427 E44.75188
G1 X143.382 Y146.311 E44.7864
G1 X142.508 Y146.108 E44.82087
G1 X141.66 Y145.819 E44.85528
G1 X140.86 Y145.458 E44.889
G1 X140.085 Y145.011 E44.92337
G1 X139.356 Y144.488 E44.95784
G1 X138.691 Y143.906 E44.99179
G1 X138.084 Y143.258 E45.02589
G1 X137.539 Y142.55 E45.06022
G1 X137.163 Y141.952 E45.08735
G1 X72.837 Y141.951 E47.55847
G1 X72.475 Y142.53 E47.5847
G1 X72.125 Y143.005 E47.60736
G1 X71.533 Y143.682 E47.64191
G1 X70.877 Y144.297 E47.67645
G1 X70.169 Y144.841 E47.71075
G1 X69.411 Y145.313 E47.74506
G1 X68.609 Y145.708 E47.7794
G1 X67.784 Y146.019 E47.81327
G1 X66.928 Y146.249 E47.84732
G1 X66.043 Y146.396 E47.88178
G1 X65.152 Y146.455 E47.91609
G1 X64.273 Y146.427 E47.94987
G1 X63.382 Y146.311 E47.98439
G1 X62.508 Y146.108 E48.01886
G1 X61.66 Y145.819 E48.05327
G1 X60.869 Y145.462 E48.08661
G1 X60.088 Y145.013 E48.12122
G1 X59.356 Y144.488 E48.15582
G1 X58.697 Y143.911 E48.18947
G1 X58.081 Y143.255 E48.22404
G1 X57.537 Y142.547 E48.25834
G1 X57.066 Y141.79 E48.29259
G1 X56.671 Y140.986 E48.327
G1 X56.359 Y140.161 E48.36089
G1 X56.13 Y139.307 E48.39485
G1 X55.983 Y138.422 E48.42932
G1 X55.925 Y137.538 E48.46335
G1 X55.952 Y136.648 E48.49755
G1 X56.065 Y135.772 E48.53148
G1 X56.271 Y134.889 E48.56632
G1 X56.558 Y134.043 E48.60063
G1 X56.917 Y133.248 E48.63414
G1 X57.361 Y132.476 E48.66836
G1 X57.887 Y131.74 E48.70311
G1 X58.471 Y131.072 E48.73719
G1 X59.128 Y130.457 E48.77177
G1 X59.827 Y129.921 E48.8056
G1 X60.216 Y129.67 E48.82339
G1 X60.216 Y42.285 E52.18032
G1 X60.217 Y31.09 E52.61038
G1 X59.356 Y30.488 E52.65074
G1 X58.697 Y29.911 E52.68439
G1 X58.081 Y29.255 E52.71896
G1 X57.541 Y28.552 E52.75301
G1 X57.075 Y27.804 E52.78687
G1 X56.677 Y27 E52.82133
G1 X56.362 Y26.168 E52.85551
G1 X56.128 Y25.302 E52.88997
G1 X55.983 Y24.419 E52.92434
G1 X55.924 Y23.54 E52.95819
G1 X55.953 Y22.64 E52.99278
G1 X56.065 Y21.772 E53.0264
G1 X56.267 Y20.901 E53.06075
G1 X56.558 Y20.044 E53.09552
M204 S3000
M205 X10 Y10
G0 F1800 X57.085 Y20.233
M204 S1800
M205 X8 Y8
G1 F2400 X57.428 Y19.477 E53.12741
G1 X57.848 Y18.752 E53.15959
G1 X58.339 Y18.071 E53.19185
G1 X58.886 Y17.447 E53.22372
G1 X59.495 Y16.879 E53.25571
G1 X60.158 Y16.372 E53.28778
G1 X60.864 Y15.933 E53.31971
G1 X61.618 Y15.563 E53.35198
G1 X62.396 Y15.27 E53.38392
G1 X63.201 Y15.054 E53.41593
G1 X64.033 Y14.917 E53.44833
G1 X64.862 Y14.863 E53.48024
G1 X65.694 Y14.89 E53.51222
G1 X66.525 Y14.998 E53.54441
G1 X67.342 Y15.189 E53.57664
G1 X68.133 Y15.458 E53.60874
G1 X68.895 Y15.804 E53.64089
G1 X69.616 Y16.22 E53.67286
G1 X70.294 Y16.705 E53.70489
G1 X70.927 Y17.261 E53.73725
G1 X71.503 Y17.879 E53.76971
G1 X72.006 Y18.536 E53.80149
G1 X72.446 Y19.243 E53.83348
G1 X72.54 Y19.42 E53.84118
G1 X137.458 Y19.421 E56.33504
G1 X137.848 Y18.752 E56.36478
G1 X138.339 Y18.071 E56.39704
G1 X138.886 Y17.447 E56.42891
G1 X139.503 Y16.873 E56.46129
G1 X140.16 Y16.371 E56.49305
G1 X140.864 Y15.933 E56.5249
G1 X141.618 Y15.563 E56.55717
G1 X142.396 Y15.27 E56.5891
G1 X143.201 Y15.054 E56.62112
G1 X144.033 Y14.917 E56.65351
G1 X144.862 Y14.863 E56.68543
G1 X145.694 Y14.89 E56.71741
G1 X146.525 Y14.998 E56.7496
