;FLAVOR:Marlin
;TIME:13132
;Filament used: 7.08605m
;Layer height: 0.16
;MINX:54.806
;MINY:15.239
;MINZ:0.15
;MAXX:155.194
;MAXY:149.629
;MAXZ:5.505
;Generated with Cura_SteamEngine 4.5.0
M140 S60
M105
M190 S60
M104 S195
M105
M109 S195
M82 ;absolute extrusion mode
G21 ;metric values
G90 ;absolute positioning
M82 ;set extruder to absolute mode
M107 ;start with the fan off
G28 X0 Y0 ;move X/Y to min endstops
G28 Z0 ;move Z to min endstops
G1 Z15.0 F70 ;move the platform down 15mm
G92 E0 ;zero the extruded length
G1 F200 E3 ;extrude 3mm of feed stock
G92 E0 ;zero the extruded length again
G1 F70
G0 Y20 F70
M117 Printing...
G5
G92 E0
G92 E0
G1 F2400 E-6
;LAYER_COUNT:34
;LAYER:0
M106 S255
M204 S3000
M205 X10 Y10
G1 F600 Z0.225
G0 F1575 X55.504 Y21.719 Z0.225
M204 S1800
M205 X8 Y8
;TYPE:SKIRT
G1 F600 Z0.15
G1 F2400 E0
G1 X55.904 Y20.826 E0.03759
G1 X56.399 Y19.956 E0.07604
G1 X56.987 Y19.128 E0.11505
G1 X57.635 Y18.382 E0.15301
G1 X58.371 Y17.687 E0.1919
G1 X59.159 Y17.076 E0.23021
G1 X59.997 Y16.549 E0.26824
G1 X60.907 Y16.095 E0.3073
G1 X61.837 Y15.74 E0.34554
G1 X62.8 Y15.477 E0.38389
G1 X63.791 Y15.309 E0.42251
G1 X64.788 Y15.24 E0.4609
G1 X65.784 Y15.268 E0.49917
G1 X66.769 Y15.391 E0.53731
G1 X67.749 Y15.614 E0.57592
G1 X68.697 Y15.93 E0.6143
G1 X69.612 Y16.34 E0.65282
G1 X70.478 Y16.833 E0.6911
G1 X71.29 Y17.408 E0.72933
G1 X72.055 Y18.071 E0.76821
G1 X72.747 Y18.805 E0.80697
G1 X73.355 Y19.589 E0.84508
G1 X73.492 Y19.794 E0.85455
G1 X136.507 Y19.795 E3.2753
G1 X136.987 Y19.128 E3.30687
G1 X137.64 Y18.376 E3.34513
G1 X138.377 Y17.681 E3.38404
G1 X139.159 Y17.076 E3.42203
G1 X139.997 Y16.549 E3.46006
G1 X140.9 Y16.099 E3.49881
G1 X141.826 Y15.745 E3.5369
G1 X142.789 Y15.48 E3.57527
G1 X143.786 Y15.311 E3.61411
G1 X144.777 Y15.24 E3.65228
G1 X145.184 Y15.239 E3.66791
G1 X145.771 Y15.266 E3.69049
G1 X146.767 Y15.391 E3.72905
G1 X147.749 Y15.614 E3.76773
G1 X148.697 Y15.93 E3.80612
G1 X149.612 Y16.34 E3.84464
G1 X150.478 Y16.833 E3.88292
G1 X151.29 Y17.408 E3.92114
G1 X152.055 Y18.071 E3.96003
G1 X152.747 Y18.805 E3.99878
G1 X153.355 Y19.589 E4.0369
G1 X153.885 Y20.432 E4.07515
G1 X154.335 Y21.334 E4.11387
G1 X154.689 Y22.26 E4.15196
G1 X154.954 Y23.223 E4.19033
G1 X155.123 Y24.216 E4.22902
G1 X155.194 Y25.21 E4.2673
G1 X155.168 Y26.205 E4.30554
G1 X155.043 Y27.201 E4.3441
G1 X154.82 Y28.183 E4.38279
G1 X154.505 Y29.127 E4.42102
G1 X154.094 Y30.046 E4.45969
G1 X153.601 Y30.912 E4.49797
G1 X153.026 Y31.724 E4.53619
G1 X152.363 Y32.489 E4.57508
G1 X151.638 Y33.174 E4.6134
G1 X150.865 Y33.774 E4.65099
G1 X150.866 Y44.016 E5.04444
G1 X150.866 Y119.541 E7.94577
G1 X150.865 Y131.088 E8.38935
G1 X151.29 Y131.408 E8.40979
G1 X152.055 Y132.071 E8.44868
G1 X152.747 Y132.805 E8.48743
G1 X153.355 Y133.589 E8.52554
G1 X153.885 Y134.432 E8.5638
G1 X154.335 Y135.334 E8.60252
G1 X154.689 Y136.26 E8.6406
G1 X154.954 Y137.223 E8.67897
G1 X155.123 Y138.216 E8.71767
G1 X155.194 Y139.21 E8.75595
G1 X155.168 Y140.205 E8.79419
G1 X155.043 Y141.201 E8.83275
G1 X154.82 Y142.183 E8.87143
G1 X154.505 Y143.127 E8.90966
G1 X154.094 Y144.046 E8.94834
G1 X153.601 Y144.912 E8.98662
G1 X153.026 Y145.724 E9.02484
G1 X152.363 Y146.489 E9.06373
G1 X151.638 Y147.174 E9.10204
G1 X150.841 Y147.792 E9.14079
G1 X149.987 Y148.329 E9.17954
G1 X149.086 Y148.776 E9.21818
G1 X148.163 Y149.128 E9.25613
G1 X147.196 Y149.392 E9.29463
G1 X146.198 Y149.56 E9.33351
G1 X145.207 Y149.629 E9.37167
G1 X144.219 Y149.601 E9.40964
G1 X143.219 Y149.475 E9.44836
G1 X142.249 Y149.254 E9.48658
G1 X141.283 Y148.929 E9.52573
G1 X140.383 Y148.526 E9.56362
G1 X139.509 Y148.027 E9.60228
G1 X138.688 Y147.442 E9.641
G1 X137.945 Y146.797 E9.6788
G1 X137.251 Y146.062 E9.71763
G1 X136.638 Y145.27 E9.75611
G1 X136.543 Y145.127 E9.7627
G1 X73.458 Y145.126 E12.18614
G1 X73.013 Y145.74 E12.21527
G1 X72.36 Y146.492 E12.25353
G1 X71.632 Y147.18 E12.29201
G1 X70.844 Y147.789 E12.33027
G1 X69.996 Y148.323 E12.36877
G1 X69.092 Y148.774 E12.40758
G1 X68.16 Y149.128 E12.44588
G1 X67.211 Y149.388 E12.48368
G1 X66.209 Y149.559 E12.52272
G1 X65.212 Y149.628 E12.56112
G1 X64.229 Y149.602 E12.59889
G1 X63.219 Y149.475 E12.638
G1 X62.235 Y149.249 E12.67678
G1 X61.302 Y148.937 E12.71457
G1 X60.379 Y148.524 E12.75342
G1 X59.518 Y148.032 E12.79151
G1 X58.692 Y147.445 E12.83044
G1 X57.945 Y146.797 E12.86843
G1 X57.259 Y146.07 E12.90683
G1 X56.641 Y145.274 E12.94554
G1 X56.11 Y144.428 E12.98391
G1 X55.664 Y143.532 E13.02236
G1 X55.308 Y142.602 E13.06062
G1 X55.042 Y141.63 E13.09933
G1 X54.875 Y140.636 E13.13805
G1 X54.806 Y139.654 E13.17587
G1 X54.833 Y138.653 E13.21433
G1 X54.957 Y137.667 E13.25251
G1 X55.184 Y136.671 E13.29175
G1 X55.495 Y135.74 E13.32946
G1 X55.91 Y134.812 E13.36851
G1 X56.407 Y133.943 E13.40697
G1 X56.981 Y133.135 E13.44504
G1 X57.634 Y132.383 E13.4833
G1 X58.362 Y131.694 E13.52181
G1 X59.096 Y131.123 E13.55753
G1 X59.096 Y33.745 E17.29835
G1 X58.688 Y33.442 E17.31788
G1 X57.945 Y32.797 E17.35567
G1 X57.251 Y32.062 E17.39451
G1 X56.638 Y31.27 E17.43298
G1 X56.11 Y30.428 E17.47116
G1 X55.661 Y29.525 E17.5099
G1 X55.305 Y28.595 E17.54816
G1 X55.043 Y27.634 E17.58642
G1 X54.877 Y26.648 E17.62483
G1 X54.806 Y25.654 E17.66311
G1 X54.834 Y24.64 E17.70208
G1 X54.957 Y23.665 E17.73983
G1 X55.184 Y22.671 E17.779
G1 X55.504 Y21.719 E17.81758
M204 S3000
M205 X10 Y10
G0 F1575 X56.031 Y21.908
M204 S1800
M205 X8 Y8
G1 F2400 X56.41 Y21.064 E17.85313
G1 X56.88 Y20.244 E17.88943
G1 X57.437 Y19.462 E17.92632
G1 X58.05 Y18.757 E17.96221
G1 X58.747 Y18.101 E17.99897
G1 X59.493 Y17.526 E18.03516
G1 X60.286 Y17.029 E18.07111
G1 X61.146 Y16.602 E18.10799
G1 X62.027 Y16.267 E18.1442
G1 X62.936 Y16.021 E18.18038
G1 X63.874 Y15.863 E18.21692
G1 X64.815 Y15.799 E18.25315
G1 X65.758 Y15.827 E18.28939
G1 X66.688 Y15.945 E18.32541
G1 X67.613 Y16.157 E18.36186
G1 X68.509 Y16.458 E18.39817
G1 X69.373 Y16.846 E18.43456
G1 X70.19 Y17.314 E18.47073
G1 X70.958 Y17.859 E18.5069
G1 X71.679 Y18.486 E18.54361
G1 X72.333 Y19.181 E18.58027
G1 X72.906 Y19.923 E18.61629
G1 X73.185 Y20.354 E18.63601
G1 X136.522 Y20.355 E21.06913
G1 X136.813 Y20.355 E21.08031
G1 X137.437 Y19.462 E21.12216
G1 X138.055 Y18.751 E21.15835
G1 X138.752 Y18.097 E21.19506
G1 X139.493 Y17.526 E21.231
G1 X140.286 Y17.029 E21.26695
G1 X141.139 Y16.605 E21.30355
G1 X142.016 Y16.272 E21.33958
G1 X142.926 Y16.023 E21.37583
G1 X143.869 Y15.865 E21.41256
G1 X144.805 Y15.8 E21.4486
G1 X145.745 Y15.826 E21.48472
G1 X146.686 Y15.945 E21.52116
G1 X147.613 Y16.157 E21.55769
G1 X148.509 Y16.458 E21.594
G1 X149.373 Y16.846 E21.63039
G1 X150.19 Y17.314 E21.66656
G1 X150.958 Y17.859 E21.70273
G1 X151.679 Y18.486 E21.73944
G1 X152.333 Y19.181 E21.7761
G1 X152.906 Y19.923 E21.81211
G1 X153.406 Y20.721 E21.84829
G1 X153.829 Y21.573 E21.88483
G1 X154.162 Y22.45 E21.92087
G1 X154.411 Y23.36 E21.95711
G1 X154.569 Y24.299 E21.99369
G1 X154.634 Y25.239 E22.02989
G1 X154.608 Y26.179 E22.06601
G1 X154.489 Y27.12 E22.10245
G1 X154.277 Y28.047 E22.13898
G1 X153.978 Y28.94 E22.17516
G1 X153.588 Y29.807 E22.21168
G1 X153.12 Y30.624 E22.24785
G1 X152.575 Y31.392 E22.28402
G1 X151.948 Y32.113 E22.32073
G1 X151.261 Y32.76 E22.35698
G1 X150.506 Y33.343 E22.39363
G1 X150.305 Y33.478 E22.40293
G1 X150.306 Y44.016 E22.80775
G1 X150.306 Y119.541 E25.70908
G1 X150.305 Y131.088 E26.15266
G1 X150.307 Y131.392 E26.16434
G1 X150.958 Y131.859 E26.19512
G1 X151.679 Y132.486 E26.23182
G1 X152.333 Y133.181 E26.26848
G1 X152.906 Y133.923 E26.3045
G1 X153.406 Y134.721 E26.34067
G1 X153.829 Y135.573 E26.37722
G1 X154.162 Y136.45 E26.41325
G1 X154.411 Y137.36 E26.4495
G1 X154.569 Y138.299 E26.48608
G1 X154.634 Y139.239 E26.52227
G1 X154.608 Y140.179 E26.5584
G1 X154.489 Y141.12 E26.59483
G1 X154.277 Y142.047 E26.63136
G1 X153.978 Y142.94 E26.66754
G1 X153.588 Y143.807 E26.70406
G1 X153.12 Y144.624 E26.74023
G1 X152.575 Y145.392 E26.77641
G1 X151.948 Y146.113 E26.81311
G1 X151.261 Y146.76 E26.84937
G1 X150.506 Y147.343 E26.88601
G1 X149.699 Y147.848 E26.92258
G1 X148.847 Y148.269 E26.95909
G1 X147.973 Y148.601 E26.99501
G1 X147.059 Y148.849 E27.03139
G1 X146.116 Y149.006 E27.06811
G1 X145.18 Y149.07 E27.10415
G1 X144.246 Y149.042 E27.14005
G1 X143.3 Y148.921 E27.17669
G1 X142.385 Y148.71 E27.21276
G1 X141.472 Y148.402 E27.24977
G1 X140.622 Y148.019 E27.28559
G1 X139.797 Y147.546 E27.32212
G1 X139.022 Y146.993 E27.3587
G1 X138.321 Y146.381 E27.39444
G1 X137.666 Y145.686 E27.43113
G1 X137.088 Y144.936 E27.46751
G1 X136.846 Y144.567 E27.48446
G1 X73.454 Y144.566 E29.91969
G1 X73.155 Y144.566 E29.93118
G1 X72.563 Y145.406 E29.97065
G1 X71.945 Y146.117 E30.00684
G1 X71.256 Y146.764 E30.04315
G1 X70.51 Y147.34 E30.07936
G1 X69.707 Y147.843 E30.11576
G1 X68.853 Y148.268 E30.1524
G1 X67.972 Y148.601 E30.18858
G1 X67.074 Y148.845 E30.22433
G1 X66.126 Y149.005 E30.26126
G1 X65.185 Y149.069 E30.2975
G1 X64.255 Y149.042 E30.33324
G1 X63.3 Y148.921 E30.37022
G1 X62.372 Y148.706 E30.40681
G1 X61.49 Y148.41 E30.44255
G1 X60.618 Y148.017 E30.47929
G1 X59.806 Y147.552 E30.51524
G1 X59.026 Y146.995 E30.55206
G1 X58.321 Y146.381 E30.58797
G1 X57.673 Y145.694 E30.62425
G1 X57.09 Y144.939 E30.6609
G1 X56.59 Y144.14 E30.69711
G1 X56.17 Y143.293 E30.73343
G1 X55.834 Y142.412 E30.76965
G1 X55.585 Y141.493 E30.80622
G1 X55.429 Y140.555 E30.84275
G1 X55.365 Y139.624 E30.8786
G1 X55.392 Y138.68 E30.91488
G1 X55.511 Y137.748 E30.95097
G1 X55.727 Y136.807 E30.98806
G1 X56.023 Y135.927 E31.02373
G1 X56.417 Y135.051 E31.06063
G1 X56.888 Y134.231 E31.09696
G1 X57.431 Y133.468 E31.13293
G1 X58.049 Y132.758 E31.16909
G1 X58.739 Y132.108 E31.20551
G1 X59.494 Y131.525 E31.24215
G1 X59.656 Y131.416 E31.24965
G1 X59.656 Y33.452 E35.01299
G1 X59.022 Y32.993 E35.04305
G1 X58.321 Y32.381 E35.0788
G1 X57.666 Y31.686 E35.11549
G1 X57.088 Y30.936 E35.15186
G1 X56.59 Y30.14 E35.18793
G1 X56.167 Y29.286 E35.22454
G1 X55.832 Y28.406 E35.26072
G1 X55.587 Y27.498 E35.29685
G1 X55.431 Y26.565 E35.33318
G1 X55.365 Y25.624 E35.36942
G1 X55.393 Y24.668 E35.40616
G1 X55.511 Y23.746 E35.44187
G1 X55.727 Y22.807 E35.47889
G1 X56.031 Y21.908 E35.51534
M204 S3000
M205 X10 Y10
G0 F1575 X56.558 Y22.098
M204 S1800
M205 X8 Y8
G1 F2400 X56.917 Y21.303 E35.54885
G1 X57.361 Y20.531 E35.58306
G1 X57.887 Y19.795 E35.61782
G1 X58.466 Y19.133 E35.6516
G1 X59.123 Y18.516 E35.68622
G1 X59.827 Y17.976 E35.72031
G1 X60.575 Y17.509 E35.75418
G1 X61.386 Y17.108 E35.78894
G1 X62.216 Y16.794 E35.82303
G1 X63.072 Y16.564 E35.85708
G1 X63.957 Y16.417 E35.89154
G1 X64.842 Y16.359 E35.92561
G1 X65.732 Y16.386 E35.95982
G1 X66.607 Y16.499 E35.99371
G1 X67.478 Y16.701 E36.02806
G1 X68.321 Y16.985 E36.06223
G1 X69.134 Y17.352 E36.0965
G1 X69.903 Y17.795 E36.13059
G1 X70.626 Y18.309 E36.16467
G1 X71.303 Y18.901 E36.19922
G1 X71.918 Y19.557 E36.23376
G1 X72.456 Y20.257 E36.26768
G1 X72.868 Y20.914 E36.29747
G1 X137.131 Y20.915 E38.76616
G1 X137.53 Y20.277 E38.79507
G1 X137.887 Y19.795 E38.81811
G1 X138.471 Y19.127 E38.85219
G1 X139.128 Y18.512 E38.88677
G1 X139.827 Y17.976 E38.9206
G1 X140.575 Y17.509 E38.95448
G1 X141.379 Y17.111 E38.98894
G1 X142.206 Y16.798 E39.02291
G1 X143.063 Y16.566 E39.05702
G1 X143.951 Y16.419 E39.0916
G1 X144.834 Y16.359 E39.12559
G1 X145.72 Y16.385 E39.15965
G1 X146.606 Y16.499 E39.19396
G1 X147.478 Y16.701 E39.22835
G1 X148.321 Y16.985 E39.26252
G1 X149.134 Y17.352 E39.29679
G1 X149.903 Y17.795 E39.33088
G1 X150.626 Y18.309 E39.36496
G1 X151.303 Y18.901 E39.39951
G1 X151.918 Y19.557 E39.43405
G1 X152.456 Y20.257 E39.46796
G1 X152.926 Y21.01 E39.50206
G1 X153.323 Y21.813 E39.53648
G1 X153.636 Y22.64 E39.57044
G1 X153.868 Y23.497 E39.60455
G1 X154.015 Y24.381 E39.63898
G1 X154.075 Y25.267 E39.67309
G1 X154.049 Y26.153 E39.70714
G1 X153.935 Y27.04 E39.7415
G1 X153.733 Y27.912 E39.77588
G1 X153.45 Y28.752 E39.80993
G1 X153.081 Y29.568 E39.84434
G1 X152.639 Y30.337 E39.87841
G1 X152.125 Y31.06 E39.91249
G1 X151.533 Y31.737 E39.94704
G1 X150.885 Y32.345 E39.98117
G1 X150.172 Y32.894 E40.01574
G1 X149.745 Y33.168 E40.03523
G1 X149.746 Y44.016 E40.45196
G1 X149.746 Y119.541 E43.35329
G1 X149.745 Y131.088 E43.79687
G1 X149.75 Y131.703 E43.8205
G1 X150.626 Y132.309 E43.86142
G1 X151.303 Y132.901 E43.89596
G1 X151.918 Y133.557 E43.93051
G1 X152.456 Y134.257 E43.96442
G1 X152.926 Y135.01 E43.99852
G1 X153.323 Y135.813 E44.03293
G1 X153.636 Y136.64 E44.0669
G1 X153.868 Y137.497 E44.10101
G1 X154.015 Y138.381 E44.13544
G1 X154.075 Y139.267 E44.16955
G1 X154.049 Y140.153 E44.2036
G1 X153.935 Y141.04 E44.23796
G1 X153.733 Y141.912 E44.27234
G1 X153.45 Y142.752 E44.30639
G1 X153.081 Y143.568 E44.3408
G1 X152.639 Y144.337 E44.37487
G1 X152.125 Y145.06 E44.40895
G1 X151.533 Y145.737 E44.44349
G1 X150.885 Y146.345 E44.47763
G1 X150.172 Y146.894 E44.5122
G1 X149.411 Y147.368 E44.54664
G1 X148.609 Y147.763 E44.58098
G1 X147.784 Y148.074 E44.61485
G1 X146.923 Y148.306 E44.64911
G1 X146.035 Y148.452 E44.68368
G1 X145.152 Y148.51 E44.71767
G1 X144.273 Y148.482 E44.75146
G1 X143.382 Y148.366 E44.78597
G1 X142.521 Y148.167 E44.81992
G1 X141.662 Y147.875 E44.85478
G1 X140.86 Y147.513 E44.88858
G1 X140.085 Y147.066 E44.92295
G1 X139.356 Y146.543 E44.95741
G1 X138.697 Y145.966 E44.99106
G1 X138.081 Y145.31 E45.02563
G1 X137.537 Y144.602 E45.05993
G1 X137.164 Y144.007 E45.08691
G1 X72.837 Y144.006 E47.55806
G1 X72.47 Y144.591 E47.58459
G1 X72.113 Y145.073 E47.60763
G1 X71.529 Y145.741 E47.64172
G1 X70.88 Y146.349 E47.67588
G1 X70.176 Y146.89 E47.70999
G1 X69.418 Y147.364 E47.74433
G1 X68.613 Y147.762 E47.77883
G1 X67.784 Y148.073 E47.81284
G1 X66.937 Y148.302 E47.84655
G1 X66.043 Y148.451 E47.88136
G1 X65.158 Y148.509 E47.91544
G1 X64.28 Y148.483 E47.94918
G1 X63.382 Y148.366 E47.98397
G1 X62.508 Y148.163 E48.01844
G1 X61.678 Y147.882 E48.0521
G1 X60.857 Y147.511 E48.08671
G1 X60.094 Y147.071 E48.12054
G1 X59.359 Y146.545 E48.15527
G1 X58.697 Y145.966 E48.18905
G1 X58.088 Y145.318 E48.22321
G1 X57.539 Y144.605 E48.25778
G1 X57.071 Y143.852 E48.29184
G1 X56.677 Y143.053 E48.32606
G1 X56.361 Y142.221 E48.36025
G1 X56.128 Y141.357 E48.39463
G1 X55.983 Y140.474 E48.429
G1 X55.924 Y139.595 E48.46285
G1 X55.952 Y138.707 E48.49698
G1 X56.065 Y137.828 E48.53102
G1 X56.271 Y136.944 E48.56589
G1 X56.55 Y136.115 E48.59949
G1 X56.923 Y135.291 E48.63424
G1 X57.368 Y134.519 E48.66847
G1 X57.881 Y133.801 E48.70237
G1 X58.465 Y133.134 E48.73643
G1 X59.115 Y132.523 E48.7707
G1 X59.828 Y131.974 E48.80526
G1 X60.216 Y131.724 E48.823
G1 X60.216 Y33.145 E52.60995
G1 X59.356 Y32.543 E52.65028
G1 X58.697 Y31.966 E52.68393
G1 X58.081 Y31.31 E52.7185
G1 X57.537 Y30.602 E52.7528
G1 X57.071 Y29.852 E52.78672
G1 X56.673 Y29.046 E52.82125
G1 X56.359 Y28.216 E52.85534
G1 X56.13 Y27.362 E52.88931
G1 X55.985 Y26.483 E52.92353
G1 X55.924 Y25.595 E52.95772
G1 X55.953 Y24.695 E52.99231
G1 X56.065 Y23.827 E53.02594
G1 X56.271 Y22.944 E53.06077
G1 X56.558 Y22.098 E53.09509
M204 S3000
M205 X10 Y10
G0 F1575 X57.085 Y22.287
M204 S1800
M205 X8 Y8
G1 F2400 X57.424 Y21.541 E53.12656
G1 X57.841 Y20.818 E53.15863
G1 X58.337 Y20.128 E53.19127
G1 X58.881 Y19.509 E53.22293
G1 X59.5 Y18.931 E53.25546
G1 X60.16 Y18.426 E53.28739
G1 X60.864 Y17.988 E53.31924
G1 X61.625 Y17.614 E53.35181
G1 X62.406 Y17.321 E53.38386
G1 X63.208 Y17.107 E53.41574
G1 X64.04 Y16.971 E53.44813
G1 X64.869 Y16.918 E53.48004
G1 X65.705 Y16.946 E53.51218
G1 X66.527 Y17.053 E53.54402
G1 X67.342 Y17.244 E53.57618
G1 X68.133 Y17.513 E53.60827
G1 X68.895 Y17.859 E53.64042
G1 X69.616 Y18.275 E53.6724
G1 X70.294 Y18.76 E53.70442
G1 X70.927 Y19.316 E53.73679
G1 X71.503 Y19.934 E53.76924
G1 X72.006 Y20.591 E53.80103
G1 X72.446 Y21.298 E53.83302
G1 X72.54 Y21.474 E53.84068
G1 X137.459 Y21.475 E56.33458
G1 X137.843 Y20.815 E56.36391
G1 X138.337 Y20.128 E56.39641
G1 X138.886 Y19.502 E56.4284
G1 X139.503 Y18.928 E56.46077
G1 X140.16 Y18.426 E56.49254
G1 X140.864 Y17.988 E56.52439
G1 X141.618 Y17.618 E56.55665
G1 X142.396 Y17.325 E56.58859
G1 X143.201 Y17.109 E56.62061
G1 X144.033 Y16.972 E56.653
G1 X144.862 Y16.918 E56.68491
G1 X145.694 Y16.945 E56.71689
G1 X146.525 Y17.053 E56.74908
G1 X147.342 Y17.244 E56.78132
G1 X148.133 Y17.513 E56.81341
