;FLAVOR:Marlin
;TIME:376
;Filament used: 0.145376m
;Layer height: 0.1
;MINX:94.806
;MINY:24.923
;MINZ:0.15
;MAXX:115.193
;MAXY:44.664
;MAXZ:4.95
;Generated with Cura_SteamEngine 4.5.0
M140 S60
M105
M190 S60
M104 S198
M105
M109 S198
M82 ;absolute extrusion mode
G21 ;metric values
G90 ;absolute positioning
M82 ;set extruder to absolute mode
M107 ;start with the fan off
G28 X0 Y0 ;move X/Y to min endstops
G28 Z0 ;move Z to min endstops
G1 Z15.0 F105 ;move the platform down 15mm
G92 E0 ;zero the extruded length
G1 F200 E3 ;extrude 3mm of feed stock
G92 E0 ;zero the extruded length again
G1 F105
G0 Y20 F105
M117 Printing...
G5
G92 E0
G92 E0
G1 F2400 E-6
;LAYER_COUNT:49
;LAYER:0
M106 S255
M204 S3000
M205 X10 Y10
G1 F600 Z0.225
G0 F3150 X95.18 Y31.724 Z0.225
M204 S1800
M205 X8 Y8
;TYPE:SKIRT
G1 F600 Z0.15
G1 F2400 E0
G1 X95.506 Y30.752 E0.03938
G1 X95.904 Y29.861 E0.07687
G1 X96.395 Y28.999 E0.11498
G1 X96.983 Y28.169 E0.15406
G1 X97.636 Y27.418 E0.19229
G1 X98.365 Y26.728 E0.23085
G1 X99.151 Y26.119 E0.26904
G1 X100.097 Y25.525 E0.31196
G1 X100.613 Y25.261 E0.33422
G1 X101.16 Y25.071 E0.35647
G1 X101.728 Y24.957 E0.37872
G1 X102.306 Y24.923 E0.40096
G1 X102.884 Y24.969 E0.42324
G1 X103.449 Y25.094 E0.44547
G1 X103.993 Y25.295 E0.46775
G1 X104.61 Y25.624 E0.49461
G1 X105.036 Y25.905 E0.51421
G1 X105.58 Y25.541 E0.53936
G1 X106.097 Y25.28 E0.56161
G1 X106.645 Y25.093 E0.58385
G1 X107.214 Y24.982 E0.60612
G1 X107.792 Y24.952 E0.62835
G1 X108.369 Y25 E0.6506
G1 X108.934 Y25.128 E0.67285
G1 X109.476 Y25.333 E0.69511
G1 X110.326 Y25.784 E0.73208
G1 X110.796 Y26.083 E0.75348
G1 X111.277 Y26.435 E0.77637
G1 X112.039 Y27.092 E0.81502
G1 X112.733 Y27.823 E0.85375
G1 X113.359 Y28.631 E0.89301
G1 X113.891 Y29.477 E0.9314
G1 X114.33 Y30.356 E0.96915
G1 X114.691 Y31.3 E1.00797
G1 X114.956 Y32.266 E1.04645
G1 X115.124 Y33.258 E1.0851
G1 X115.193 Y34.243 E1.12303
G1 X115.167 Y35.236 E1.16119
G1 X115.047 Y36.213 E1.19901
G1 X114.822 Y37.209 E1.23823
G1 X114.504 Y38.164 E1.2769
G1 X114.112 Y39.05 E1.31412
G1 X113.61 Y39.934 E1.35317
G1 X113.024 Y40.762 E1.39214
G1 X112.376 Y41.511 E1.43019
G1 X111.646 Y42.203 E1.46883
G1 X110.839 Y42.829 E1.50806
G1 X109.993 Y43.361 E1.54645
G1 X109.109 Y43.802 E1.58441
G1 X108.171 Y44.161 E1.62299
G1 X107.204 Y44.426 E1.66151
G1 X106.208 Y44.594 E1.70031
G1 X105.22 Y44.664 E1.73836
G1 X104.21 Y44.635 E1.77717
G1 X103.241 Y44.514 E1.81469
G1 X102.248 Y44.288 E1.85381
G1 X101.287 Y43.966 E1.89274
G1 X100.388 Y43.564 E1.93057
G1 X99.529 Y43.075 E1.96855
G1 X98.697 Y42.485 E2.00773
G1 X97.948 Y41.835 E2.04582
G1 X97.256 Y41.102 E2.08455
G1 X96.648 Y40.319 E2.12263
G1 X96.107 Y39.46 E2.16163
G1 X95.663 Y38.566 E2.19998
G1 X95.309 Y37.64 E2.23806
G1 X95.044 Y36.674 E2.27654
G1 X94.876 Y35.678 E2.31534
G1 X94.806 Y34.692 E2.35331
G1 X94.834 Y33.695 E2.39163
G1 X94.957 Y32.708 E2.42984
G1 X95.18 Y31.724 E2.4686
M204 S3000
M205 X10 Y10
G0 F3150 X95.724 Y31.86
M204 S1800
M205 X8 Y8
G1 F2400 X96.034 Y30.941 E2.50586
G1 X96.411 Y30.1 E2.54126
G1 X96.876 Y29.285 E2.57731
G1 X97.433 Y28.503 E2.61419
G1 X98.052 Y27.793 E2.65038
G1 X98.741 Y27.143 E2.68676
G1 X99.485 Y26.568 E2.72289
G1 X100.386 Y26.005 E2.7637
G1 X100.867 Y25.762 E2.7844
G1 X101.379 Y25.592 E2.80513
G1 X101.911 Y25.5 E2.82587
G1 X102.45 Y25.488 E2.84658
G1 X102.985 Y25.555 E2.86729
G1 X103.504 Y25.701 E2.888
G1 X104.051 Y25.952 E2.91112
G1 X104.784 Y26.41 E2.94433
G1 X105.017 Y26.621 E2.9564
G1 X105.592 Y26.186 E2.9841
G1 X106.349 Y25.782 E3.01706
G1 X106.861 Y25.615 E3.03775
G1 X107.393 Y25.526 E3.05847
G1 X107.932 Y25.517 E3.07918
G1 X108.467 Y25.587 E3.09991
G1 X108.986 Y25.736 E3.12065
G1 X109.469 Y25.955 E3.14102
G1 X110.058 Y26.276 E3.16679
G1 X110.947 Y26.887 E3.20823
G1 X111.664 Y27.508 E3.24467
G1 X112.319 Y28.201 E3.2813
G1 X112.909 Y28.965 E3.31838
G1 X113.411 Y29.765 E3.35467
G1 X113.823 Y30.595 E3.39026
G1 X114.164 Y31.49 E3.42706
G1 X114.413 Y32.403 E3.46341
G1 X114.57 Y33.34 E3.49991
G1 X114.633 Y34.271 E3.53575
G1 X114.607 Y35.211 E3.57188
G1 X114.493 Y36.134 E3.6076
G1 X114.278 Y37.073 E3.64461
G1 X113.976 Y37.976 E3.68119
G1 X113.604 Y38.814 E3.71641
G1 X113.129 Y39.648 E3.75328
G1 X112.574 Y40.43 E3.79012
G1 X111.96 Y41.136 E3.82606
G1 X111.269 Y41.789 E3.86258
G1 X110.505 Y42.379 E3.89967
G1 X109.705 Y42.881 E3.93595
G1 X108.869 Y43.296 E3.9718
G1 X107.981 Y43.634 E4.0083
G1 X107.067 Y43.883 E4.04469
G1 X106.127 Y44.04 E4.0813
G1 X105.192 Y44.104 E4.11731
G1 X104.238 Y44.076 E4.15397
G1 X103.321 Y43.96 E4.18948
G1 X102.384 Y43.745 E4.22641
G1 X101.475 Y43.439 E4.26325
G1 X100.627 Y43.058 E4.29897
G1 X99.815 Y42.594 E4.3349
G1 X99.031 Y42.035 E4.37188
G1 X98.323 Y41.419 E4.40794
G1 X97.671 Y40.727 E4.44446
G1 X97.096 Y39.984 E4.48055
G1 X96.588 Y39.172 E4.51735
G1 X96.17 Y38.327 E4.55356
G1 X95.836 Y37.45 E4.58961
G1 X95.587 Y36.537 E4.62597
G1 X95.43 Y35.597 E4.66258
G1 X95.366 Y34.663 E4.69854
G1 X95.393 Y33.722 E4.73471
G1 X95.511 Y32.788 E4.77087
G1 X95.724 Y31.86 E4.80745
M204 S3000
M205 X10 Y10
G0 F3150 X96.267 Y31.995
M204 S1800
M205 X8 Y8
G1 F2400 X96.561 Y31.13 E4.84254
G1 X96.918 Y30.339 E4.87588
G1 X97.357 Y29.572 E4.90983
G1 X97.883 Y28.836 E4.94458
G1 X98.467 Y28.169 E4.97864
G1 X99.118 Y27.557 E5.01297
G1 X99.819 Y27.017 E5.04696
G1 X100.675 Y26.485 E5.08568
G1 X101.119 Y26.264 E5.10473
G1 X101.593 Y26.117 E5.12379
G1 X102.084 Y26.048 E5.14284
G1 X103.067 Y26.15 E5.1808
G1 X103.776 Y26.44 E5.21023
G1 X104.471 Y26.877 E5.24177
G1 X104.832 Y27.217 E5.26082
G1 X105.007 Y27.445 E5.27186
G1 X105.321 Y27.092 E5.29001
G1 X105.878 Y26.667 E5.31693
G1 X106.598 Y26.286 E5.34822
G1 X107.072 Y26.141 E5.36726
G1 X107.564 Y26.075 E5.38633
G1 X108.06 Y26.089 E5.40539
G1 X108.547 Y26.182 E5.42444
G1 X109.201 Y26.447 E5.45155
G1 X109.79 Y26.768 E5.47731
G1 X110.616 Y27.338 E5.51587
G1 X111.289 Y27.924 E5.55015
G1 X111.905 Y28.578 E5.58466
G1 X112.46 Y29.299 E5.61961
G1 X112.931 Y30.054 E5.6538
G1 X113.317 Y30.835 E5.68727
G1 X113.637 Y31.68 E5.72198
G1 X113.87 Y32.541 E5.75624
G1 X114.016 Y33.421 E5.79051
G1 X114.074 Y34.298 E5.82427
G1 X114.048 Y35.185 E5.85836
G1 X113.938 Y36.055 E5.89205
G1 X113.735 Y36.938 E5.92686
G1 X113.448 Y37.789 E5.96136
G1 X113.096 Y38.578 E5.99455
G1 X112.648 Y39.361 E6.0292
G1 X112.124 Y40.097 E6.06391
G1 X111.545 Y40.76 E6.09772
G1 X110.892 Y41.375 E6.13218
G1 X110.171 Y41.93 E6.16714
G1 X109.416 Y42.401 E6.20132
G1 X108.63 Y42.789 E6.23499
G1 X107.791 Y43.107 E6.26946
G1 X106.929 Y43.34 E6.30376
G1 X106.045 Y43.486 E6.33818
G1 X105.163 Y43.545 E6.37214
G1 X104.265 Y43.516 E6.40666
G1 X103.4 Y43.406 E6.44015
G1 X102.52 Y43.202 E6.47486
G1 X101.663 Y42.911 E6.50962
G1 X100.866 Y42.551 E6.54322
G1 X100.102 Y42.113 E6.57705
G1 X99.364 Y41.585 E6.61191
G1 X98.698 Y41.003 E6.64589
G1 X98.086 Y40.351 E6.68024
G1 X97.545 Y39.649 E6.71429
G1 X97.068 Y38.884 E6.74892
G1 X96.676 Y38.088 E6.783
G1 X96.363 Y37.26 E6.81701
G1 X96.13 Y36.399 E6.85127
G1 X95.984 Y35.515 E6.88569
G1 X95.925 Y34.635 E6.91957
G1 X95.953 Y33.749 E6.95363
G1 X96.066 Y32.868 E6.98775
G1 X96.267 Y31.995 E7.02216
M204 S3000
M205 X10 Y10
G0 F3150 X96.81 Y32.13
M204 S1800
M205 X8 Y8
G1 F2400 X97.088 Y31.319 E7.0551
G1 X97.424 Y30.577 E7.08639
G1 X97.839 Y29.858 E7.11828
G1 X98.333 Y29.17 E7.15082
G1 X98.883 Y28.544 E7.18283
G1 X99.495 Y27.972 E7.21501
G1 X100.154 Y27.466 E7.24693
G1 X100.964 Y26.964 E7.28353
G1 X101.367 Y26.768 E7.30075
G1 X101.799 Y26.646 E7.31799
G1 X102.245 Y26.603 E7.33521
G1 X103.126 Y26.755 E7.36955
G1 X103.785 Y27.087 E7.3979
G1 X104.155 Y27.342 E7.41516
G1 X104.473 Y27.657 E7.43235
G1 X104.731 Y28.024 E7.44959
G1 X104.92 Y28.431 E7.46683
G1 X105.004 Y28.754 E7.47965
G1 X105.091 Y28.435 E7.49235
G1 X105.285 Y28.03 E7.5096
G1 X105.547 Y27.666 E7.52683
G1 X105.869 Y27.354 E7.54405
G1 X106.439 Y26.985 E7.57014
G1 X106.843 Y26.791 E7.58736
G1 X107.275 Y26.672 E7.60457
G1 X107.722 Y26.631 E7.62181
G1 X108.169 Y26.67 E7.63905
G1 X108.602 Y26.788 E7.65629
G1 X109.522 Y27.259 E7.69599
G1 X110.285 Y27.79 E7.73171
G1 X110.914 Y28.34 E7.7638
G1 X111.491 Y28.955 E7.7962
G1 X112.011 Y29.633 E7.82902
G1 X112.451 Y30.342 E7.86108
G1 X112.811 Y31.075 E7.89245
G1 X113.11 Y31.87 E7.92508
G1 X113.327 Y32.678 E7.95722
G1 X113.462 Y33.503 E7.98933
G1 X113.515 Y34.326 E8.02101
G1 X113.488 Y35.16 E8.05307
G1 X113.384 Y35.976 E8.08467
G1 X113.192 Y36.803 E8.11728
G1 X112.921 Y37.602 E8.1497
G1 X112.589 Y38.341 E8.18082
G1 X112.167 Y39.075 E8.21334
G1 X111.673 Y39.764 E8.24591
G1 X111.129 Y40.385 E8.27763
G1 X110.515 Y40.961 E8.30997
G1 X109.837 Y41.481 E8.34279
G1 X109.128 Y41.921 E8.37485
G1 X108.39 Y42.283 E8.40642
G1 X107.6 Y42.58 E8.43885
G1 X106.792 Y42.797 E8.47099
G1 X105.964 Y42.932 E8.50321
G1 X105.135 Y42.986 E8.53513
G1 X104.292 Y42.957 E8.56753
G1 X103.48 Y42.851 E8.59899
G1 X102.656 Y42.659 E8.63149
G1 X101.852 Y42.384 E8.66413
G1 X101.105 Y42.045 E8.69565
G1 X100.388 Y41.631 E8.72745
G1 X99.698 Y41.136 E8.76008
G1 X99.073 Y40.587 E8.79203
G1 X98.502 Y39.975 E8.82419
G1 X97.993 Y39.314 E8.85624
G1 X97.548 Y38.596 E8.88869
G1 X97.183 Y37.85 E8.92059
G1 X96.89 Y37.07 E8.9526
G1 X96.673 Y36.262 E8.98474
G1 X96.538 Y35.434 E9.01697
G1 X96.484 Y34.606 E9.04884
G1 X96.512 Y33.776 E9.08074
G1 X96.62 Y32.948 E9.11282
G1 X96.81 Y32.13 E9.14508
M204 S3000
M205 X10 Y10
G0 F3150 X97.354 Y32.265
M204 S1800
M205 X8 Y8
G1 F2400 X97.615 Y31.508 E9.17584
G1 X97.931 Y30.816 E9.20507
G1 X98.32 Y30.144 E9.23489
G1 X98.783 Y29.503 E9.26527
G1 X99.298 Y28.92 E9.29515
G1 X99.871 Y28.386 E9.32524
G1 X100.488 Y27.916 E9.35504
G1 X101.253 Y27.444 E9.38957
G1 X101.61 Y27.275 E9.40474
G1 X101.995 Y27.182 E9.41996
G1 X102.39 Y27.167 E9.43514
G1 X102.78 Y27.232 E9.45033
G1 X103.51 Y27.575 E9.48132
G1 X103.833 Y27.803 E9.49651
G1 X104.104 Y28.091 E9.5117
G1 X104.312 Y28.428 E9.52691
G1 X104.447 Y28.799 E9.54208
G1 X104.508 Y29.283 E9.56082
G1 X104.508 Y31.308 E9.63861
G1 X104.468 Y31.701 E9.65378
G1 X104.285 Y32.224 E9.67507
G1 X104.087 Y32.566 E9.69025
G1 X103.616 Y33.045 E9.71606
G1 X103.351 Y33.369 E9.73214
G1 X103.165 Y33.715 E9.74723
G1 X103.057 Y34.069 E9.76144
G1 X103.018 Y34.472 E9.777
G1 X103.055 Y34.857 E9.79186
G1 X103.165 Y35.224 E9.80657
G1 X103.349 Y35.569 E9.8216
G1 X103.596 Y35.87 E9.83655
G1 X103.899 Y36.119 E9.85162
G1 X104.242 Y36.303 E9.86657
G1 X104.61 Y36.415 E9.88135
G1 X105 Y36.452 E9.8964
G1 X105.396 Y36.414 E9.91168
G1 X105.752 Y36.307 E9.92596
G1 X106.1 Y36.12 E9.94114
G1 X106.406 Y35.869 E9.95634
G1 X106.647 Y35.576 E9.97092
G1 X106.833 Y35.229 E9.98604
G1 X106.943 Y34.866 E10.00061
G1 X106.982 Y34.472 E10.01582
G1 X106.945 Y34.082 E10.03087
G1 X106.833 Y33.711 E10.04576
G1 X106.653 Y33.374 E10.06043
G1 X106.209 Y32.89 E10.08567
G1 X105.94 Y32.6 E10.10086
G1 X105.669 Y32.119 E10.12207
G1 X105.542 Y31.744 E10.13728
G1 X105.493 Y31.308 E10.15413
G1 X105.493 Y29.314 E10.23073
G1 X105.533 Y28.921 E10.24591
G1 X105.651 Y28.543 E10.26112
G1 X105.842 Y28.197 E10.2763
G1 X106.099 Y27.896 E10.29151
G1 X106.725 Y27.467 E10.32066
G1 X107.083 Y27.3 E10.33584
G1 X107.468 Y27.208 E10.35104
G1 X107.863 Y27.196 E10.36622
G1 X108.253 Y27.263 E10.38143
G1 X108.665 Y27.43 E10.3985
G1 X109.254 Y27.751 E10.42427
G1 X109.955 Y28.242 E10.45715
G1 X110.539 Y28.756 E10.48704
G1 X111.077 Y29.332 E10.51732
G1 X111.561 Y29.967 E10.54799
G1 X111.97 Y30.63 E10.57791
G1 X112.305 Y31.315 E10.60721
G1 X112.584 Y32.06 E10.63777
G1 X112.784 Y32.815 E10.66777
G1 X112.908 Y33.585 E10.69773
G1 X112.956 Y34.354 E10.72733
G1 X112.929 Y35.134 E10.75731
G1 X112.829 Y35.897 E10.78687
G1 X112.648 Y36.668 E10.8173
G1 X112.393 Y37.414 E10.84758
G1 X112.081 Y38.105 E10.87671
G1 X111.686 Y38.788 E10.90702
G1 X111.223 Y39.431 E10.93746
G1 X110.713 Y40.01 E10.9671
G1 X110.137 Y40.547 E10.99735
G1 X109.503 Y41.031 E11.02799
G1 X108.84 Y41.44 E11.05792
G1 X108.151 Y41.777 E11.08738
G1 X107.41 Y42.054 E11.11777
G1 X106.655 Y42.254 E11.14778
G1 X105.882 Y42.378 E11.17785
G1 X105.107 Y42.426 E11.20768
G1 X104.32 Y42.398 E11.23793
G1 X103.56 Y42.297 E11.26738
G1 X102.792 Y42.115 E11.2977
G1 X102.04 Y41.857 E11.32825
G1 X101.344 Y41.538 E11.35766
G1 X100.674 Y41.15 E11.3874
G1 X100.032 Y40.686 E11.41783
G1 X99.448 Y40.171 E11.44774
G1 X98.917 Y39.599 E11.47772
G1 X98.442 Y38.978 E11.50776
G1 X98.029 Y38.308 E11.53799
G1 X97.689 Y37.611 E11.56779
G1 X97.416 Y36.88 E11.59776
G1 X97.216 Y36.125 E11.62777
G1 X97.092 Y35.352 E11.65784
G1 X97.044 Y34.578 E11.68763
G1 X97.071 Y33.803 E11.71742
G1 X97.174 Y33.029 E11.74742
G1 X97.354 Y32.265 E11.77757
M204 S3000
M205 X10 Y10
G0 F3150 X97.897 Y32.4
M204 S1800
M205 X8 Y8
G1 F2400 X98.142 Y31.697 E11.80617
G1 X98.437 Y31.054 E11.83335
G1 X98.801 Y30.431 E11.86106
G1 X99.232 Y29.837 E11.88926
G1 X99.713 Y29.295 E11.91709
G1 X100.248 Y28.801 E11.94507
G1 X100.822 Y28.365 E11.97276
G1 X101.542 Y27.924 E12.00519
G1 X101.846 Y27.787 E12.018
G1 X102.175 Y27.726 E12.03086
G1 X102.508 Y27.744 E12.04367
G1 X102.951 Y27.903 E12.06175
G1 X103.505 Y28.261 E12.08709
G1 X103.72 Y28.517 E12.09993
G1 X103.868 Y28.816 E12.11275
G1 X103.948 Y29.283 E12.13095
G1 X103.948 Y31.308 E12.20874
G1 X103.908 Y31.64 E12.22159
G1 X103.774 Y31.994 E12.23613
G1 X103.602 Y32.28 E12.24895
G1 X103.209 Y32.658 E12.26989
G1 X102.886 Y33.052 E12.28947
G1 X102.644 Y33.502 E12.30909
G1 X102.505 Y33.962 E12.32755
G1 X102.455 Y34.469 E12.34713
G1 X102.503 Y34.966 E12.36631
G1 X102.646 Y35.441 E12.38536
G1 X102.88 Y35.88 E12.40447
G1 X103.2 Y36.27 E12.42385
G1 X103.582 Y36.584 E12.44285
G1 X104.027 Y36.823 E12.46225
G1 X104.499 Y36.966 E12.4812
G1 X105 Y37.014 E12.50053
G1 X105.505 Y36.966 E12.52002
G1 X105.965 Y36.827 E12.53848
G1 X106.415 Y36.586 E12.55809
G1 X106.803 Y36.267 E12.57739
G1 X107.113 Y35.891 E12.59611
G1 X107.354 Y35.441 E12.61572
G1 X107.495 Y34.977 E12.63435
G1 X107.545 Y34.471 E12.65388
G1 X107.498 Y33.975 E12.67302
G1 X107.353 Y33.496 E12.69225
G1 X107.121 Y33.062 E12.71115
G1 X106.778 Y32.644 E12.73192
G1 X106.356 Y32.22 E12.7549
G1 X106.178 Y31.887 E12.76941
G1 X106.078 Y31.569 E12.78221
G1 X106.053 Y29.314 E12.86885
G1 X106.093 Y28.982 E12.88169
G1 X106.21 Y28.67 E12.89449
G1 X106.398 Y28.393 E12.90735
G1 X106.737 Y28.111 E12.92429
G1 X107.317 Y27.812 E12.94936
G1 X107.645 Y27.753 E12.96216
G1 X107.979 Y27.774 E12.97502
G1 X108.397 Y27.922 E12.99205
G1 X108.986 Y28.243 E13.01782
G1 X109.624 Y28.694 E13.04784
G1 X110.164 Y29.171 E13.07552
G1 X110.664 Y29.71 E13.10376
G1 X111.112 Y30.301 E13.13225
G1 X111.49 Y30.918 E13.16004
G1 X111.799 Y31.555 E13.18724
G1 X112.057 Y32.25 E13.21572
G1 X112.241 Y32.952 E13.2436
G1 X112.354 Y33.667 E13.27141
G1 X112.396 Y34.382 E13.29892
G1 X112.37 Y35.109 E13.32687
G1 X112.275 Y35.818 E13.35435
G1 X112.105 Y36.533 E13.38258
G1 X111.865 Y37.227 E13.41079
G1 X111.573 Y37.869 E13.43788
G1 X111.205 Y38.501 E13.46598
G1 X110.772 Y39.099 E13.49434
G1 X110.297 Y39.635 E13.52185
G1 X109.76 Y40.134 E13.55001
G1 X109.169 Y40.582 E13.5785
G1 X108.552 Y40.96 E13.6063
G1 X107.912 Y41.271 E13.63364
G1 X107.22 Y41.527 E13.66198
G1 X106.518 Y41.711 E13.68986
G1 X105.801 Y41.824 E13.71774
G1 X105.078 Y41.867 E13.74557
G1 X104.347 Y41.838 E13.77367
G1 X103.64 Y41.743 E13.80107
G1 X102.928 Y41.572 E13.8292
G1 X102.229 Y41.329 E13.85763
G1 X101.583 Y41.032 E13.88495
G1 X100.961 Y40.669 E13.91261
G1 X100.366 Y40.236 E13.94088
G1 X99.823 Y39.756 E13.96872
G1 X99.332 Y39.223 E13.99656
G1 X98.891 Y38.643 E14.02455
G1 X98.509 Y38.021 E14.05259
G1 X98.196 Y37.372 E14.08027
G1 X97.943 Y36.69 E14.10822
G1 X97.759 Y35.988 E14.13609
G1 X97.646 Y35.271 E14.16398
G1 X97.603 Y34.549 E14.19176
G1 X97.631 Y33.83 E14.2194
G1 X97.728 Y33.109 E14.24735
G1 X97.897 Y32.4 E14.27535
M204 S3000
M205 X10 Y10
G0 F3150 X98.441 Y32.535
M204 S1800
M205 X8 Y8
G1 F2400 X98.669 Y31.886 E14.30178
G1 X98.944 Y31.293 E14.32689
G1 X99.282 Y30.717 E14.35254
G1 X99.682 Y30.171 E14.37854
G1 X100.129 Y29.671 E14.40431
G1 X100.624 Y29.215 E14.43016
G1 X101.157 Y28.814 E14.45579
G1 X101.831 Y28.403 E14.48611
G1 X102.07 Y28.306 E14.49602
G1 X102.328 Y28.285 E14.50597
G1 X102.676 Y28.391 E14.51994
G1 X103.163 Y28.711 E14.54233
G1 X103.308 Y28.925 E14.55226
