;FLAVOR:Marlin
;TIME:388
;Filament used: 0.134172m
;Layer height: 0.1
;MINX:94.806
;MINY:17.297
;MINZ:0.15
;MAXX:115.194
;MAXY:36.692
;MAXZ:4.95
;Generated with Cura_SteamEngine 4.5.0
M140 S60
M105
M190 S60
M104 S198
M105
M109 S198
M82 ;absolute extrusion mode
G21 ;metric values
G90 ;absolute positioning
M82 ;set extruder to absolute mode
M107 ;start with the fan off
G28 X0 Y0 ;move X/Y to min endstops
G28 Z0 ;move Z to min endstops
G1 Z15.0 F105 ;move the platform down 15mm
G92 E0 ;zero the extruded length
G1 F200 E3 ;extrude 3mm of feed stock
G92 E0 ;zero the extruded length again
G1 F105
G0 Y20 F105
M117 Printing...
G5
G92 E0
G92 E0
G1 F2400 E-6
;LAYER_COUNT:49
;LAYER:0
M106 S255
M204 S3000
M205 X10 Y10
G1 F600 Z0.225
G0 F3150 X95.18 Y23.752 Z0.225
M204 S1800
M205 X8 Y8
;TYPE:SKIRT
G1 F600 Z0.15
G1 F2400 E0
G1 X95.506 Y22.78 E0.03938
G1 X95.904 Y21.889 E0.07687
G1 X96.387 Y21.039 E0.11443
G1 X96.981 Y20.2 E0.15392
G1 X97.636 Y19.446 E0.19229
G1 X98.365 Y18.756 E0.23085
G1 X99.182 Y18.123 E0.27055
G1 X99.669 Y17.81 E0.29279
G1 X100.195 Y17.567 E0.31505
G1 X100.749 Y17.399 E0.33729
G1 X101.322 Y17.308 E0.35958
G1 X101.901 Y17.297 E0.38182
G1 X102.476 Y17.366 E0.40407
G1 X103.036 Y17.514 E0.42632
G1 X103.578 Y17.74 E0.44888
G1 X104.384 Y18.191 E0.48436
G1 X104.837 Y18.552 E0.50661
G1 X105.013 Y18.737 E0.51642
G1 X105.579 Y18.245 E0.54523
G1 X106.046 Y17.958 E0.56629
G1 X106.874 Y17.567 E0.60146
G1 X107.431 Y17.408 E0.62372
G1 X108.005 Y17.328 E0.64598
G1 X108.584 Y17.326 E0.66822
G1 X109.158 Y17.405 E0.69048
G1 X109.716 Y17.562 E0.71275
G1 X110.247 Y17.794 E0.73501
G1 X111.15 Y18.374 E0.77624
G1 X111.6 Y18.726 E0.79819
G1 X112.033 Y19.115 E0.82055
G1 X112.728 Y19.847 E0.85932
G1 X113.342 Y20.634 E0.89767
G1 X113.882 Y21.491 E0.93658
G1 X114.33 Y22.386 E0.97503
G1 X114.691 Y23.328 E1.01378
G1 X114.956 Y24.294 E1.05226
G1 X115.124 Y25.286 E1.09091
G1 X115.194 Y26.277 E1.12908
G1 X115.166 Y27.274 E1.16739
G1 X115.047 Y28.241 E1.20482
G1 X114.822 Y29.237 E1.24405
G1 X114.504 Y30.192 E1.28271
G1 X114.112 Y31.078 E1.31993
G1 X113.61 Y31.962 E1.35899
G1 X113.024 Y32.79 E1.39795
G1 X112.372 Y33.543 E1.43622
G1 X111.645 Y34.232 E1.4747
G1 X110.847 Y34.851 E1.51349
G1 X109.999 Y35.385 E1.55199
G1 X109.109 Y35.83 E1.59021
G1 X108.171 Y36.189 E1.6288
G1 X107.204 Y36.454 E1.66732
G1 X106.208 Y36.622 E1.70612
G1 X105.22 Y36.692 E1.74417
G1 X104.21 Y36.663 E1.78298
G1 X103.241 Y36.542 E1.8205
G1 X102.248 Y36.316 E1.85962
G1 X101.287 Y35.994 E1.89855
G1 X100.388 Y35.592 E1.93638
G1 X99.529 Y35.103 E1.97435
G1 X98.706 Y34.521 E2.01308
G1 X97.949 Y33.864 E2.05158
G1 X97.26 Y33.136 E2.09009
G1 X96.642 Y32.338 E2.12886
G1 X96.109 Y31.491 E2.16731
G1 X95.663 Y30.594 E2.20579
G1 X95.309 Y29.668 E2.24387
G1 X95.044 Y28.702 E2.28235
G1 X94.876 Y27.706 E2.32116
G1 X94.806 Y26.72 E2.35913
G1 X94.834 Y25.723 E2.39744
G1 X94.957 Y24.736 E2.43565
G1 X95.18 Y23.752 E2.47441
M204 S3000
M205 X10 Y10
G0 F3150 X95.724 Y23.888
M204 S1800
M205 X8 Y8
G1 F2400 X96.034 Y22.969 E2.51167
G1 X96.411 Y22.128 E2.54708
G1 X96.868 Y21.325 E2.58257
G1 X97.431 Y20.533 E2.6199
G1 X98.052 Y19.821 E2.65619
G1 X98.741 Y19.171 E2.69258
G1 X99.516 Y18.572 E2.73021
G1 X99.971 Y18.283 E2.75091
G1 X100.464 Y18.065 E2.77162
G1 X100.984 Y17.921 E2.79235
G1 X101.52 Y17.856 E2.81309
G1 X102.059 Y17.871 E2.83381
G1 X102.59 Y17.965 E2.85452
G1 X103.326 Y18.241 E2.88472
G1 X104.097 Y18.673 E2.91867
G1 X104.513 Y19.016 E2.93938
G1 X104.874 Y19.416 E2.96008
G1 X105.007 Y19.616 E2.96931
G1 X105.293 Y19.246 E2.98727
G1 X105.681 Y18.872 E3.00797
G1 X106.307 Y18.454 E3.03689
G1 X107.1 Y18.081 E3.07056
G1 X107.621 Y17.941 E3.09128
G1 X108.156 Y17.88 E3.11197
G1 X108.695 Y17.898 E3.13268
G1 X109.226 Y17.996 E3.15343
G1 X109.736 Y18.171 E3.17414
G1 X110.345 Y18.504 E3.2008
G1 X110.836 Y18.837 E3.22359
G1 X111.659 Y19.531 E3.26495
G1 X112.314 Y20.224 E3.30158
G1 X112.894 Y20.97 E3.33788
G1 X113.402 Y21.779 E3.37458
G1 X113.824 Y22.626 E3.41093
G1 X114.164 Y23.518 E3.4476
G1 X114.413 Y24.431 E3.48396
G1 X114.57 Y25.368 E3.52045
G1 X114.634 Y26.305 E3.55653
G1 X114.607 Y27.248 E3.59277
G1 X114.493 Y28.162 E3.62816
G1 X114.278 Y29.101 E3.66516
G1 X113.976 Y30.004 E3.70174
G1 X113.604 Y30.842 E3.73696
G1 X113.129 Y31.676 E3.77383
G1 X112.574 Y32.458 E3.81067
G1 X111.957 Y33.168 E3.84681
G1 X111.268 Y33.818 E3.88319
G1 X110.513 Y34.402 E3.91986
G1 X109.71 Y34.905 E3.95626
G1 X108.869 Y35.324 E3.99236
G1 X107.981 Y35.662 E4.02886
G1 X107.067 Y35.911 E4.06525
G1 X106.127 Y36.068 E4.10186
G1 X105.192 Y36.132 E4.13786
G1 X104.238 Y36.104 E4.17453
G1 X103.321 Y35.988 E4.21003
G1 X102.384 Y35.773 E4.24696
G1 X101.475 Y35.467 E4.28381
G1 X100.627 Y35.086 E4.31952
G1 X99.815 Y34.622 E4.35545
G1 X99.039 Y34.07 E4.39203
G1 X98.324 Y33.448 E4.42844
G1 X97.674 Y32.759 E4.46483
G1 X97.091 Y32.004 E4.50147
G1 X96.589 Y31.203 E4.53779
G1 X96.17 Y30.355 E4.57412
G1 X95.836 Y29.478 E4.61017
G1 X95.587 Y28.565 E4.64653
G1 X95.43 Y27.625 E4.68314
G1 X95.366 Y26.691 E4.7191
G1 X95.393 Y25.75 E4.75527
G1 X95.511 Y24.816 E4.79143
G1 X95.724 Y23.888 E4.82801
M204 S3000
M205 X10 Y10
G0 F3150 X96.267 Y24.023
M204 S1800
M205 X8 Y8
G1 F2400 X96.561 Y23.158 E4.8631
G1 X96.918 Y22.367 E4.89644
G1 X97.35 Y21.611 E4.92989
G1 X97.881 Y20.867 E4.965
G1 X98.467 Y20.197 E4.9992
G1 X99.118 Y19.585 E5.03352
G1 X99.851 Y19.022 E5.06903
G1 X100.271 Y18.758 E5.08809
G1 X100.728 Y18.566 E5.10713
G1 X101.21 Y18.45 E5.12617
G1 X101.705 Y18.412 E5.14524
G1 X102.68 Y18.575 E5.18322
G1 X103.383 Y18.896 E5.21291
G1 X103.806 Y19.154 E5.23194
G1 X104.183 Y19.476 E5.25099
G1 X104.503 Y19.855 E5.27004
G1 X104.758 Y20.28 E5.28908
G1 X104.942 Y20.741 E5.30815
G1 X105.004 Y21.021 E5.31917
G1 X105.072 Y20.73 E5.33065
G1 X105.262 Y20.272 E5.3497
G1 X105.522 Y19.85 E5.36874
G1 X105.847 Y19.475 E5.3878
G1 X106.228 Y19.158 E5.40684
G1 X106.866 Y18.792 E5.4351
G1 X107.322 Y18.597 E5.45415
G1 X107.804 Y18.478 E5.47322
G1 X108.298 Y18.437 E5.49226
G1 X108.793 Y18.476 E5.51134
G1 X109.274 Y18.594 E5.53036
G1 X109.731 Y18.788 E5.54943
G1 X110.522 Y19.301 E5.58565
G1 X111.284 Y19.948 E5.62405
G1 X111.9 Y20.601 E5.65854
G1 X112.446 Y21.306 E5.69279
G1 X112.922 Y22.068 E5.72731
G1 X113.318 Y22.867 E5.76157
G1 X113.637 Y23.708 E5.79612
G1 X113.87 Y24.569 E5.83038
G1 X114.016 Y25.449 E5.86465
G1 X114.075 Y26.334 E5.89873
G1 X114.047 Y27.221 E5.93282
G1 X113.938 Y28.083 E5.96619
G1 X113.735 Y28.966 E6.001
G1 X113.448 Y29.817 E6.0355
G1 X113.096 Y30.606 E6.06869
G1 X112.648 Y31.389 E6.10335
G1 X112.124 Y32.125 E6.13805
G1 X111.541 Y32.792 E6.17208
G1 X110.891 Y33.404 E6.20638
G1 X110.179 Y33.952 E6.2409
G1 X109.421 Y34.426 E6.27524
G1 X108.63 Y34.817 E6.30914
G1 X107.791 Y35.135 E6.3436
G1 X106.929 Y35.368 E6.37791
G1 X106.045 Y35.514 E6.41233
G1 X105.163 Y35.573 E6.44628
G1 X104.265 Y35.544 E6.4808
G1 X103.4 Y35.434 E6.5143
G1 X102.52 Y35.23 E6.549
G1 X101.663 Y34.939 E6.58377
G1 X100.866 Y34.579 E6.61736
G1 X100.102 Y34.141 E6.65119
G1 X99.372 Y33.62 E6.68564
G1 X98.7 Y33.033 E6.71992
G1 X98.089 Y32.383 E6.75419
G1 X97.541 Y31.67 E6.78874
G1 X97.069 Y30.914 E6.82298
G1 X96.676 Y30.116 E6.85715
G1 X96.363 Y29.288 E6.89115
G1 X96.13 Y28.427 E6.92542
G1 X95.984 Y27.543 E6.95984
G1 X95.925 Y26.663 E6.99372
G1 X95.953 Y25.777 E7.02777
G1 X96.066 Y24.896 E7.06189
G1 X96.267 Y24.023 E7.09631
M204 S3000
M205 X10 Y10
G0 F3150 X96.81 Y24.158
M204 S1800
M205 X8 Y8
G1 F2400 X97.088 Y23.347 E7.12924
G1 X97.424 Y22.605 E7.16053
G1 X97.831 Y21.897 E7.1919
G1 X98.332 Y21.2 E7.22488
G1 X98.883 Y20.572 E7.25697
G1 X99.495 Y20 E7.28915
G1 X100.185 Y19.471 E7.32255
G1 X100.567 Y19.236 E7.33978
G1 X100.985 Y19.073 E7.35702
G1 X101.425 Y18.986 E7.37425
G1 X101.874 Y18.979 E7.3915
G1 X102.823 Y19.241 E7.42932
G1 X103.512 Y19.632 E7.45975
G1 X103.845 Y19.933 E7.477
G1 X104.12 Y20.287 E7.49422
G1 X104.327 Y20.685 E7.51145
G1 X104.461 Y21.113 E7.52868
G1 X104.518 Y21.647 E7.54931
G1 X104.518 Y23.668 E7.62695
G1 X104.478 Y24.115 E7.64419
G1 X104.36 Y24.547 E7.66139
G1 X104.099 Y25.059 E7.68347
G1 X103.789 Y25.528 E7.70506
G1 X103.56 Y25.974 E7.72432
G1 X103.488 Y26.344 E7.7388
G1 X103.487 Y26.649 E7.75052
G1 X103.546 Y26.958 E7.76261
G1 X103.656 Y27.232 E7.77395
G1 X103.823 Y27.488 E7.78569
G1 X104.017 Y27.688 E7.79639
G1 X104.253 Y27.85 E7.80739
G1 X104.501 Y27.956 E7.81775
G1 X104.765 Y28.01 E7.8281
G1 X105.034 Y28.01 E7.83844
G1 X105.297 Y27.957 E7.84874
G1 X105.545 Y27.853 E7.85907
G1 X105.775 Y27.695 E7.86979
G1 X105.973 Y27.492 E7.88069
G1 X106.137 Y27.241 E7.8922
G1 X106.252 Y26.957 E7.90397
G1 X106.312 Y26.652 E7.91592
G1 X106.313 Y26.344 E7.92775
G1 X106.255 Y26.043 E7.93952
G1 X106.138 Y25.752 E7.95157
G1 X105.699 Y24.99 E7.98536
G1 X105.566 Y24.561 E8.00261
G1 X105.51 Y24.06 E8.02198
G1 X105.484 Y21.702 E8.11256
G1 X105.519 Y21.255 E8.12979
G1 X105.633 Y20.821 E8.14703
G1 X105.822 Y20.414 E8.16427
G1 X106.08 Y20.047 E8.1815
G1 X106.399 Y19.732 E8.19872
G1 X106.829 Y19.444 E8.2186
G1 X107.541 Y19.115 E8.24873
G1 X107.979 Y19.018 E8.26597
G1 X108.427 Y19 E8.28319
G1 X108.872 Y19.062 E8.30045
G1 X109.298 Y19.202 E8.31768
G1 X109.716 Y19.431 E8.33599
G1 X110.207 Y19.764 E8.35878
G1 X110.91 Y20.364 E8.39428
G1 X111.485 Y20.978 E8.4266
G1 X111.998 Y21.642 E8.45883
G1 X112.442 Y22.356 E8.49113
G1 X112.813 Y23.107 E8.52331
G1 X113.111 Y23.898 E8.55578
G1 X113.327 Y24.706 E8.58791
G1 X113.462 Y25.531 E8.62002
G1 X113.516 Y26.362 E8.65202
G1 X113.488 Y27.194 E8.68399
G1 X113.384 Y28.004 E8.71537
G1 X113.192 Y28.831 E8.74798
G1 X112.921 Y29.63 E8.78039
G1 X112.589 Y30.369 E8.81152
G1 X112.167 Y31.103 E8.84404
G1 X111.673 Y31.792 E8.87661
G1 X111.125 Y32.417 E8.90854
G1 X110.514 Y32.99 E8.94072
G1 X109.845 Y33.503 E8.9731
G1 X109.132 Y33.946 E9.00535
G1 X108.39 Y34.311 E9.03712
G1 X107.6 Y34.608 E9.06954
G1 X106.792 Y34.825 E9.10168
G1 X105.964 Y34.96 E9.13391
G1 X105.135 Y35.014 E9.16582
G1 X104.292 Y34.985 E9.19822
G1 X103.48 Y34.879 E9.22968
G1 X102.656 Y34.687 E9.26218
G1 X101.852 Y34.412 E9.29483
G1 X101.105 Y34.073 E9.32634
G1 X100.388 Y33.659 E9.35815
G1 X99.704 Y33.17 E9.39045
G1 X99.075 Y32.617 E9.42262
G1 X98.504 Y32.006 E9.45475
G1 X97.99 Y31.336 E9.48719
G1 X97.549 Y30.626 E9.51929
G1 X97.183 Y29.878 E9.55129
G1 X96.89 Y29.098 E9.58329
G1 X96.673 Y28.29 E9.61543
G1 X96.538 Y27.462 E9.64766
G1 X96.484 Y26.634 E9.67954
G1 X96.512 Y25.804 E9.71144
G1 X96.62 Y24.976 E9.74352
G1 X96.81 Y24.158 E9.77578
M204 S3000
M205 X10 Y10
G0 F3150 X97.354 Y24.293
M204 S1800
M205 X8 Y8
G1 F2400 X97.615 Y23.536 E9.80654
G1 X97.931 Y22.844 E9.83576
G1 X98.313 Y22.183 E9.86509
G1 X98.782 Y21.533 E9.89588
G1 X99.298 Y20.948 E9.92585
G1 X99.871 Y20.414 E9.95594
G1 X100.52 Y19.92 E9.98727
G1 X100.859 Y19.717 E10.00245
G1 X101.232 Y19.586 E10.01764
G1 X101.624 Y19.533 E10.03283
G1 X102.019 Y19.56 E10.04804
G1 X102.571 Y19.741 E10.07036
G1 X103.213 Y20.109 E10.09878
G1 X103.497 Y20.384 E10.11397
G1 X103.72 Y20.71 E10.12914
G1 X103.873 Y21.075 E10.14435
G1 X103.958 Y21.647 E10.16656
G1 X103.958 Y23.668 E10.2442
G1 X103.918 Y24.061 E10.25937
G1 X103.8 Y24.439 E10.27459
G1 X103.308 Y25.239 E10.31067
G1 X103.055 Y25.721 E10.33158
G1 X102.928 Y26.292 E10.35405
G1 X102.927 Y26.701 E10.36976
G1 X103.006 Y27.115 E10.38595
G1 X103.159 Y27.495 E10.40169
G1 X103.382 Y27.839 E10.41744
G1 X103.654 Y28.118 E10.43241
G1 X103.98 Y28.342 E10.4476
G1 X104.337 Y28.494 E10.46251
G1 X104.706 Y28.569 E10.47697
G1 X105.091 Y28.57 E10.49176
G1 X105.461 Y28.495 E10.50626
G1 X105.814 Y28.347 E10.52097
G1 X106.14 Y28.124 E10.53614
G1 X106.41 Y27.847 E10.551
G1 X106.636 Y27.501 E10.56688
G1 X106.79 Y27.121 E10.58263
G1 X106.872 Y26.705 E10.59892
G1 X106.873 Y26.296 E10.61463
G1 X106.793 Y25.878 E10.63098
G1 X106.64 Y25.498 E10.64672
G1 X106.2 Y24.733 E10.68062
G1 X106.096 Y24.352 E10.69579
G1 X106.044 Y21.696 E10.79784
G1 X106.08 Y21.302 E10.81304
G1 X106.194 Y20.923 E10.82824
G1 X106.381 Y20.575 E10.84342
G1 X106.635 Y20.271 E10.85864
G1 X107.09 Y19.94 E10.88025
G1 X107.755 Y19.635 E10.90836
G1 X108.144 Y19.563 E10.92355
G1 X108.539 Y19.571 E10.93873
G1 X108.925 Y19.659 E10.95394
G1 X109.402 Y19.895 E10.97438
G1 X109.893 Y20.228 E10.99718
G1 X110.536 Y20.781 E11.02976
G1 X111.071 Y21.355 E11.0599
G1 X111.549 Y21.978 E11.09006
G1 X111.962 Y22.645 E11.1202
G1 X112.307 Y23.348 E11.15028
G1 X112.584 Y24.088 E11.18064
G1 X112.784 Y24.843 E11.21064
G1 X112.908 Y25.613 E11.2406
G1 X112.956 Y26.391 E11.27055
G1 X112.929 Y27.167 E11.30038
G1 X112.829 Y27.925 E11.32975
G1 X112.648 Y28.696 E11.36017
G1 X112.393 Y29.442 E11.39046
G1 X112.081 Y30.133 E11.41958
G1 X111.686 Y30.816 E11.44989
G1 X111.223 Y31.459 E11.48033
G1 X110.71 Y32.042 E11.51016
G1 X110.137 Y32.576 E11.54025
G1 X109.511 Y33.053 E11.57049
G1 X108.843 Y33.467 E11.60068
G1 X108.151 Y33.805 E11.63026
G1 X107.41 Y34.082 E11.66065
G1 X106.655 Y34.282 E11.69065
G1 X105.882 Y34.406 E11.72073
G1 X105.107 Y34.454 E11.75056
G1 X104.32 Y34.426 E11.78081
G1 X103.56 Y34.325 E11.81026
G1 X102.792 Y34.143 E11.84058
G1 X102.04 Y33.885 E11.87112
G1 X101.344 Y33.566 E11.90054
G1 X100.674 Y33.178 E11.93028
G1 X100.037 Y32.719 E11.96044
G1 X99.451 Y32.202 E11.99046
G1 X98.918 Y31.63 E12.0205
G1 X98.439 Y31.002 E12.05084
G1 X98.03 Y30.338 E12.0808
G1 X97.689 Y29.639 E12.11067
G1 X97.416 Y28.908 E12.14065
G1 X97.216 Y28.153 E12.17065
G1 X97.092 Y27.38 E12.20073
G1 X97.044 Y26.606 E12.23052
G1 X97.071 Y25.831 E12.26031
G1 X97.174 Y25.057 E12.2903
G1 X97.354 Y24.293 E12.32046
M204 S3000
M205 X10 Y10
G0 F3150 X97.897 Y24.428
M204 S1800
M205 X8 Y8
G1 F2400 X98.142 Y23.725 E12.34906
G1 X98.437 Y23.082 E12.37623
G1 X98.794 Y22.469 E12.40348
G1 X99.232 Y21.866 E12.43211
G1 X99.713 Y21.323 E12.45998
G1 X100.248 Y20.829 E12.48795
G1 X100.854 Y20.369 E12.51718
G1 X101.144 Y20.203 E12.53002
G1 X101.465 Y20.11 E12.54286
G1 X101.799 Y20.096 E12.5557
G1 X102.627 Y20.396 E12.58953
G1 X102.906 Y20.581 E12.60239
G1 X103.132 Y20.827 E12.61522
G1 X103.294 Y21.119 E12.62805
G1 X103.383 Y21.441 E12.64088
G1 X103.398 Y23.668 E12.72644
G1 X103.358 Y24 E12.73928
G1 X103.165 Y24.441 E12.75778
G1 X102.826 Y24.954 E12.7814
G1 X102.541 Y25.495 E12.80489
G1 X102.368 Y26.235 E12.83408
G1 X102.367 Y26.754 E12.85402
G1 X102.467 Y27.275 E12.8744
G1 X102.659 Y27.753 E12.89419
G1 X102.942 Y28.19 E12.91419
G1 X103.291 Y28.548 E12.93339
G1 X103.711 Y28.837 E12.95298
G1 X104.164 Y29.029 E12.97188
G1 X104.652 Y29.129 E12.99102
G1 X105.148 Y29.131 E13.01007
G1 X105.627 Y29.033 E13.02885
G1 X106.081 Y28.842 E13.04777
G1 X106.5 Y28.556 E13.06726
G1 X106.851 Y28.197 E13.08655
G1 X107.135 Y27.761 E13.10654
G1 X107.33 Y27.281 E13.12644
G1 X107.432 Y26.762 E13.14676
G1 X107.433 Y26.243 E13.1667
G1 X107.333 Y25.72 E13.18715
G1 X107.14 Y25.239 E13.20706
G1 X106.85 Y24.785 E13.22776
G1 X106.705 Y24.484 E13.24059
G1 X106.63 Y24.047 E13.25763
G1 X106.604 Y21.689 E13.34822
G1 X106.64 Y21.357 E13.36104
G1 X106.754 Y21.043 E13.37388
G1 X106.939 Y20.765 E13.38671
G1 X107.351 Y20.435 E13.40698
G1 X107.961 Y20.159 E13.4327
G1 X108.293 Y20.117 E13.44556
G1 X108.625 Y20.155 E13.4584
G1 X109.088 Y20.358 E13.47782
G1 X109.579 Y20.691 E13.50061
G1 X110.162 Y21.198 E13.53029
G1 X110.657 Y21.732 E13.55826
G1 X111.101 Y22.313 E13.58635
G1 X111.482 Y22.933 E13.61431
G1 X111.801 Y23.589 E13.64233
G1 X112.057 Y24.278 E13.67057
G1 X112.241 Y24.98 E13.69844
G1 X112.354 Y25.695 E13.72625
G1 X112.397 Y26.419 E13.75411
G1 X112.369 Y27.14 E13.78183
G1 X112.275 Y27.846 E13.80919
G1 X112.105 Y28.561 E13.83743
G1 X111.865 Y29.255 E13.86563
G1 X111.573 Y29.897 E13.89273
G1 X111.205 Y30.529 E13.92082
G1 X110.772 Y31.127 E13.94919
G1 X110.294 Y31.666 E13.97686
G1 X109.76 Y32.162 E14.00486
G1 X109.177 Y32.604 E14.03296
G1 X108.554 Y32.987 E14.06106
G1 X107.912 Y33.299 E14.08848
G1 X107.22 Y33.555 E14.11682
G1 X106.518 Y33.739 E14.1447
G1 X105.801 Y33.852 E14.17258
G1 X105.078 Y33.895 E14.20041
G1 X104.347 Y33.866 E14.22851
G1 X103.64 Y33.771 E14.25592
G1 X102.928 Y33.6 E14.28405
G1 X102.229 Y33.357 E14.31247
G1 X101.583 Y33.06 E14.33979
G1 X100.961 Y32.697 E14.36745
G1 X100.37 Y32.269 E14.39549
G1 X99.826 Y31.787 E14.42341
