;FLAVOR:Marlin
;TIME:9773
;Filament used: 6.54841m
;Layer height: 0.18
;MINX:55.307
;MINY:19.459
;MINZ:0.15
;MAXX:154.693
;MAXY:147.817
;MAXZ:14.265
;Generated with Cura_SteamEngine 4.5.0
M140 S60
M105
M190 S60
M104 S205
M105
M109 S205
M82 ;absolute extrusion mode
G21 ;metric values
G90 ;absolute positioning
M82 ;set extruder to absolute mode
M107 ;start with the fan off
G28 X0 Y0 ;move X/Y to min endstops
G28 Z0 ;move Z to min endstops
G1 Z15.0 F105 ;move the platform down 15mm
G92 E0 ;zero the extruded length
G1 F200 E3 ;extrude 3mm of feed stock
G92 E0 ;zero the extruded length again
G1 F105
G0 Y20 F105
M117 Printing...
G5
G92 E0
G92 E0
G1 F2400 E-6
;LAYER_COUNT:79
;LAYER:0
M106 S255
M204 S3000
M205 X10 Y10
G1 F600 Z0.225
G0 F1890 X56.197 Y24.704 Z0.225
M204 S1800
M205 X8 Y8
;TYPE:SKIRT
G1 F600 Z0.15
G1 F2400 E0
G1 X56.585 Y23.971 E0.03186
G1 X57.126 Y23.156 E0.06944
G1 X57.647 Y22.518 E0.10108
G1 X58.337 Y21.824 E0.13868
G1 X58.973 Y21.298 E0.17038
G1 X59.789 Y20.75 E0.20814
G1 X60.512 Y20.361 E0.23968
G1 X61.417 Y19.983 E0.27736
G1 X62.012 Y19.786 E0.30144
G1 X62.513 Y19.66 E0.32128
G1 X63.128 Y19.553 E0.34526
G1 X64.078 Y19.46 E0.38193
G1 X64.882 Y19.459 E0.41282
G1 X65.855 Y19.551 E0.45036
G1 X66.668 Y19.709 E0.48218
G1 X67.607 Y19.991 E0.51984
G1 X68.366 Y20.303 E0.55137
G1 X69.232 Y20.762 E0.58902
G1 X69.919 Y21.218 E0.62069
G1 X70.678 Y21.837 E0.65832
G1 X71.264 Y22.42 E0.69007
G1 X71.885 Y23.173 E0.72757
G1 X72.233 Y23.662 E0.75062
G1 X72.401 Y23.938 E0.76304
G1 X137.609 Y23.938 E3.26803
G1 X138.13 Y23.152 E3.30426
G1 X138.652 Y22.513 E3.33595
G1 X139.337 Y21.824 E3.37328
G1 X139.973 Y21.298 E3.40498
G1 X140.789 Y20.75 E3.44274
G1 X141.511 Y20.362 E3.47423
G1 X142.413 Y19.985 E3.51179
G1 X143.204 Y19.743 E3.54356
G1 X144.168 Y19.549 E3.58134
G1 X144.975 Y19.466 E3.6125
G1 X145.947 Y19.461 E3.64984
G1 X146.774 Y19.539 E3.68175
G1 X147.737 Y19.727 E3.71945
G1 X148.529 Y19.965 E3.75121
G1 X149.441 Y20.34 E3.7891
G1 X150.166 Y20.724 E3.82061
G1 X150.986 Y21.268 E3.85841
G1 X151.627 Y21.792 E3.89022
G1 X152.312 Y22.474 E3.92735
G1 X152.832 Y23.103 E3.9587
G1 X153.384 Y23.922 E3.99665
G1 X153.776 Y24.649 E4.02837
G1 X154.153 Y25.551 E4.06593
G1 X154.395 Y26.342 E4.09771
G1 X154.589 Y27.306 E4.13548
G1 X154.672 Y28.113 E4.16665
G1 X154.677 Y29.085 E4.20399
G1 X154.599 Y29.912 E4.2359
G1 X154.411 Y30.875 E4.27359
G1 X154.175 Y31.664 E4.30523
G1 X153.802 Y32.573 E4.34297
G1 X153.416 Y33.301 E4.37463
G1 X152.87 Y34.124 E4.41257
G1 X152.346 Y34.765 E4.44437
G1 X151.664 Y35.45 E4.48151
G1 X151.035 Y35.97 E4.51286
G1 X150.213 Y36.524 E4.55094
G1 X150.2 Y130.745 E8.17048
G1 X150.982 Y131.264 E8.20653
G1 X151.622 Y131.787 E8.23829
G1 X152.315 Y132.477 E8.27585
G1 X152.835 Y133.107 E8.30723
G1 X153.386 Y133.925 E8.34512
G1 X153.78 Y134.655 E8.37699
G1 X154.156 Y135.557 E8.41453
G1 X154.353 Y136.152 E8.43861
G1 X154.479 Y136.655 E8.45853
G1 X154.585 Y137.264 E8.48227
G1 X154.678 Y138.207 E8.51868
G1 X154.693 Y138.814 E8.542
G1 X154.669 Y139.33 E8.56184
G1 X154.593 Y139.955 E8.58603
G1 X154.406 Y140.894 E8.62281
G1 X154.174 Y141.665 E8.65374
G1 X153.801 Y142.576 E8.69156
G1 X153.513 Y143.151 E8.71626
G1 X153.247 Y143.593 E8.73608
G1 X152.898 Y144.087 E8.75932
G1 X152.299 Y144.819 E8.79565
G1 X151.721 Y145.4 E8.82713
G1 X150.963 Y146.025 E8.86487
G1 X150.475 Y146.371 E8.88786
G1 X149.469 Y146.925 E8.93197
G1 X148.574 Y147.295 E8.96918
G1 X147.806 Y147.53 E9.00003
G1 X146.837 Y147.727 E9.03802
G1 X146.017 Y147.811 E9.06968
G1 X145.049 Y147.815 E9.10687
G1 X144.229 Y147.737 E9.13851
G1 X143.264 Y147.549 E9.17628
G1 X142.471 Y147.312 E9.20807
G1 X141.563 Y146.939 E9.24578
G1 X140.837 Y146.554 E9.27735
G1 X140.014 Y146.008 E9.31529
G1 X139.373 Y145.484 E9.3471
G1 X138.688 Y144.802 E9.38423
G1 X138.168 Y144.173 E9.41558
G1 X137.614 Y143.351 E9.45366
G1 X72.391 Y143.338 E11.95923
G1 X71.87 Y144.124 E11.99546
G1 X71.346 Y144.765 E12.02726
G1 X70.664 Y145.45 E12.0644
G1 X70.035 Y145.97 E12.09575
G1 X69.213 Y146.524 E12.13383
G1 X68.482 Y146.918 E12.16573
G1 X67.575 Y147.296 E12.20348
G1 X66.991 Y147.49 E12.22712
G1 X66.502 Y147.614 E12.2465
G1 X65.877 Y147.723 E12.27087
G1 X64.921 Y147.816 E12.30777
G1 X64.116 Y147.817 E12.33869
G1 X63.138 Y147.724 E12.37643
G1 X62.33 Y147.566 E12.40806
G1 X61.399 Y147.287 E12.4454
G1 X60.638 Y146.975 E12.47699
G1 X59.772 Y146.516 E12.51464
G1 X59.087 Y146.062 E12.54621
G1 X58.327 Y145.443 E12.58387
G1 X57.74 Y144.859 E12.61568
G1 X57.112 Y144.098 E12.65358
G1 X56.651 Y143.412 E12.68533
G1 X56.186 Y142.546 E12.72309
G1 X55.934 Y141.982 E12.74682
G1 X55.763 Y141.507 E12.76621
G1 X55.595 Y140.901 E12.79037
G1 X55.408 Y139.958 E12.8273
G1 X55.328 Y139.163 E12.858
G1 X55.323 Y138.193 E12.89526
G1 X55.402 Y137.362 E12.92733
G1 X55.593 Y136.389 E12.96542
G1 X55.829 Y135.603 E12.99695
G1 X56.199 Y134.702 E13.03436
G1 X56.584 Y133.975 E13.06597
G1 X57.13 Y133.152 E13.10391
G1 X57.652 Y132.513 E13.1356
G1 X58.337 Y131.824 E13.17293
G1 X58.973 Y131.298 E13.20463
G1 X59.789 Y130.75 E13.24239
G1 X59.8 Y36.53 E16.8619
G1 X59.021 Y36.014 E16.89779
G1 X58.378 Y35.489 E16.92968
G1 X57.688 Y34.802 E16.96709
G1 X57.168 Y34.173 E16.99844
G1 X56.616 Y33.354 E17.03638
G1 X56.224 Y32.628 E17.06807
G1 X55.843 Y31.717 E17.10601
G1 X55.645 Y31.123 E17.13006
G1 X55.522 Y30.635 E17.14939
G1 X55.415 Y30.015 E17.17356
G1 X55.322 Y29.059 E17.21046
G1 X55.307 Y28.456 E17.23363
G1 X55.331 Y27.941 E17.25344
G1 X55.407 Y27.318 E17.27755
G1 X55.592 Y26.387 E17.31401
G1 X55.824 Y25.616 E17.34494
G1 X56.197 Y24.704 E17.3828
M204 S3000
M205 X10 Y10
G0 F1890 X56.715 Y24.916
M204 S1800
M205 X8 Y8
G1 F2400 X57.051 Y24.281 E17.41039
G1 X57.592 Y23.466 E17.44797
G1 X58.044 Y22.913 E17.47541
G1 X58.734 Y22.219 E17.513
G1 X59.286 Y21.763 E17.54051
G1 X60.102 Y21.215 E17.57827
G1 X60.728 Y20.878 E17.60558
G1 X61.633 Y20.5 E17.64326
G1 X62.148 Y20.329 E17.6641
G1 X62.649 Y20.203 E17.68395
G1 X63.182 Y20.11 E17.70473
G1 X64.132 Y20.017 E17.7414
G1 X64.83 Y20.016 E17.76822
G1 X65.803 Y20.108 E17.80576
G1 X66.507 Y20.246 E17.83332
G1 X67.446 Y20.528 E17.87098
G1 X68.104 Y20.798 E17.89831
G1 X68.97 Y21.257 E17.93596
G1 X69.566 Y21.652 E17.96343
G1 X70.325 Y22.271 E18.00105
G1 X70.832 Y22.776 E18.02854
G1 X71.453 Y23.529 E18.06604
G1 X71.755 Y23.953 E18.08603
G1 X72.016 Y24.382 E18.10532
G1 X72.075 Y24.498 E18.11032
G1 X137.938 Y24.498 E20.64048
G1 X138.597 Y23.462 E20.68765
G1 X139.049 Y22.908 E20.71512
G1 X139.734 Y22.219 E20.75244
G1 X140.286 Y21.763 E20.77994
G1 X141.102 Y21.215 E20.8177
G1 X141.727 Y20.879 E20.84496
G1 X142.629 Y20.502 E20.88252
G1 X143.315 Y20.292 E20.91008
G1 X144.279 Y20.098 E20.94785
G1 X144.978 Y20.026 E20.97485
G1 X145.95 Y20.021 E21.01219
G1 X146.666 Y20.088 E21.03981
G1 X147.629 Y20.276 E21.07751
G1 X148.316 Y20.482 E21.10506
G1 X149.228 Y20.857 E21.14294
G1 X149.856 Y21.191 E21.17026
G1 X150.676 Y21.735 E21.20807
G1 X151.232 Y22.188 E21.23562
G1 X151.917 Y22.87 E21.27275
G1 X152.367 Y23.416 E21.29993
G1 X152.919 Y24.235 E21.33787
G1 X153.259 Y24.865 E21.36537
G1 X153.636 Y25.767 E21.40293
G1 X153.846 Y26.453 E21.43049
G1 X154.04 Y27.417 E21.46826
G1 X154.112 Y28.116 E21.49526
G1 X154.117 Y29.088 E21.5326
G1 X154.05 Y29.804 E21.56022
G1 X153.862 Y30.767 E21.59792
G1 X153.657 Y31.452 E21.62539
G1 X153.284 Y32.361 E21.66313
G1 X152.949 Y32.991 E21.69054
G1 X152.403 Y33.814 E21.72848
G1 X151.95 Y34.37 E21.75603
G1 X151.268 Y35.055 E21.79317
G1 X150.722 Y35.505 E21.82035
G1 X149.9 Y36.059 E21.85843
G1 X149.64 Y36.199 E21.86977
G1 X149.64 Y131.074 E25.51444
G1 X150.672 Y131.73 E25.56141
G1 X151.227 Y132.184 E25.58896
G1 X151.92 Y132.874 E25.62653
G1 X152.371 Y133.419 E25.6537
G1 X152.922 Y134.237 E25.69159
G1 X153.263 Y134.87 E25.71921
G1 X153.639 Y135.772 E25.75675
G1 X153.81 Y136.289 E25.77767
G1 X153.936 Y136.792 E25.79759
G1 X154.027 Y137.319 E25.81813
G1 X154.12 Y138.262 E25.85454
G1 X154.134 Y138.788 E25.87475
G1 X154.11 Y139.304 E25.89459
G1 X154.044 Y139.846 E25.91557
G1 X153.857 Y140.785 E25.95235
G1 X153.656 Y141.453 E25.97915
G1 X153.283 Y142.364 E26.01696
G1 X153.033 Y142.862 E26.03837
G1 X152.767 Y143.304 E26.05819
G1 X152.465 Y143.732 E26.07831
G1 X151.866 Y144.464 E26.11464
G1 X151.365 Y144.967 E26.14192
G1 X150.607 Y145.592 E26.17966
G1 X150.184 Y145.893 E26.1996
G1 X149.255 Y146.408 E26.24041
G1 X148.36 Y146.778 E26.27761
G1 X147.694 Y146.981 E26.30436
G1 X146.725 Y147.178 E26.34234
G1 X146.015 Y147.251 E26.36976
G1 X145.047 Y147.255 E26.40695
G1 X144.336 Y147.188 E26.43438
G1 X143.371 Y147 E26.47215
G1 X142.684 Y146.794 E26.4997
G1 X141.776 Y146.421 E26.53741
G1 X141.147 Y146.087 E26.56477
G1 X140.324 Y145.541 E26.60271
G1 X139.768 Y145.088 E26.63026
G1 X139.083 Y144.406 E26.6674
G1 X138.633 Y143.86 E26.69458
G1 X138.079 Y143.038 E26.73266
G1 X137.939 Y142.778 E26.744
G1 X72.062 Y142.778 E29.2747
G1 X71.403 Y143.814 E29.32186
G1 X70.95 Y144.37 E29.34941
G1 X70.268 Y145.055 E29.38655
G1 X69.722 Y145.505 E29.41373
G1 X68.9 Y146.059 E29.45181
G1 X68.266 Y146.401 E29.47948
G1 X67.359 Y146.779 E29.51723
G1 X66.854 Y146.947 E29.53767
G1 X66.365 Y147.071 E29.55705
G1 X65.822 Y147.166 E29.57823
G1 X64.866 Y147.259 E29.61513
G1 X64.169 Y147.26 E29.6419
G1 X63.191 Y147.167 E29.67964
G1 X62.491 Y147.03 E29.70704
G1 X61.56 Y146.751 E29.74438
G1 X60.9 Y146.48 E29.77179
G1 X60.034 Y146.021 E29.80944
G1 X59.44 Y145.627 E29.83682
G1 X58.68 Y145.008 E29.87448
G1 X58.172 Y144.503 E29.90199
G1 X57.544 Y143.742 E29.9399
G1 X57.144 Y143.147 E29.96744
G1 X56.679 Y142.281 E30.0052
G1 X56.461 Y141.792 E30.02577
G1 X56.29 Y141.317 E30.04516
G1 X56.145 Y140.792 E30.06608
G1 X55.958 Y139.849 E30.10302
G1 X55.888 Y139.16 E30.12962
G1 X55.883 Y138.19 E30.16688
G1 X55.951 Y137.47 E30.19467
G1 X56.142 Y136.497 E30.23276
G1 X56.347 Y135.815 E30.26011
G1 X56.717 Y134.914 E30.29753
G1 X57.051 Y134.285 E30.32489
G1 X57.597 Y133.462 E30.36283
G1 X58.049 Y132.908 E30.3903
G1 X58.734 Y132.219 E30.42762
G1 X59.286 Y131.763 E30.45513
G1 X60.102 Y131.215 E30.49289
G1 X60.36 Y131.076 E30.50414
G1 X60.36 Y36.2 E34.14885
G1 X59.331 Y35.547 E34.19567
G1 X58.773 Y35.092 E34.22332
G1 X58.083 Y34.405 E34.26073
G1 X57.633 Y33.86 E34.28788
G1 X57.081 Y33.041 E34.32582
G1 X56.741 Y32.411 E34.35332
G1 X56.36 Y31.5 E34.39126
G1 X56.188 Y30.986 E34.41208
G1 X56.065 Y30.498 E34.43141
G1 X55.972 Y29.96 E34.45239
G1 X55.879 Y29.004 E34.48928
G1 X55.866 Y28.483 E34.5093
G1 X55.89 Y27.968 E34.52911
G1 X55.956 Y27.428 E34.55001
G1 X56.141 Y26.497 E34.58647
G1 X56.342 Y25.828 E34.61331
G1 X56.715 Y24.916 E34.65116
M204 S3000
M205 X10 Y10
G0 F1890 X57.233 Y25.128
M204 S1800
M205 X8 Y8
G1 F2400 X57.518 Y24.591 E34.67451
G1 X58.059 Y23.776 E34.71209
G1 X58.441 Y23.307 E34.73533
G1 X59.131 Y22.613 E34.77292
G1 X59.598 Y22.228 E34.79618
G1 X60.414 Y21.68 E34.83394
G1 X60.944 Y21.395 E34.85705
G1 X61.849 Y21.017 E34.89473
G1 X62.786 Y20.746 E34.9322
G1 X64.187 Y20.575 E34.98642
G1 X64.777 Y20.574 E35.00908
G1 X65.75 Y20.666 E35.04663
G1 X66.346 Y20.782 E35.06995
G1 X67.285 Y21.064 E35.10762
G1 X67.841 Y21.293 E35.13072
G1 X68.707 Y21.752 E35.16837
G1 X69.212 Y22.086 E35.19163
G1 X69.971 Y22.705 E35.22925
G1 X70.4 Y23.132 E35.25251
G1 X71.021 Y23.885 E35.29
G1 X71.537 Y24.673 E35.32618
G1 X71.733 Y25.058 E35.34278
G1 X138.271 Y25.058 E37.89887
G1 X138.517 Y24.594 E37.91904
G1 X139.063 Y23.771 E37.95698
G1 X139.446 Y23.302 E37.98025
G1 X140.131 Y22.613 E38.01757
G1 X140.598 Y22.228 E38.04082
G1 X141.414 Y21.68 E38.07858
G1 X141.943 Y21.395 E38.10166
G1 X142.845 Y21.018 E38.13922
G1 X143.425 Y20.841 E38.16251
G1 X144.389 Y20.647 E38.20029
G1 X144.981 Y20.586 E38.22315
G1 X145.953 Y20.581 E38.26049
G1 X146.559 Y20.638 E38.28387
G1 X147.522 Y20.826 E38.32157
G1 X148.103 Y21 E38.34486
G1 X149.015 Y21.375 E38.38275
G1 X149.547 Y21.657 E38.40588
G1 X150.367 Y22.201 E38.44368
G1 X150.837 Y22.585 E38.46699
G1 X151.522 Y23.267 E38.50413
G1 X151.903 Y23.729 E38.52713
G1 X152.455 Y24.548 E38.56507
G1 X152.743 Y25.081 E38.58835
G1 X153.12 Y25.983 E38.6259
G1 X153.297 Y26.563 E38.6492
G1 X153.491 Y27.527 E38.68697
G1 X153.552 Y28.119 E38.70983
G1 X153.557 Y29.091 E38.74717
G1 X153.5 Y29.697 E38.77056
G1 X153.312 Y30.66 E38.80825
G1 X153.138 Y31.239 E38.83147
G1 X152.765 Y32.148 E38.86922
G1 X152.483 Y32.682 E38.89242
G1 X151.937 Y33.505 E38.93036
G1 X151.553 Y33.975 E38.95367
G1 X150.871 Y34.66 E38.99081
G1 X150.409 Y35.041 E39.01381
G1 X149.587 Y35.595 E39.05189
G1 X149.08 Y35.868 E39.07401
G1 X149.08 Y131.408 E42.74423
G1 X149.547 Y131.656 E42.76454
G1 X150.362 Y132.197 E42.80212
G1 X150.832 Y132.58 E42.82541
G1 X151.525 Y133.27 E42.86298
G1 X151.907 Y133.732 E42.886
G1 X152.458 Y134.55 E42.92389
G1 X152.746 Y135.086 E42.94727
G1 X153.122 Y135.988 E42.98481
G1 X153.393 Y136.928 E43.02239
G1 X153.563 Y138.317 E43.07615
G1 X153.551 Y139.278 E43.11307
G1 X153.308 Y140.676 E43.16758
G1 X153.137 Y141.241 E43.19025
G1 X152.764 Y142.152 E43.22807
G1 X152.287 Y143.015 E43.26595
G1 X151.433 Y144.11 E43.3193
G1 X151.008 Y144.535 E43.34238
G1 X150.25 Y145.16 E43.38013
G1 X149.466 Y145.675 E43.41616
G1 X148.146 Y146.26 E43.47162
G1 X147.583 Y146.432 E43.49424
G1 X146.614 Y146.629 E43.53223
G1 X146.013 Y146.691 E43.55544
G1 X145.045 Y146.695 E43.59262
G1 X144.443 Y146.638 E43.61585
G1 X143.478 Y146.45 E43.65362
G1 X142.897 Y146.276 E43.67692
G1 X141.989 Y145.903 E43.71463
G1 X141.456 Y145.621 E43.73779
G1 X140.633 Y145.075 E43.77573
G1 X140.163 Y144.691 E43.79905
G1 X139.478 Y144.009 E43.83618
G1 X139.097 Y143.547 E43.85919
G1 X138.543 Y142.725 E43.89727
G1 X138.269 Y142.218 E43.91941
G1 X71.729 Y142.218 E46.47557
G1 X71.483 Y142.682 E46.49574
G1 X70.937 Y143.505 E46.53369
G1 X70.553 Y143.975 E46.557
G1 X69.871 Y144.66 E46.59413
G1 X69.409 Y145.041 E46.61714
G1 X68.587 Y145.595 E46.65522
G1 X68.051 Y145.884 E46.67861
G1 X67.144 Y146.262 E46.71636
G1 X66.227 Y146.529 E46.75305
G1 X64.812 Y146.702 E46.80781
G1 X64.222 Y146.702 E46.83048
G1 X63.244 Y146.609 E46.86822
G1 X62.652 Y146.493 E46.89139
G1 X61.721 Y146.214 E46.92873
G1 X61.163 Y145.985 E46.9519
G1 X60.297 Y145.526 E46.98955
G1 X59.794 Y145.193 E47.01272
G1 X59.034 Y144.574 E47.05038
G1 X58.603 Y144.146 E47.07371
G1 X57.975 Y143.385 E47.11161
G1 X57.637 Y142.882 E47.13489
G1 X57.172 Y142.016 E47.17265
G1 X56.817 Y141.127 E47.20943
G1 X56.507 Y139.74 E47.26403
G1 X56.448 Y139.157 E47.28654
G1 X56.443 Y138.187 E47.3238
G1 X56.501 Y137.578 E47.3473
G1 X56.692 Y136.605 E47.38539
G1 X56.865 Y136.028 E47.40853
G1 X57.235 Y135.127 E47.44595
G1 X57.517 Y134.594 E47.46911
G1 X58.063 Y133.771 E47.50706
G1 X58.446 Y133.302 E47.53032
G1 X59.131 Y132.613 E47.56764
G1 X59.598 Y132.228 E47.59089
G1 X60.414 Y131.68 E47.62865
G1 X60.92 Y131.408 E47.65072
G1 X60.92 Y35.867 E51.32097
G1 X60.452 Y35.619 E51.34132
G1 X59.64 Y35.081 E51.37874
G1 X59.168 Y34.696 E51.40213
G1 X58.478 Y34.009 E51.43954
G1 X58.097 Y33.547 E51.46254
G1 X57.545 Y32.728 E51.50048
G1 X57.257 Y32.195 E51.52376
G1 X56.876 Y31.284 E51.56169
G1 X56.608 Y30.361 E51.59861
G1 X56.436 Y28.95 E51.65322
G1 X56.449 Y27.994 E51.68995
G1 X56.69 Y26.606 E51.74407
G1 X56.86 Y26.04 E51.76677
G1 X57.233 Y25.128 E51.80462
M204 S3000
M205 X10 Y10
G0 F1890 X57.752 Y25.34
M204 S1800
M205 X8 Y8
G1 F2400 X57.984 Y24.9 E51.82373
G1 X58.525 Y24.085 E51.86131
G1 X58.838 Y23.702 E51.88031
G1 X59.528 Y23.008 E51.9179
G1 X59.91 Y22.693 E51.93692
G1 X60.726 Y22.145 E51.97468
G1 X61.16 Y21.912 E51.99361
G1 X62.065 Y21.534 E52.03128
G1 X62.922 Y21.289 E52.06553
G1 X64.241 Y21.132 E52.11655
G1 X64.724 Y21.131 E52.13511
G1 X66.185 Y21.318 E52.19169
G1 X67.124 Y21.6 E52.22935
G1 X67.579 Y21.787 E52.24825
G1 X68.445 Y22.246 E52.2859
G1 X68.858 Y22.52 E52.30494
G1 X69.617 Y23.139 E52.34257
G1 X69.968 Y23.489 E52.36161
G1 X70.589 Y24.242 E52.3991
G1 X71.059 Y24.964 E52.4322
G1 X71.363 Y25.618 E52.45991
G1 X138.638 Y25.618 E55.0443
G1 X138.984 Y24.904 E55.07478
G1 X139.53 Y24.081 E55.11273
G1 X139.843 Y23.697 E55.13176
G1 X140.528 Y23.008 E55.16908
G1 X140.91 Y22.693 E55.1881
G1 X141.726 Y22.145 E55.22586
G1 X142.159 Y21.912 E55.24475
G1 X143.061 Y21.535 E55.2823
G1 X143.536 Y21.39 E55.30138
