;FLAVOR:Marlin
;TIME:6960
;Filament used: 5.57267m
;Layer height: 0.16
;MINX:32.619
;MINY:7.288
;MINZ:0.15
;MAXX:177.389
;MAXY:118.058
;MAXZ:5.505
;Generated with Cura_SteamEngine 4.5.0
M140 S60
M105
M190 S60
M104 S205
M105
M109 S205
M82 ;absolute extrusion mode
G21 ;metric values
G90 ;absolute positioning
M82 ;set extruder to absolute mode
M107 ;start with the fan off
G28 X0 Y0 ;move X/Y to min endstops
G28 Z0 ;move Z to min endstops
G1 Z15.0 F100 ;move the platform down 15mm
G92 E0 ;zero the extruded length
G1 F200 E3 ;extrude 3mm of feed stock
G92 E0 ;zero the extruded length again
G1 F100
G0 Y20 F100
M117 Printing...
G5
G92 E0
G92 E0
G1 F4200 E-8
;LAYER_COUNT:34
;LAYER:0
M107
M204 S3000
M205 X10 Y10
G1 F600 Z0.225
G0 F6000 X34.131 Y16.018 Z0.225
M204 S1800
M205 X8 Y8
;TYPE:SKIRT
G1 F600 Z0.15
G1 F4200 E0
G1 F1200 X34.467 Y15.344 E0.02499
G1 X34.813 Y14.74 E0.04808
G1 X35.255 Y14.061 E0.07496
G1 X35.637 Y13.522 E0.09688
G1 X36.222 Y12.778 E0.12828
G1 X36.577 Y12.371 E0.1462
G1 X37.198 Y11.724 E0.17595
G1 X37.649 Y11.297 E0.19655
G1 X38.352 Y10.694 E0.22728
G1 X38.815 Y10.335 E0.24672
G1 X39.564 Y9.811 E0.27705
G1 X40.137 Y9.45 E0.29952
G1 X40.814 Y9.062 E0.3254
G1 X41.478 Y8.733 E0.34999
G1 X42.197 Y8.425 E0.37594
G1 X42.849 Y8.175 E0.39911
G1 X43.616 Y7.918 E0.42594
G1 X44.25 Y7.745 E0.44775
G1 X45.107 Y7.563 E0.47681
G1 X45.748 Y7.456 E0.49837
G1 X46.636 Y7.351 E0.52804
G1 X47.233 Y7.309 E0.5479
G1 X48.152 Y7.29 E0.57839
G1 X48.768 Y7.307 E0.59884
G1 X49.437 Y7.349 E0.62108
G1 X50.28 Y7.451 E0.64925
G1 X51.068 Y7.598 E0.67584
G1 X51.808 Y7.766 E0.70102
G1 X52.445 Y7.929 E0.72283
G1 X54.617 Y8.538 E0.79767
G1 X57.105 Y9.16 E0.88276
G1 X59.619 Y9.713 E0.96816
G1 X62.106 Y10.188 E1.05216
G1 X64.681 Y10.604 E1.1387
G1 X67.174 Y10.934 E1.22213
G1 X69.767 Y11.203 E1.30862
G1 X72.279 Y11.393 E1.3922
G1 X74.856 Y11.514 E1.47779
G1 X77.931 Y11.565 E1.57982
G1 X132.097 Y11.565 E3.37689
G1 X134.702 Y11.528 E3.46332
G1 X137.313 Y11.417 E3.55003
G1 X139.828 Y11.239 E3.63368
G1 X142.381 Y10.986 E3.71879
G1 X144.925 Y10.66 E3.80388
G1 X147.456 Y10.263 E3.88888
G1 X149.97 Y9.795 E3.97372
G1 X152.443 Y9.263 E4.05765
G1 X156.273 Y8.296 E4.1887
G1 X158.271 Y7.747 E4.25744
G1 X158.888 Y7.6 E4.27849
G1 X159.742 Y7.448 E4.30727
G1 X160.598 Y7.353 E4.33584
G1 X161.267 Y7.307 E4.35809
G1 X162.166 Y7.288 E4.38792
G1 X162.721 Y7.303 E4.40634
G1 X163.341 Y7.341 E4.42695
G1 X164.262 Y7.448 E4.45771
G1 X165.474 Y7.68 E4.49865
G1 X166.037 Y7.822 E4.51791
G1 X166.608 Y7.986 E4.53762
G1 X167.306 Y8.225 E4.5621
G1 X167.983 Y8.499 E4.58633
G1 X168.613 Y8.781 E4.60923
G1 X169.306 Y9.126 E4.63492
G1 X169.918 Y9.475 E4.65829
G1 X170.61 Y9.925 E4.68568
G1 X171.146 Y10.305 E4.70747
G1 X171.872 Y10.875 E4.7381
G1 X172.358 Y11.297 E4.75945
G1 X172.842 Y11.748 E4.7814
G1 X173.431 Y12.367 E4.80975
G1 X173.957 Y12.996 E4.83695
G1 X174.36 Y13.519 E4.85886
G1 X174.866 Y14.243 E4.88816
G1 X175.197 Y14.768 E4.90875
G1 X175.568 Y15.413 E4.93344
G1 X175.937 Y16.15 E4.96078
G1 X176.232 Y16.842 E4.98574
G1 X176.457 Y17.428 E5.00657
G1 X176.744 Y18.299 E5.03699
G1 X176.9 Y18.865 E5.05647
G1 X177.105 Y19.788 E5.08784
G1 X177.208 Y20.394 E5.10823
G1 X177.317 Y21.297 E5.13841
G1 X177.358 Y21.869 E5.15744
G1 X177.379 Y22.775 E5.1875
G1 X177.365 Y23.338 E5.20619
G1 X177.296 Y24.268 E5.23713
G1 X177.221 Y24.869 E5.25722
G1 X177.061 Y25.778 E5.28784
G1 X176.907 Y26.459 E5.31101
G1 X176.758 Y27.033 E5.33068
G1 X176.552 Y27.735 E5.35495
G1 X175.836 Y30.3 E5.4433
G1 X175.225 Y32.761 E5.52743
G1 X174.67 Y35.29 E5.61333
G1 X174.193 Y37.813 E5.69852
G1 X173.789 Y40.325 E5.78293
G1 X173.457 Y42.861 E5.86779
G1 X173.192 Y45.435 E5.95364
G1 X173.004 Y47.969 E6.03794
G1 X172.887 Y50.522 E6.12273
G1 X172.84 Y53.485 E6.22104
G1 X172.839 Y71.86 E6.83067
G1 X172.876 Y74.464 E6.91707
G1 X172.986 Y77.052 E7.00301
G1 X173.166 Y79.601 E7.08779
G1 X173.42 Y82.159 E7.17308
G1 X173.742 Y84.672 E7.25713
G1 X174.143 Y87.232 E7.3431
G1 X174.608 Y89.732 E7.42746
G1 X175.145 Y92.23 E7.51223
G1 X175.764 Y94.757 E7.59855
G1 X176.442 Y97.22 E7.6833
G1 X176.614 Y97.791 E7.70309
G1 X176.829 Y98.553 E7.72936
G1 X176.973 Y99.122 E7.74883
G1 X177.111 Y99.794 E7.77159
G1 X177.212 Y100.401 E7.79201
G1 X177.314 Y101.263 E7.8208
G1 X177.364 Y101.951 E7.84369
G1 X177.389 Y102.718 E7.86915
G1 X177.368 Y103.445 E7.89328
G1 X177.298 Y104.259 E7.92039
G1 X177.216 Y104.903 E7.94192
G1 X177.06 Y105.789 E7.97177
G1 X176.911 Y106.448 E7.99419
G1 X176.695 Y107.24 E8.02142
G1 X176.491 Y107.846 E8.04264
G1 X176.177 Y108.635 E8.07081
G1 X175.932 Y109.184 E8.09076
G1 X175.518 Y110.002 E8.12117
G1 X175.209 Y110.545 E8.1419
G1 X174.711 Y111.327 E8.17266
G1 X174.391 Y111.779 E8.19103
G1 X173.81 Y112.519 E8.22225
G1 X173.421 Y112.966 E8.24191
G1 X172.799 Y113.615 E8.27173
G1 X172.274 Y114.113 E8.29574
G1 X171.641 Y114.662 E8.32354
G1 X171.104 Y115.073 E8.34597
G1 X170.455 Y115.517 E8.37206
G1 X169.894 Y115.87 E8.39405
G1 X169.256 Y116.237 E8.41847
G1 X168.519 Y116.606 E8.44581
G1 X167.82 Y116.904 E8.47102
G1 X167.222 Y117.133 E8.49227
G1 X166.359 Y117.417 E8.52241
G1 X165.728 Y117.591 E8.54413
G1 X165.114 Y117.738 E8.56507
G1 X164.232 Y117.894 E8.59479
G1 X163.352 Y117.991 E8.62416
G1 X162.813 Y118.028 E8.64209
G1 X161.927 Y118.047 E8.67149
G1 X161.188 Y118.028 E8.69602
G1 X160.122 Y117.94 E8.7315
G1 X158.918 Y117.738 E8.77201
G1 X158.212 Y117.578 E8.79602
G1 X155.168 Y116.74 E8.90077
G1 X152.647 Y116.112 E8.98697
G1 X150.159 Y115.568 E9.07146
G1 X147.65 Y115.092 E9.15619
G1 X145.136 Y114.688 E9.24066
G1 X142.57 Y114.351 E9.32653
G1 X140.019 Y114.089 E9.41161
G1 X137.467 Y113.899 E9.49651
G1 X134.927 Y113.782 E9.58087
G1 X131.948 Y113.735 E9.67971
G1 X78.04 Y113.735 E11.46822
G1 X75.435 Y113.772 E11.55465
G1 X72.824 Y113.883 E11.64136
G1 X70.309 Y114.061 E11.725
G1 X67.756 Y114.314 E11.81012
G1 X65.212 Y114.64 E11.89521
G1 X62.681 Y115.037 E11.98021
G1 X60.167 Y115.505 E12.06505
G1 X57.684 Y116.039 E12.14931
G1 X53.915 Y116.989 E12.27827
G1 X51.792 Y117.572 E12.35131
G1 X50.869 Y117.776 E12.38267
G1 X50.266 Y117.878 E12.40296
G1 X49.379 Y117.985 E12.4326
G1 X48.718 Y118.033 E12.45459
G1 X47.948 Y118.058 E12.48015
G1 X47.274 Y118.04 E12.50252
G1 X46.433 Y117.97 E12.53052
G1 X45.685 Y117.876 E12.55553
G1 X44.909 Y117.745 E12.58164
G1 X44.216 Y117.584 E12.60524
G1 X43.461 Y117.364 E12.63133
G1 X42.838 Y117.156 E12.65312
G1 X41.974 Y116.819 E12.68389
G1 X41.4 Y116.562 E12.70476
G1 X40.791 Y116.263 E12.72727
G1 X40.097 Y115.871 E12.75371
G1 X39.104 Y115.224 E12.79303
G1 X38.148 Y114.481 E12.8332
G1 X37.702 Y114.092 E12.85284
G1 X37.06 Y113.476 E12.88235
G1 X36.565 Y112.954 E12.90622
G1 X36.02 Y112.326 E12.93381
G1 X35.595 Y111.772 E12.95697
G1 X35.147 Y111.119 E12.98325
G1 X34.801 Y110.569 E13.0048
G1 X34.459 Y109.978 E13.02746
G1 X34.061 Y109.186 E13.05687
G1 X33.762 Y108.484 E13.08218
G1 X33.527 Y107.869 E13.10402
G1 X33.244 Y107.006 E13.13415
G1 X33.098 Y106.475 E13.15243
G1 X32.897 Y105.569 E13.18321
G1 X32.777 Y104.868 E13.20681
G1 X32.672 Y104.035 E13.23467
G1 X32.629 Y103.379 E13.25648
G1 X32.619 Y102.571 E13.28329
G1 X32.635 Y101.976 E13.30303
G1 X32.705 Y101.059 E13.33354
G1 X32.779 Y100.469 E13.35327
G1 X32.94 Y99.554 E13.3841
G1 X33.099 Y98.855 E13.40788
G1 X33.246 Y98.292 E13.42718
G1 X33.402 Y97.762 E13.44551
G1 X34.11 Y95.223 E13.53296
G1 X34.724 Y92.749 E13.61753
G1 X35.277 Y90.227 E13.70319
G1 X35.754 Y87.705 E13.78835
G1 X36.158 Y85.191 E13.87283
G1 X36.491 Y82.653 E13.95775
G1 X36.754 Y80.086 E14.04336
G1 X36.944 Y77.532 E14.12833
G1 X37.06 Y75 E14.21242
G1 X37.107 Y72.033 E14.31087
G1 X37.108 Y53.309 E14.93208
G1 X37.071 Y50.705 E15.01848
G1 X36.961 Y48.11 E15.10465
G1 X36.78 Y45.555 E15.18963
G1 X36.528 Y43.016 E15.27428
G1 X36.205 Y40.493 E15.35867
G1 X35.803 Y37.932 E15.44468
G1 X35.338 Y35.431 E15.52907
G1 X34.802 Y32.939 E15.61364
G1 X34.186 Y30.423 E15.69958
G1 X33.507 Y27.957 E15.78444
G1 X33.174 Y26.797 E15.82448
G1 X33.021 Y26.189 E15.84528
G1 X32.896 Y25.573 E15.86613
G1 X32.787 Y24.925 E15.88793
G1 X32.68 Y24.024 E15.91804
G1 X32.64 Y23.454 E15.93699
G1 X32.621 Y22.521 E15.96795
G1 X32.638 Y21.941 E15.9872
G1 X32.706 Y21.056 E16.01665
G1 X32.78 Y20.461 E16.03654
G1 X32.945 Y19.525 E16.06808
G1 X33.096 Y18.865 E16.09054
G1 X33.307 Y18.093 E16.11709
G1 X33.506 Y17.502 E16.13778
G1 X33.837 Y16.671 E16.16746
G1 X34.131 Y16.018 E16.19122
M204 S3000
M205 X10 Y10
G0 F6000 X34.641 Y16.248
M204 S1800
M205 X8 Y8
G1 F1200 X34.958 Y15.614 E16.21473
G1 X35.289 Y15.035 E16.23686
G1 X35.712 Y14.384 E16.26262
G1 X36.094 Y13.845 E16.28454
G1 X36.644 Y13.146 E16.31404
G1 X36.999 Y12.739 E16.33196
G1 X37.583 Y12.131 E16.35993
G1 X38.034 Y11.704 E16.38054
G1 X38.695 Y11.137 E16.40943
G1 X39.158 Y10.778 E16.42887
G1 X39.863 Y10.285 E16.45741
G1 X40.436 Y9.924 E16.47988
G1 X41.072 Y9.559 E16.50421
G1 X41.708 Y9.243 E16.52777
G1 X42.397 Y8.948 E16.55263
G1 X43.049 Y8.698 E16.5758
G1 X43.771 Y8.456 E16.60106
G1 X44.381 Y8.29 E16.62204
G1 X45.2 Y8.116 E16.64982
G1 X45.841 Y8.009 E16.67138
G1 X46.676 Y7.91 E16.69927
G1 X47.273 Y7.868 E16.71913
G1 X48.137 Y7.849 E16.7478
G1 X48.753 Y7.866 E16.76825
G1 X49.382 Y7.906 E16.78916
G1 X50.189 Y8.004 E16.81613
G1 X50.944 Y8.144 E16.8416
G1 X51.684 Y8.312 E16.86678
G1 X52.3 Y8.47 E16.88788
G1 X54.475 Y9.079 E16.96281
G1 X56.992 Y9.708 E17.04889
G1 X59.496 Y10.26 E17.13396
G1 X62.015 Y10.74 E17.21903
G1 X64.588 Y11.156 E17.30551
G1 X67.117 Y11.491 E17.39014
G1 X69.702 Y11.76 E17.47637
G1 X72.28 Y11.954 E17.56214
G1 X74.821 Y12.074 E17.64654
G1 X77.922 Y12.125 E17.74943
G1 X132.105 Y12.125 E19.54706
G1 X134.734 Y12.088 E19.63429
G1 X137.307 Y11.979 E19.71973
G1 X139.885 Y11.796 E19.80548
G1 X142.438 Y11.543 E19.8906
G1 X145.014 Y11.213 E19.97676
G1 X147.57 Y10.811 E20.0626
G1 X150.087 Y10.344 E20.14753
G1 X152.556 Y9.812 E20.23133
G1 X156.424 Y8.836 E20.36368
G1 X158.42 Y8.287 E20.43236
G1 X159 Y8.149 E20.45214
G1 X159.816 Y8.003 E20.47964
G1 X160.637 Y7.912 E20.50705
G1 X161.306 Y7.866 E20.52929
G1 X162.151 Y7.848 E20.55733
G1 X162.706 Y7.863 E20.57575
G1 X163.289 Y7.898 E20.59513
G1 X164.172 Y8.001 E20.62463
G1 X165.337 Y8.223 E20.66397
G1 X165.9 Y8.365 E20.68324
G1 X166.437 Y8.519 E20.70177
G1 X167.106 Y8.748 E20.72523
G1 X167.755 Y9.01 E20.74845
G1 X168.385 Y9.292 E20.77135
G1 X169.036 Y9.617 E20.79549
G1 X169.624 Y9.952 E20.81794
G1 X170.286 Y10.381 E20.84411
G1 X170.822 Y10.761 E20.86591
G1 X171.505 Y11.298 E20.89474
G1 X171.991 Y11.72 E20.91609
G1 X172.446 Y12.144 E20.93672
G1 X173.01 Y12.736 E20.96385
G1 X173.513 Y13.337 E20.98985
G1 X173.916 Y13.86 E21.01176
G1 X174.392 Y14.541 E21.03932
G1 X174.723 Y15.066 E21.05992
G1 X175.073 Y15.673 E21.08316
G1 X175.427 Y16.381 E21.10942
G1 X175.71 Y17.042 E21.13328
G1 X175.935 Y17.628 E21.1541
G1 X176.204 Y18.448 E21.18274
G1 X176.36 Y19.014 E21.20221
G1 X176.553 Y19.882 E21.23172
G1 X176.656 Y20.488 E21.25211
G1 X176.758 Y21.337 E21.28048
G1 X176.799 Y21.909 E21.2995
G1 X176.819 Y22.761 E21.32778
G1 X176.805 Y23.324 E21.34646
G1 X176.74 Y24.199 E21.37557
G1 X176.665 Y24.8 E21.39567
G1 X176.515 Y25.655 E21.42447
G1 X176.361 Y26.336 E21.44763
G1 X176.221 Y26.876 E21.46614
G1 X176.023 Y27.549 E21.48941
G1 X175.294 Y30.163 E21.57945
G1 X174.676 Y32.65 E21.66447
G1 X174.123 Y35.169 E21.75003
G1 X173.64 Y37.724 E21.8363
G1 X173.236 Y40.238 E21.92078
G1 X172.9 Y42.804 E22.00664
G1 X172.635 Y45.375 E22.09238
G1 X172.446 Y47.938 E22.17765
G1 X172.327 Y50.522 E22.26347
G1 X172.28 Y53.476 E22.36149
G1 X172.279 Y71.868 E22.97168
G1 X172.316 Y74.496 E23.05887
G1 X172.426 Y77.078 E23.14462
G1 X172.606 Y79.626 E23.22936
G1 X172.863 Y82.215 E23.31568
G1 X173.193 Y84.79 E23.40181
G1 X173.589 Y87.317 E23.48667
G1 X174.059 Y89.849 E23.57211
G1 X174.595 Y92.337 E23.65655
G1 X175.223 Y94.903 E23.74419
G1 X175.902 Y97.367 E23.82899
G1 X176.075 Y97.943 E23.84894
G1 X176.29 Y98.705 E23.87521
G1 X176.429 Y99.254 E23.894
G1 X176.558 Y99.886 E23.9154
G1 X176.659 Y100.493 E23.93581
G1 X176.756 Y101.303 E23.96288
G1 X176.806 Y101.991 E23.98576
G1 X176.829 Y102.713 E24.00973
G1 X176.809 Y103.41 E24.03286
G1 X176.742 Y104.189 E24.0588
G1 X176.66 Y104.833 E24.08034
G1 X176.513 Y105.666 E24.10841
G1 X176.364 Y106.325 E24.13082
G1 X176.161 Y107.069 E24.15641
G1 X175.966 Y107.651 E24.17677
G1 X175.666 Y108.407 E24.20376
G1 X175.421 Y108.956 E24.2237
G1 X175.031 Y109.725 E24.25231
G1 X174.722 Y110.268 E24.27304
G1 X174.254 Y111.004 E24.30197
G1 X173.934 Y111.456 E24.32035
G1 X173.387 Y112.151 E24.34969
G1 X172.998 Y112.598 E24.36935
G1 X172.414 Y113.209 E24.39739
G1 X171.889 Y113.707 E24.4214
G1 X171.293 Y114.223 E24.44755
G1 X170.778 Y114.618 E24.46908
G1 X170.157 Y115.043 E24.49405
G1 X169.596 Y115.396 E24.51604
G1 X168.996 Y115.742 E24.53902
G1 X168.288 Y116.096 E24.56528
G1 X167.619 Y116.381 E24.58941
G1 X167.021 Y116.61 E24.61065
G1 X166.21 Y116.877 E24.63898
G1 X165.579 Y117.051 E24.6607
G1 X165.001 Y117.19 E24.68042
G1 X164.16 Y117.338 E24.70875
G1 X163.313 Y117.432 E24.73702
G1 X162.774 Y117.469 E24.75495
G1 X161.942 Y117.487 E24.78256
G1 X161.203 Y117.468 E24.80708
G1 X160.2 Y117.385 E24.84047
G1 X159.042 Y117.191 E24.87943
G1 X158.336 Y117.031 E24.90344
G1 X155.268 Y116.187 E25.00901
G1 X152.8 Y115.573 E25.09339
G1 X150.28 Y115.021 E25.17898
G1 X147.739 Y114.539 E25.26478
G1 X145.189 Y114.13 E25.35047
G1 X142.666 Y113.798 E25.43489
G1 X140.08 Y113.532 E25.52114
G1 X137.502 Y113.34 E25.60691
G1 X134.927 Y113.222 E25.69243
G1 X131.957 Y113.175 E25.79098
G1 X78.032 Y113.175 E27.58005
G1 X75.403 Y113.212 E27.66728
G1 X72.83 Y113.321 E27.75272
G1 X70.252 Y113.504 E27.83846
G1 X67.699 Y113.757 E27.92358
G1 X65.123 Y114.087 E28.00974
G1 X62.567 Y114.489 E28.09558
G1 X60.05 Y114.956 E28.18052
G1 X57.572 Y115.49 E28.26462
G1 X53.777 Y116.446 E28.39446
G1 X51.644 Y117.032 E28.46784
G1 X50.775 Y117.224 E28.49737
G1 X50.172 Y117.326 E28.51766
G1 X49.338 Y117.427 E28.54553
G1 X48.677 Y117.475 E28.56752
G1 X47.953 Y117.498 E28.59155
G1 X47.307 Y117.481 E28.61299
G1 X46.503 Y117.414 E28.63976
G1 X45.755 Y117.32 E28.66477
G1 X45.025 Y117.197 E28.68933
G1 X44.362 Y117.044 E28.71191
G1 X43.639 Y116.833 E28.73689
G1 X43.016 Y116.625 E28.75868
G1 X42.203 Y116.308 E28.78763
G1 X41.629 Y116.051 E28.8085
G1 X41.056 Y115.77 E28.82967
G1 X40.39 Y115.395 E28.85503
G1 X39.436 Y114.772 E28.89283
G1 X38.516 Y114.059 E28.93145
G1 X38.07 Y113.67 E28.95108
G1 X37.466 Y113.091 E28.97884
G1 X36.971 Y112.569 E29.00271
G1 X36.459 Y111.978 E29.02865
G1 X36.05 Y111.446 E29.05091
G1 X35.621 Y110.821 E29.07607
G1 X35.275 Y110.271 E29.09762
G1 X34.953 Y109.715 E29.11894
G1 X34.572 Y108.957 E29.14709
G1 X34.285 Y108.284 E29.17136
G1 X34.05 Y107.669 E29.1932
G1 X33.784 Y106.858 E29.22152
G1 X33.638 Y106.327 E29.23979
G1 X33.449 Y105.475 E29.26874
G1 X33.329 Y104.774 E29.29234
G1 X33.23 Y103.99 E29.31856
G1 X33.189 Y103.36 E29.3395
G1 X33.179 Y102.586 E29.36518
G1 X33.195 Y101.991 E29.38493
G1 X33.261 Y101.129 E29.41361
G1 X33.335 Y100.539 E29.43334
G1 X33.486 Y99.678 E29.46234
G1 X33.645 Y98.979 E29.48613
G1 X33.783 Y98.45 E29.50426
G1 X33.934 Y97.936 E29.52204
G1 X34.652 Y95.364 E29.61063
G1 X35.273 Y92.86 E29.69622
G1 X35.824 Y90.348 E29.78154
G1 X36.308 Y87.788 E29.86798
G1 X36.71 Y85.284 E29.95212
G1 X37.047 Y82.713 E30.03815
G1 X37.311 Y80.147 E30.12373
G1 X37.503 Y77.565 E30.20963
G1 X37.62 Y75.002 E30.29475
G1 X37.667 Y72.042 E30.39297
G1 X37.668 Y53.301 E31.01474
G1 X37.63 Y50.647 E31.1028
G1 X37.52 Y48.069 E31.18841
G1 X37.341 Y45.539 E31.27255
G1 X37.081 Y42.925 E31.35971
G1 X36.759 Y40.404 E31.44402
G1 X36.36 Y37.862 E31.52939
G1 X35.883 Y35.298 E31.61592
G1 X35.352 Y32.832 E31.69961
G1 X34.73 Y30.289 E31.78646
G1 X34.041 Y27.789 E31.8725
G1 X33.713 Y26.644 E31.91201
G1 X33.566 Y26.06 E31.93199
G1 X33.448 Y25.48 E31.95163
G1 X33.339 Y24.832 E31.97343
G1 X33.239 Y23.985 E32.00173
G1 X33.199 Y23.415 E32.02069
G1 X33.181 Y22.537 E32.04982
G1 X33.198 Y21.957 E32.06907
G1 X33.262 Y21.125 E32.09676
G1 X33.336 Y20.53 E32.11665
G1 X33.491 Y19.649 E32.14633
G1 X33.642 Y18.989 E32.16879
G1 X33.841 Y18.264 E32.19373
G1 X34.031 Y17.696 E32.2136
G1 X34.347 Y16.901 E32.24199
