;FLAVOR:Marlin
;TIME:659
;Filament used: 0.461309m
;Layer height: 0.16
;MINX:68.874
;MINY:17.014
;MINZ:0.15
;MAXX:120.496
;MAXY:78.775
;MAXZ:4.95
;Generated with Cura_SteamEngine 4.5.0
M140 S60
M105
M190 S60
M104 S205
M105
M109 S205
M82 ;absolute extrusion mode
G21 ;metric values
G90 ;absolute positioning
M82 ;set extruder to absolute mode
M107 ;start with the fan off
G28 X0 Y0 ;move X/Y to min endstops
G28 Z0 ;move Z to min endstops
G1 Z15.0 F100 ;move the platform down 15mm
G92 E0 ;zero the extruded length
G1 F200 E3 ;extrude 3mm of feed stock
G92 E0 ;zero the extruded length again
G1 F100
G0 Y20 F100
M117 Printing...
G5
G92 E0
G92 E0
G1 F4200 E-8
;LAYER_COUNT:31
;LAYER:0
M107
M204 S3000
M205 X10 Y10
G1 F600 Z0.225
G0 F6000 X69.79 Y26.615 Z0.225
M204 S1800
M205 X8 Y8
;TYPE:SKIRT
G1 F600 Z0.15
G1 F4200 E0
G1 F1200 X70.084 Y25.884 E0.02752
G1 X70.367 Y25.253 E0.05167
G1 X70.702 Y24.58 E0.07792
G1 X71.063 Y23.947 E0.10337
G1 X71.514 Y23.253 E0.13228
G1 X71.891 Y22.722 E0.15502
G1 X72.458 Y22.001 E0.18705
G1 X72.88 Y21.515 E0.20953
G1 X73.37 Y20.993 E0.23453
G1 X73.955 Y20.438 E0.26269
G1 X74.576 Y19.918 E0.29098
G1 X75.072 Y19.535 E0.31286
G1 X75.799 Y19.027 E0.34384
G1 X76.309 Y18.705 E0.3649
G1 X77.102 Y18.256 E0.39673
G1 X77.579 Y18.016 E0.41538
G1 X78.371 Y17.662 E0.44567
G1 X79.191 Y17.383 E0.47592
G1 X80.034 Y17.181 E0.50619
G1 X80.893 Y17.057 E0.5365
G1 X81.998 Y17.015 E0.57512
G1 X84.987 Y17.038 E0.67951
G1 X86.208 Y17.016 E0.72216
G1 X86.698 Y17.014 E0.73927
G1 X87.479 Y17.046 E0.76657
G1 X90.535 Y17.266 E0.87357
G1 X93.12 Y17.374 E0.96393
G1 X95.657 Y17.407 E1.05253
G1 X98.23 Y17.368 E1.1424
G1 X101.243 Y17.231 E1.24773
G1 X101.945 Y17.187 E1.2723
G1 X102.611 Y17.169 E1.29556
G1 X105.484 Y17.194 E1.3959
G1 X106.929 Y17.169 E1.44637
G1 X107.442 Y17.168 E1.46429
G1 X108.308 Y17.208 E1.49456
G1 X109.167 Y17.328 E1.52485
G1 X110.011 Y17.526 E1.55513
G1 X110.833 Y17.801 E1.5854
G1 X111.794 Y18.236 E1.62224
G1 X112.309 Y18.505 E1.64253
G1 X112.926 Y18.848 E1.66718
G1 X113.691 Y19.329 E1.69874
G1 X114.59 Y20.005 E1.73802
G1 X115.231 Y20.546 E1.76732
G1 X115.815 Y21.082 E1.795
G1 X116.381 Y21.671 E1.82353
G1 X116.945 Y22.339 E1.85406
G1 X117.343 Y22.854 E1.87679
G1 X117.858 Y23.591 E1.90819
G1 X118.219 Y24.164 E1.93184
G1 X118.598 Y24.824 E1.95842
G1 X118.945 Y25.522 E1.98564
G1 X119.241 Y26.215 E2.01196
G1 X119.485 Y26.85 E2.03572
G1 X119.723 Y27.552 E2.0616
G1 X119.923 Y28.274 E2.08777
G1 X120.103 Y29.12 E2.11797
G1 X120.211 Y29.761 E2.14068
G1 X120.32 Y30.678 E2.17293
G1 X120.362 Y31.289 E2.19431
G1 X120.381 Y32.178 E2.22537
G1 X120.368 Y32.679 E2.24287
G1 X120.298 Y33.607 E2.27537
G1 X119.925 Y36.579 E2.37998
G1 X119.657 Y39.139 E2.46987
G1 X119.462 Y41.712 E2.55998
G1 X119.342 Y44.248 E2.64865
G1 X119.292 Y46.797 E2.73768
G1 X119.316 Y49.407 E2.82884
G1 X119.41 Y51.921 E2.9167
G1 X119.579 Y54.493 E3.00671
G1 X119.82 Y57.05 E3.09641
G1 X120.133 Y59.601 E3.18616
G1 X120.228 Y60.217 E3.20793
G1 X120.371 Y61.277 E3.24528
G1 X120.43 Y61.862 E3.26582
G1 X120.476 Y62.524 E3.28899
G1 X120.496 Y63.418 E3.32022
G1 X120.483 Y63.922 E3.33783
G1 X120.413 Y64.846 E3.37019
G1 X120.335 Y65.47 E3.39215
G1 X120.175 Y66.386 E3.42462
G1 X120.046 Y66.954 E3.44497
G1 X119.801 Y67.831 E3.47677
G1 X119.609 Y68.41 E3.49807
G1 X119.27 Y69.285 E3.53084
G1 X119.01 Y69.867 E3.5531
G1 X118.699 Y70.497 E3.57764
G1 X118.339 Y71.137 E3.60328
G1 X117.866 Y71.869 E3.63372
G1 X117.479 Y72.415 E3.65709
G1 X116.913 Y73.136 E3.6891
G1 X116.516 Y73.594 E3.71027
G1 X116.06 Y74.084 E3.73365
G1 X115.44 Y74.677 E3.76361
G1 X114.812 Y75.206 E3.79228
G1 X114.297 Y75.605 E3.81503
G1 X113.551 Y76.127 E3.84683
G1 X112.978 Y76.488 E3.87048
G1 X112.335 Y76.859 E3.89641
G1 X111.609 Y77.219 E3.92471
G1 X110.918 Y77.513 E3.95093
G1 X110.266 Y77.763 E3.97532
G1 X109.499 Y78.02 E4.00357
G1 X108.865 Y78.193 E4.02652
G1 X108.019 Y78.373 E4.05673
G1 X107.371 Y78.482 E4.07968
G1 X106.458 Y78.59 E4.11178
G1 X105.892 Y78.629 E4.1316
G1 X104.979 Y78.647 E4.16349
G1 X104.275 Y78.627 E4.18808
G1 X101.107 Y78.392 E4.29902
G1 X98.542 Y78.266 E4.38871
G1 X95.995 Y78.212 E4.47768
G1 X93.414 Y78.231 E4.56782
G1 X90.881 Y78.321 E4.65633
G1 X88.282 Y78.487 E4.74728
G1 X86.199 Y78.677 E4.82033
G1 X85.098 Y78.756 E4.85888
G1 X84.176 Y78.775 E4.89109
G1 X83.581 Y78.758 E4.91187
G1 X82.679 Y78.689 E4.94347
G1 X82.105 Y78.617 E4.96367
G1 X81.187 Y78.455 E4.99622
G1 X80.498 Y78.298 E5.0209
G1 X79.686 Y78.074 E5.05032
G1 X79.044 Y77.855 E5.07401
G1 X78.317 Y77.562 E5.10138
G1 X77.689 Y77.28 E5.12542
G1 X77.007 Y76.94 E5.15204
G1 X76.395 Y76.591 E5.17664
G1 X75.701 Y76.139 E5.20557
G1 X75.164 Y75.758 E5.22856
G1 X74.441 Y75.191 E5.26065
G1 X73.956 Y74.77 E5.28308
G1 X73.451 Y74.298 E5.30722
G1 X72.862 Y73.676 E5.33713
G1 X72.356 Y73.072 E5.36465
G1 X71.955 Y72.555 E5.3875
G1 X71.556 Y72 E5.41137
G1 X71.114 Y71.306 E5.44011
G1 X70.551 Y70.278 E5.48104
G1 X70.065 Y69.191 E5.52262
G1 X69.817 Y68.543 E5.54685
G1 X69.562 Y67.781 E5.57491
G1 X69.389 Y67.147 E5.59786
G1 X69.209 Y66.301 E5.62807
G1 X69.1 Y65.653 E5.65102
G1 X68.993 Y64.745 E5.68295
G1 X68.954 Y64.183 E5.70262
G1 X68.935 Y63.267 E5.73462
G1 X68.952 Y62.665 E5.75565
G1 X69.022 Y61.756 E5.78749
G1 X69.289 Y59.635 E5.86215
G1 X69.442 Y58.466 E5.90332
G1 X69.708 Y55.9 E5.99341
G1 X69.902 Y53.329 E6.08346
G1 X70.022 Y50.754 E6.17348
G1 X70.068 Y48.246 E6.26108
G1 X70.042 Y45.632 E6.35238
G1 X69.945 Y43.081 E6.44153
G1 X69.778 Y40.559 E6.5298
G1 X69.531 Y37.972 E6.62056
G1 X69.22 Y35.455 E6.70913
G1 X69.137 Y34.912 E6.72831
G1 X68.995 Y33.861 E6.76535
G1 X68.936 Y33.279 E6.78578
G1 X68.893 Y32.668 E6.80717
G1 X68.874 Y31.745 E6.83941
G1 X68.891 Y31.138 E6.86062
G1 X68.962 Y30.216 E6.89291
G1 X69.045 Y29.563 E6.9159
G1 X69.169 Y28.824 E6.94207
G1 X69.325 Y28.136 E6.9667
G1 X69.59 Y27.196 E7.00081
G1 X69.79 Y26.615 E7.02227
M204 S3000
M205 X10 Y10
G0 F6000 X70.314 Y26.812
M204 S1800
M205 X8 Y8
G1 F1200 X70.595 Y26.113 E7.04858
G1 X70.878 Y25.482 E7.07273
G1 X71.193 Y24.849 E7.09742
G1 X71.54 Y24.241 E7.12187
G1 X71.971 Y23.577 E7.14952
G1 X72.348 Y23.046 E7.17226
G1 X72.881 Y22.368 E7.20238
G1 X73.303 Y21.882 E7.22486
G1 X73.764 Y21.391 E7.24838
G1 X74.324 Y20.859 E7.27535
G1 X74.918 Y20.361 E7.30242
G1 X75.414 Y19.978 E7.32431
G1 X76.098 Y19.5 E7.35345
G1 X76.608 Y19.178 E7.37451
G1 X77.354 Y18.756 E7.40445
G1 X77.831 Y18.516 E7.42309
G1 X78.599 Y18.174 E7.45245
G1 X79.396 Y17.907 E7.48181
G1 X80.215 Y17.717 E7.51117
G1 X81.048 Y17.605 E7.54052
G1 X81.987 Y17.575 E7.57333
G1 X84.954 Y17.598 E7.67695
G1 X86.219 Y17.575 E7.72114
G1 X86.698 Y17.574 E7.73787
G1 X87.432 Y17.605 E7.76352
G1 X90.543 Y17.827 E7.87244
G1 X93.089 Y17.934 E7.96144
G1 X95.659 Y17.967 E8.0512
G1 X98.231 Y17.928 E8.14103
G1 X101.303 Y17.788 E8.24842
G1 X101.98 Y17.746 E8.27211
G1 X102.606 Y17.729 E8.29398
G1 X105.489 Y17.754 E8.39467
G1 X106.939 Y17.729 E8.44532
G1 X107.442 Y17.728 E8.46288
G1 X108.282 Y17.768 E8.49225
G1 X109.114 Y17.888 E8.52161
G1 X109.931 Y18.086 E8.55097
G1 X110.726 Y18.36 E8.58033
G1 X111.535 Y18.732 E8.61143
G1 X112.05 Y19.001 E8.63172
G1 X112.651 Y19.336 E8.65575
G1 X113.371 Y19.788 E8.68544
G1 X114.229 Y20.432 E8.7229
G1 X114.87 Y20.973 E8.7522
G1 X115.419 Y21.478 E8.77825
G1 X115.962 Y22.043 E8.80561
G1 X116.502 Y22.681 E8.83481
G1 X116.9 Y23.196 E8.85754
G1 X117.384 Y23.89 E8.88708
G1 X117.745 Y24.463 E8.91074
G1 X118.102 Y25.083 E8.93572
G1 X118.434 Y25.752 E8.9618
G1 X118.718 Y26.416 E8.98702
G1 X118.962 Y27.051 E9.01078
G1 X119.186 Y27.711 E9.03512
G1 X119.379 Y28.405 E9.06028
G1 X119.551 Y29.213 E9.08913
G1 X119.659 Y29.854 E9.11183
G1 X119.761 Y30.717 E9.14218
G1 X119.803 Y31.328 E9.16357
G1 X119.821 Y32.163 E9.19273
G1 X119.808 Y32.664 E9.21024
G1 X119.742 Y33.537 E9.24081
G1 X119.37 Y36.497 E9.345
G1 X119.101 Y39.076 E9.43555
G1 X118.903 Y41.676 E9.52662
G1 X118.781 Y44.248 E9.61654
G1 X118.732 Y46.77 E9.70463
G1 X118.756 Y49.398 E9.79641
G1 X118.853 Y51.979 E9.88661
G1 X119.021 Y54.545 E9.97642
G1 X119.261 Y57.101 E10.06607
G1 X119.576 Y59.657 E10.15601
G1 X119.675 Y60.302 E10.1788
G1 X119.816 Y61.35 E10.21573
G1 X119.872 Y61.901 E10.23507
G1 X119.918 Y62.563 E10.25825
G1 X119.936 Y63.404 E10.28763
G1 X119.923 Y63.908 E10.30523
G1 X119.858 Y64.776 E10.33563
G1 X119.78 Y65.4 E10.35759
G1 X119.628 Y66.262 E10.38816
G1 X119.499 Y66.83 E10.4085
G1 X119.27 Y67.654 E10.43837
G1 X119.078 Y68.233 E10.45967
G1 X118.758 Y69.057 E10.49054
G1 X118.498 Y69.639 E10.5128
G1 X118.207 Y70.231 E10.53584
G1 X117.861 Y70.845 E10.56045
G1 X117.409 Y71.545 E10.58955
G1 X117.022 Y72.091 E10.61293
G1 X116.49 Y72.769 E10.64302
G1 X116.093 Y73.227 E10.66419
G1 X115.664 Y73.688 E10.68618
G1 X115.07 Y74.257 E10.71491
G1 X114.469 Y74.763 E10.74235
G1 X113.954 Y75.162 E10.7651
G1 X113.252 Y75.653 E10.79502
G1 X112.679 Y76.014 E10.81867
G1 X112.075 Y76.363 E10.84303
G1 X111.38 Y76.708 E10.87013
G1 X110.718 Y76.99 E10.89526
G1 X110.066 Y77.24 E10.91964
G1 X109.344 Y77.482 E10.94623
G1 X108.734 Y77.648 E10.96831
G1 X107.926 Y77.821 E10.99717
G1 X107.278 Y77.93 E11.02012
G1 X106.42 Y78.031 E11.05029
G1 X105.854 Y78.07 E11.0701
G1 X104.995 Y78.087 E11.10011
G1 X104.291 Y78.067 E11.1247
G1 X101.144 Y77.833 E11.23491
G1 X98.583 Y77.707 E11.32446
G1 X96.002 Y77.652 E11.41461
G1 X93.39 Y77.671 E11.50583
G1 X90.86 Y77.761 E11.59425
G1 X88.27 Y77.927 E11.68488
G1 X86.148 Y78.12 E11.7593
G1 X85.059 Y78.198 E11.79742
G1 X84.192 Y78.215 E11.82771
G1 X83.597 Y78.198 E11.8485
G1 X82.749 Y78.133 E11.8782
G1 X82.175 Y78.061 E11.8984
G1 X81.311 Y77.909 E11.92904
G1 X80.622 Y77.752 E11.95372
G1 X79.859 Y77.542 E11.98135
G1 X79.242 Y77.331 E12.00413
G1 X78.547 Y77.051 E12.03029
G1 X77.919 Y76.769 E12.05434
G1 X77.277 Y76.449 E12.07939
G1 X76.689 Y76.114 E12.10302
G1 X76.025 Y75.683 E12.13067
G1 X75.488 Y75.302 E12.15366
G1 X74.808 Y74.768 E12.18386
G1 X74.323 Y74.347 E12.20628
G1 X73.848 Y73.903 E12.22899
G1 X73.284 Y73.308 E12.25762
G1 X72.799 Y72.729 E12.284
G1 X72.398 Y72.212 E12.30685
G1 X72.023 Y71.69 E12.3293
G1 X71.598 Y71.024 E12.35689
G1 X71.056 Y70.036 E12.39624
G1 X70.588 Y68.991 E12.43623
G1 X70.34 Y68.343 E12.46046
G1 X70.1 Y67.626 E12.48687
G1 X69.934 Y67.016 E12.50894
G1 X69.761 Y66.208 E12.5378
G1 X69.652 Y65.56 E12.56075
G1 X69.551 Y64.706 E12.59078
G1 X69.512 Y64.144 E12.61046
G1 X69.495 Y63.282 E12.64056
G1 X69.512 Y62.68 E12.6616
G1 X69.577 Y61.826 E12.69151
G1 X69.844 Y59.705 E12.76616
G1 X69.999 Y58.523 E12.8078
G1 X70.268 Y55.93 E12.89884
G1 X70.461 Y53.361 E12.98881
G1 X70.58 Y50.827 E13.0774
G1 X70.628 Y48.215 E13.16864
G1 X70.602 Y45.639 E13.2586
G1 X70.504 Y43.059 E13.34877
G1 X70.332 Y40.469 E13.43942
G1 X70.09 Y37.924 E13.5287
G1 X69.774 Y35.367 E13.61868
G1 X69.691 Y34.827 E13.63776
G1 X69.551 Y33.787 E13.67441
G1 X69.495 Y33.24 E13.69361
G1 X69.452 Y32.629 E13.715
G1 X69.433 Y31.761 E13.74532
G1 X69.45 Y31.154 E13.76653
G1 X69.518 Y30.286 E13.79693
G1 X69.601 Y29.633 E13.81992
G1 X69.717 Y28.939 E13.84449
G1 X69.867 Y28.278 E13.86816
G1 X70.122 Y27.371 E13.90107
G1 X70.314 Y26.812 E13.92171
M204 S3000
M205 X10 Y10
G0 F6000 X70.838 Y27.009
M204 S1800
M205 X8 Y8
G1 F1200 X71.106 Y26.343 E13.94678
G1 X71.389 Y25.712 E13.97093
G1 X71.684 Y25.119 E13.99406
G1 X72.016 Y24.535 E14.01752
G1 X72.428 Y23.902 E14.0439
G1 X72.805 Y23.371 E14.06664
G1 X73.304 Y22.735 E14.09487
G1 X73.726 Y22.249 E14.11735
G1 X74.157 Y21.789 E14.13937
G1 X74.693 Y21.28 E14.16518
G1 X75.26 Y20.804 E14.19103
G1 X75.756 Y20.421 E14.21292
G1 X76.397 Y19.974 E14.24021
G1 X76.907 Y19.652 E14.26127
G1 X77.605 Y19.256 E14.2893
G1 X78.082 Y19.016 E14.30795
G1 X78.826 Y18.687 E14.33636
G1 X79.599 Y18.432 E14.36479
G1 X80.393 Y18.254 E14.3932
G1 X81.201 Y18.155 E14.42163
G1 X81.975 Y18.135 E14.44867
G1 X84.96 Y18.158 E14.55292
G1 X86.229 Y18.135 E14.59724
G1 X86.698 Y18.134 E14.61362
G1 X87.386 Y18.163 E14.63767
G1 X90.482 Y18.385 E14.74607
G1 X93.093 Y18.494 E14.83734
G1 X95.659 Y18.527 E14.92696
G1 X98.265 Y18.488 E15.01798
G1 X101.305 Y18.349 E15.12425
G1 X102.015 Y18.305 E15.1491
G1 X102.601 Y18.289 E15.16957
G1 X105.494 Y18.314 E15.2706
G1 X106.948 Y18.289 E15.32139
G1 X108.255 Y18.328 E15.36706
G1 X109.059 Y18.448 E15.39544
G1 X109.849 Y18.645 E15.42388
G1 X110.615 Y18.92 E15.4523
G1 X111.275 Y19.229 E15.47775
G1 X111.79 Y19.498 E15.49804
G1 X112.376 Y19.823 E15.52144
G1 X113.05 Y20.247 E15.54925
G1 X113.867 Y20.86 E15.58492
G1 X114.508 Y21.401 E15.61422
G1 X115.023 Y21.874 E15.63864
G1 X115.544 Y22.415 E15.66487
G1 X116.059 Y23.024 E15.69272
G1 X116.457 Y23.539 E15.71545
G1 X116.911 Y24.188 E15.74311
G1 X117.272 Y24.761 E15.76676
G1 X117.606 Y25.342 E15.79017
G1 X117.923 Y25.982 E15.81511
G1 X118.195 Y26.617 E15.83923
G1 X118.439 Y27.252 E15.86299
G1 X118.649 Y27.87 E15.88578
G1 X118.834 Y28.535 E15.90989
G1 X118.999 Y29.306 E15.93743
G1 X119.107 Y29.947 E15.96013
G1 X119.203 Y30.755 E15.98854
G1 X119.245 Y31.366 E16.00993
G1 X119.261 Y32.149 E16.03728
G1 X119.248 Y32.65 E16.05478
G1 X119.186 Y33.467 E16.0834
G1 X118.815 Y36.42 E16.18734
G1 X118.541 Y39.042 E16.27941
G1 X118.346 Y41.609 E16.36931
G1 X118.221 Y44.245 E16.46147
G1 X118.172 Y46.77 E16.54967
G1 X118.196 Y49.424 E16.64236
G1 X118.293 Y52 E16.73238
G1 X118.461 Y54.567 E16.82222
G1 X118.708 Y57.188 E16.91416
G1 X119.022 Y59.741 E17.00399
G1 X119.121 Y60.387 E17.02682
G1 X119.261 Y61.424 E17.06336
G1 X119.313 Y61.94 E17.08147
G1 X119.359 Y62.602 E17.10465
G1 X119.376 Y63.39 E17.13217
G1 X119.363 Y63.894 E17.14978
G1 X119.302 Y64.707 E17.17825
G1 X119.224 Y65.331 E17.20022
G1 X119.082 Y66.138 E17.22883
G1 X118.953 Y66.706 E17.24917
G1 X118.738 Y67.478 E17.27716
G1 X118.546 Y68.057 E17.29846
G1 X118.247 Y68.828 E17.32734
G1 X117.987 Y69.41 E17.3496
G1 X117.714 Y69.965 E17.3712
G1 X117.383 Y70.553 E17.39477
G1 X116.952 Y71.221 E17.42253
G1 X116.565 Y71.767 E17.4459
G1 X116.067 Y72.402 E17.47409
G1 X115.67 Y72.86 E17.49525
G1 X115.268 Y73.292 E17.51586
G1 X114.7 Y73.837 E17.54335
G1 X114.126 Y74.32 E17.56955
G1 X113.611 Y74.719 E17.5923
G1 X112.954 Y75.18 E17.62033
G1 X112.381 Y75.541 E17.64398
G1 X111.814 Y75.867 E17.66682
G1 X111.151 Y76.197 E17.69269
G1 X110.517 Y76.467 E17.71675
G1 X109.865 Y76.717 E17.74114
G1 X109.189 Y76.944 E17.76604
G1 X108.603 Y77.104 E17.78726
G1 X107.833 Y77.268 E17.81475
G1 X107.185 Y77.377 E17.8377
G1 X106.381 Y77.472 E17.86597
G1 X105.815 Y77.511 E17.88579
G1 X105.011 Y77.528 E17.91387
G1 X104.307 Y77.508 E17.93847
G1 X101.179 Y77.274 E18.04801
G1 X98.586 Y77.146 E18.13868
G1 X96.01 Y77.092 E18.22866
G1 X93.402 Y77.111 E18.31974
G1 X90.803 Y77.203 E18.41056
G1 X88.22 Y77.369 E18.50096
G1 X86.097 Y77.562 E18.5754
G1 X85.02 Y77.639 E18.61311
G1 X84.208 Y77.656 E18.64148
G1 X83.613 Y77.639 E18.66226
G1 X82.818 Y77.578 E18.69011
G1 X82.244 Y77.506 E18.71031
G1 X81.435 Y77.363 E18.739
G1 X80.746 Y77.206 E18.76368
G1 X80.032 Y77.009 E18.78955
G1 X79.439 Y76.807 E18.81143
G1 X78.776 Y76.54 E18.83639
G1 X78.148 Y76.258 E18.86043
G1 X77.547 Y75.959 E18.88387
G1 X76.982 Y75.637 E18.90658
G1 X76.349 Y75.226 E18.93294
G1 X75.812 Y74.845 E18.95593
G1 X75.175 Y74.345 E18.98422
G1 X74.69 Y73.924 E19.00664
G1 X74.246 Y73.508 E19.02789
G1 X73.707 Y72.94 E19.05524
G1 X73.241 Y72.386 E19.08052
G1 X72.84 Y71.869 E19.10337
G1 X72.489 Y71.38 E19.12439
G1 X72.082 Y70.742 E19.15082
G1 X71.561 Y69.794 E19.1886
G1 X71.111 Y68.791 E19.22699
G1 X70.863 Y68.143 E19.25122
G1 X70.638 Y67.471 E19.27597
G1 X70.478 Y66.885 E19.29718
G1 X70.314 Y66.115 E19.32468
G1 X70.205 Y65.467 E19.34763
G1 X70.11 Y64.667 E19.37576
G1 X70.071 Y64.105 E19.39543
G1 X70.054 Y63.298 E19.42362
G1 X70.071 Y62.696 E19.44466
G1 X70.133 Y61.896 E19.47268
G1 X70.4 Y59.775 E19.54733
G1 X70.557 Y58.575 E19.5896
G1 X70.824 Y55.995 E19.68018
G1 X71.02 Y53.394 E19.77127
G1 X71.14 Y50.828 E19.86099
G1 X71.188 Y48.22 E19.95208
G1 X71.162 Y45.613 E20.04313
G1 X71.064 Y43.034 E20.13326
G1 X70.892 Y40.448 E20.22377
G1 X70.644 Y37.84 E20.31526
G1 X70.332 Y35.317 E20.40404
G1 X70.244 Y34.742 E20.42436
G1 X70.106 Y33.713 E20.46062
G1 X70.053 Y33.2 E20.47863
G1 X70.01 Y32.589 E20.50002
G1 X69.993 Y31.776 E20.52842
G1 X70.01 Y31.169 E20.54962
