;FLAVOR:Marlin
;TIME:1517
;Filament used: 0.718495m
;Layer height: 0.14
;MINX:77.816
;MINY:31.11
;MINZ:0.15
;MAXX:132.183
;MAXY:46.678
;MAXZ:29.97
;Generated with Cura_SteamEngine 4.5.0
M140 S60
M105
M190 S60
M104 S200
M105
M109 S200
M82 ;absolute extrusion mode
G21 ;metric values
G90 ;absolute positioning
M82 ;set extruder to absolute mode
M107 ;start with the fan off
G28 X0 Y0 ;move X/Y to min endstops
G28 Z0 ;move Z to min endstops
G1 Z15.0 F100 ;move the platform down 15mm
G92 E0 ;zero the extruded length
G1 F200 E3 ;extrude 3mm of feed stock
G92 E0 ;zero the extruded length again
G1 F100
G0 Y20 F100
M117 Printing...
G5
G92 E0
G92 E0
G1 F2400 E-6
;LAYER_COUNT:214
;LAYER:0
M106 S255
M204 S3000
M205 X10 Y10
G1 F600 Z0.225
G0 F1800 X78.541 Y35.597 Z0.225
M204 S1800
M205 X8 Y8
;TYPE:SKIRT
G1 F600 Z0.15
G1 F2400 E0
G1 X78.926 Y34.875 E0.03143
G1 X79.319 Y34.284 E0.0587
G1 X79.846 Y33.64 E0.09067
G1 X80.344 Y33.142 E0.11772
G1 X80.984 Y32.617 E0.14952
G1 X81.575 Y32.223 E0.17681
G1 X82.301 Y31.836 E0.20841
G1 X82.947 Y31.569 E0.23526
G1 X83.725 Y31.333 E0.2665
G1 X84.423 Y31.193 E0.29384
G1 X85.249 Y31.111 E0.32573
G1 X85.951 Y31.111 E0.3527
G1 X86.77 Y31.192 E0.38431
G1 X87.464 Y31.33 E0.4115
G1 X88.25 Y31.568 E0.44304
G1 X88.898 Y31.836 E0.46998
G1 X89.621 Y32.221 E0.50145
G1 X90.214 Y32.616 E0.52882
G1 X90.856 Y33.142 E0.5607
G1 X91.352 Y33.638 E0.58765
G1 X91.877 Y34.278 E0.61945
G1 X91.9 Y34.313 E0.62106
G1 X92.448 Y33.638 E0.65446
G1 X92.942 Y33.144 E0.6813
G1 X93.58 Y32.621 E0.71299
G1 X94.173 Y32.225 E0.74038
G1 X94.9 Y31.837 E0.77204
G1 X95.548 Y31.569 E0.79898
G1 X96.33 Y31.331 E0.83038
G1 X97.026 Y31.192 E0.85764
G1 X97.849 Y31.111 E0.88941
G1 X98.551 Y31.111 E0.91638
G1 X99.37 Y31.192 E0.948
G1 X100.064 Y31.33 E0.97518
G1 X100.85 Y31.568 E1.00673
G1 X101.498 Y31.836 E1.03366
G1 X102.219 Y32.22 E1.06505
G1 X102.81 Y32.613 E1.09231
G1 X103.454 Y33.14 E1.12428
G1 X103.952 Y33.638 E1.15133
G1 X104.476 Y34.277 E1.18308
G1 X104.5 Y34.313 E1.18474
G1 X105.048 Y33.638 E1.21814
G1 X105.544 Y33.142 E1.24509
G1 X106.184 Y32.617 E1.27689
G1 X106.775 Y32.223 E1.30417
G1 X107.5 Y31.837 E1.33573
G1 X108.148 Y31.569 E1.36266
G1 X108.934 Y31.331 E1.39421
G1 X109.628 Y31.193 E1.42139
G1 X110.441 Y31.112 E1.45278
G1 X111.145 Y31.111 E1.47983
G1 X111.974 Y31.192 E1.51182
G1 X112.67 Y31.331 E1.53909
G1 X113.452 Y31.569 E1.57049
G1 X114.1 Y31.837 E1.59743
G1 X114.822 Y32.222 E1.62886
G1 X115.411 Y32.614 E1.65604
G1 X116.054 Y33.14 E1.68795
G1 X116.552 Y33.638 E1.71501
G1 X117.077 Y34.278 E1.74681
G1 X117.471 Y34.869 E1.77409
G1 X117.6 Y35.111 E1.78463
G1 X118.119 Y34.284 E1.82214
G1 X118.646 Y33.64 E1.8541
G1 X119.142 Y33.144 E1.88105
G1 X119.778 Y32.622 E1.91266
G1 X120.369 Y32.227 E1.93997
G1 X121.097 Y31.838 E1.97167
G1 X121.747 Y31.569 E1.9987
G1 X122.534 Y31.331 E2.03028
G1 X123.228 Y31.193 E2.05747
G1 X124.035 Y31.112 E2.08862
G1 X124.737 Y31.11 E2.11559
G1 X125.575 Y31.192 E2.14794
G1 X126.273 Y31.332 E2.17528
G1 X127.052 Y31.569 E2.20656
G1 X127.7 Y31.837 E2.2335
G1 X128.422 Y32.222 E2.26494
G1 X129.011 Y32.614 E2.29212
G1 X129.654 Y33.14 E2.32403
G1 X130.152 Y33.638 E2.35108
G1 X130.676 Y34.277 E2.38283
G1 X131.069 Y34.866 E2.41003
G1 X131.456 Y35.591 E2.4416
G1 X131.725 Y36.241 E2.46863
G1 X131.963 Y37.028 E2.50021
G1 X132.101 Y37.722 E2.52739
G1 X132.182 Y38.535 E2.55878
G1 X132.183 Y39.239 E2.58582
G1 X132.102 Y40.064 E2.61767
G1 X131.964 Y40.758 E2.64485
G1 X131.726 Y41.544 E2.6764
G1 X131.458 Y42.192 E2.70334
G1 X131.075 Y42.911 E2.73463
G1 X130.683 Y43.501 E2.76184
G1 X130.155 Y44.147 E2.7939
G1 X129.656 Y44.646 E2.821
G1 X129.016 Y45.171 E2.8528
G1 X128.425 Y45.565 E2.88009
G1 X127.7 Y45.951 E2.91164
G1 X127.052 Y46.219 E2.93858
G1 X126.266 Y46.457 E2.97013
G1 X125.572 Y46.595 E2.99731
G1 X124.765 Y46.676 E3.02847
G1 X124.063 Y46.678 E3.05544
G1 X123.225 Y46.596 E3.08778
G1 X122.527 Y46.456 E3.11513
G1 X121.749 Y46.22 E3.14636
G1 X121.103 Y45.953 E3.17322
G1 X120.381 Y45.568 E3.20465
G1 X119.79 Y45.175 E3.23191
G1 X119.146 Y44.648 E3.26388
G1 X118.65 Y44.152 E3.29083
G1 X118.128 Y43.516 E3.32243
G1 X117.733 Y42.925 E3.34974
G1 X117.6 Y42.676 E3.36059
G1 X117.079 Y43.506 E3.39823
G1 X116.553 Y44.149 E3.43015
G1 X116.058 Y44.644 E3.45704
G1 X115.42 Y45.167 E3.48873
G1 X114.827 Y45.563 E3.51612
G1 X114.099 Y45.952 E3.54783
G1 X113.453 Y46.219 E3.57468
G1 X112.672 Y46.456 E3.60604
G1 X111.976 Y46.595 E3.6333
G1 X111.159 Y46.676 E3.66484
G1 X110.455 Y46.677 E3.69189
G1 X109.63 Y46.596 E3.72373
G1 X108.936 Y46.458 E3.75091
G1 X108.15 Y46.22 E3.78246
G1 X107.502 Y45.952 E3.8094
G1 X106.781 Y45.568 E3.84078
G1 X106.19 Y45.175 E3.86805
G1 X105.546 Y44.648 E3.90001
G1 X105.05 Y44.152 E3.92696
G1 X104.527 Y43.514 E3.95865
G1 X104.501 Y43.474 E3.96048
G1 X103.955 Y44.147 E3.99378
G1 X103.456 Y44.646 E4.02089
G1 X102.817 Y45.17 E4.05263
G1 X102.228 Y45.563 E4.07983
G1 X101.502 Y45.95 E4.11144
G1 X100.854 Y46.218 E4.13837
G1 X100.075 Y46.455 E4.16965
G1 X99.377 Y46.595 E4.197
G1 X98.551 Y46.677 E4.22889
G1 X97.849 Y46.677 E4.25586
G1 X97.026 Y46.596 E4.28763
G1 X96.33 Y46.457 E4.31489
G1 X95.549 Y46.22 E4.34625
G1 X94.903 Y45.953 E4.3731
G1 X94.179 Y45.567 E4.40462
G1 X93.586 Y45.172 E4.43199
G1 X92.944 Y44.646 E4.46387
G1 X92.45 Y44.152 E4.49071
G1 X91.928 Y43.516 E4.52232
G1 X91.9 Y43.475 E4.52422
G1 X91.353 Y44.149 E4.55757
G1 X90.858 Y44.644 E4.58446
G1 X90.22 Y45.167 E4.61615
G1 X89.627 Y45.563 E4.64355
G1 X88.899 Y45.952 E4.67526
G1 X88.253 Y46.219 E4.70211
G1 X87.475 Y46.455 E4.73334
G1 X86.777 Y46.595 E4.76069
G1 X85.957 Y46.677 E4.79235
G1 X85.257 Y46.678 E4.81924
G1 X84.425 Y46.596 E4.85135
G1 X83.727 Y46.456 E4.8787
G1 X82.948 Y46.219 E4.90998
G1 X82.3 Y45.951 E4.93692
G1 X81.575 Y45.565 E4.96847
G1 X80.984 Y45.171 E4.99576
G1 X80.344 Y44.646 E5.02756
G1 X79.85 Y44.152 E5.0544
G1 X79.327 Y43.514 E5.08609
G1 X78.931 Y42.921 E5.11348
G1 X78.542 Y42.193 E5.14519
G1 X78.275 Y41.547 E5.17204
G1 X78.039 Y40.769 E5.20327
G1 X77.899 Y40.071 E5.23062
G1 X77.817 Y39.251 E5.26228
G1 X77.816 Y38.551 E5.28917
G1 X77.898 Y37.719 E5.32129
G1 X78.038 Y37.021 E5.34863
G1 X78.274 Y36.243 E5.37987
G1 X78.541 Y35.597 E5.40672
M204 S3000
M205 X10 Y10
G0 F1800 X79.059 Y35.811
M204 S1800
M205 X8 Y8
G1 F2400 X79.392 Y35.185 E5.43396
G1 X79.785 Y34.594 E5.46122
G1 X80.242 Y34.036 E5.48893
G1 X80.74 Y33.538 E5.51599
G1 X81.295 Y33.083 E5.54355
G1 X81.886 Y32.689 E5.57084
G1 X82.515 Y32.354 E5.59822
G1 X83.161 Y32.087 E5.62507
G1 X83.835 Y31.882 E5.65213
G1 X84.533 Y31.742 E5.67948
G1 X85.249 Y31.671 E5.70712
G1 X85.951 Y31.671 E5.73409
G1 X86.661 Y31.741 E5.7615
G1 X87.355 Y31.879 E5.78868
G1 X88.036 Y32.085 E5.81601
G1 X88.684 Y32.353 E5.84295
G1 X89.311 Y32.688 E5.87026
G1 X89.904 Y33.083 E5.89763
G1 X90.46 Y33.538 E5.92523
G1 X90.956 Y34.034 E5.95218
G1 X91.411 Y34.589 E5.97974
G1 X91.805 Y35.18 E6.00703
G1 X91.9 Y35.359 E6.01482
G1 X92.389 Y34.59 E6.04982
G1 X92.844 Y34.034 E6.07742
G1 X93.338 Y33.54 E6.10426
G1 X93.891 Y33.087 E6.13172
G1 X94.484 Y32.691 E6.15912
G1 X95.114 Y32.354 E6.18656
G1 X95.762 Y32.086 E6.2135
G1 X96.44 Y31.88 E6.24072
G1 X97.136 Y31.741 E6.26799
G1 X97.849 Y31.671 E6.29551
G1 X98.551 Y31.671 E6.32248
G1 X99.261 Y31.741 E6.34988
G1 X99.955 Y31.879 E6.37707
G1 X100.636 Y32.085 E6.4044
G1 X101.284 Y32.353 E6.43134
G1 X101.909 Y32.686 E6.45854
G1 X102.5 Y33.079 E6.48581
G1 X103.058 Y33.536 E6.51351
G1 X103.556 Y34.034 E6.54057
G1 X104.01 Y34.588 E6.56808
G1 X104.403 Y35.177 E6.59528
G1 X104.5 Y35.359 E6.60321
G1 X104.989 Y34.59 E6.63822
G1 X105.444 Y34.034 E6.66582
G1 X105.94 Y33.538 E6.69276
G1 X106.495 Y33.083 E6.72033
G1 X107.086 Y32.689 E6.74762
G1 X107.714 Y32.354 E6.77496
G1 X108.362 Y32.086 E6.8019
G1 X109.043 Y31.88 E6.82923
G1 X109.737 Y31.742 E6.85641
G1 X110.442 Y31.672 E6.88363
G1 X111.146 Y31.671 E6.91067
G1 X111.864 Y31.741 E6.93839
G1 X112.56 Y31.88 E6.96565
G1 X113.238 Y32.086 E6.99287
G1 X113.886 Y32.354 E7.01981
G1 X114.512 Y32.688 E7.04707
G1 X115.101 Y33.08 E7.07425
G1 X115.658 Y33.536 E7.1019
G1 X116.156 Y34.034 E7.12896
G1 X116.611 Y34.589 E7.15653
G1 X117.005 Y35.18 E7.18381
G1 X117.34 Y35.809 E7.21119
G1 X117.6 Y36.438 E7.23733
G1 X117.859 Y35.811 E7.2634
G1 X118.192 Y35.185 E7.29063
G1 X118.585 Y34.594 E7.3179
G1 X119.042 Y34.036 E7.34561
G1 X119.538 Y33.54 E7.37255
G1 X120.089 Y33.088 E7.39993
G1 X120.68 Y32.693 E7.42724
G1 X121.311 Y32.356 E7.45472
G1 X121.961 Y32.087 E7.48174
G1 X122.643 Y31.88 E7.50912
G1 X123.337 Y31.742 E7.5363
G1 X124.037 Y31.672 E7.56333
G1 X124.739 Y31.67 E7.5903
G1 X125.465 Y31.741 E7.61832
G1 X126.163 Y31.881 E7.64567
G1 X126.838 Y32.086 E7.67277
G1 X127.486 Y32.354 E7.69971
G1 X128.112 Y32.688 E7.72696
G1 X128.701 Y33.08 E7.75414
G1 X129.258 Y33.536 E7.7818
G1 X129.756 Y34.034 E7.80885
G1 X130.21 Y34.588 E7.83637
G1 X130.603 Y35.177 E7.86357
G1 X130.938 Y35.805 E7.89091
G1 X131.207 Y36.455 E7.91793
G1 X131.414 Y37.137 E7.94531
G1 X131.552 Y37.831 E7.9725
G1 X131.622 Y38.536 E7.99971
G1 X131.623 Y39.24 E8.02676
G1 X131.553 Y39.955 E8.05436
G1 X131.415 Y40.649 E8.08154
G1 X131.209 Y41.33 E8.10887
G1 X130.941 Y41.978 E8.13581
G1 X130.609 Y42.601 E8.16293
G1 X130.217 Y43.191 E8.19014
G1 X129.759 Y43.751 E8.21793
G1 X129.26 Y44.25 E8.24504
G1 X128.705 Y44.705 E8.27261
G1 X128.114 Y45.099 E8.29989
G1 X127.486 Y45.434 E8.32724
G1 X126.838 Y45.702 E8.35418
G1 X126.157 Y45.908 E8.38151
G1 X125.463 Y46.046 E8.40869
G1 X124.763 Y46.116 E8.43571
G1 X124.061 Y46.118 E8.46268
G1 X123.335 Y46.047 E8.49071
G1 X122.637 Y45.907 E8.51805
G1 X121.963 Y45.702 E8.54512
G1 X121.317 Y45.435 E8.57197
G1 X120.691 Y45.102 E8.59921
G1 X120.1 Y44.709 E8.62647
G1 X119.542 Y44.252 E8.65418
G1 X119.046 Y43.756 E8.68113
G1 X118.594 Y43.205 E8.7085
G1 X118.199 Y42.614 E8.73581
G1 X117.862 Y41.983 E8.76329
G1 X117.6 Y41.35 E8.78961
G1 X117.341 Y41.977 E8.81567
G1 X117.007 Y42.604 E8.84296
G1 X116.613 Y43.196 E8.87028
G1 X116.157 Y43.753 E8.89793
G1 X115.662 Y44.248 E8.92483
G1 X115.109 Y44.701 E8.95229
G1 X114.516 Y45.097 E8.97968
G1 X113.885 Y45.434 E9.00716
G1 X113.239 Y45.701 E9.03401
G1 X112.562 Y45.907 E9.0612
G1 X111.866 Y46.046 E9.08846
G1 X111.158 Y46.116 E9.11579
G1 X110.454 Y46.117 E9.14284
G1 X109.739 Y46.047 E9.17044
G1 X109.045 Y45.909 E9.19762
G1 X108.364 Y45.703 E9.22495
G1 X107.716 Y45.435 E9.25189
G1 X107.091 Y45.102 E9.27909
G1 X106.5 Y44.709 E9.30636
G1 X105.942 Y44.252 E9.33407
G1 X105.446 Y43.756 E9.36101
G1 X104.993 Y43.203 E9.38847
G1 X104.597 Y42.61 E9.41587
G1 X104.5 Y42.429 E9.42376
G1 X104.017 Y43.191 E9.45841
G1 X103.559 Y43.751 E9.4862
G1 X103.06 Y44.25 E9.51331
G1 X102.506 Y44.704 E9.54083
G1 X101.917 Y45.097 E9.56803
G1 X101.288 Y45.433 E9.59543
G1 X100.64 Y45.701 E9.62236
G1 X99.965 Y45.906 E9.64946
G1 X99.267 Y46.046 E9.67681
G1 X98.551 Y46.117 E9.70445
G1 X97.849 Y46.117 E9.73142
G1 X97.136 Y46.047 E9.75894
G1 X96.44 Y45.908 E9.78621
G1 X95.763 Y45.702 E9.81339
G1 X95.117 Y45.435 E9.84024
G1 X94.489 Y45.1 E9.86759
G1 X93.896 Y44.705 E9.89496
G1 X93.34 Y44.25 E9.92256
G1 X92.846 Y43.756 E9.94939
G1 X92.394 Y43.205 E9.97677
G1 X91.999 Y42.614 E10.00408
G1 X91.9 Y42.429 E10.01214
G1 X91.412 Y43.197 E10.0471
G1 X90.957 Y43.753 E10.0747
G1 X90.462 Y44.248 E10.10159
G1 X89.909 Y44.701 E10.12905
G1 X89.316 Y45.097 E10.15644
G1 X88.685 Y45.434 E10.18392
G1 X88.039 Y45.701 E10.21077
G1 X87.365 Y45.906 E10.23784
G1 X86.667 Y46.046 E10.26519
G1 X85.956 Y46.117 E10.29264
G1 X85.256 Y46.118 E10.31953
G1 X84.535 Y46.047 E10.34736
G1 X83.837 Y45.907 E10.37471
G1 X83.162 Y45.702 E10.40181
G1 X82.514 Y45.434 E10.42874
G1 X81.886 Y45.099 E10.45609
G1 X81.295 Y44.705 E10.48337
G1 X80.74 Y44.25 E10.51094
G1 X80.246 Y43.756 E10.53778
G1 X79.793 Y43.203 E10.56524
G1 X79.397 Y42.61 E10.59263
G1 X79.06 Y41.979 E10.62012
G1 X78.793 Y41.333 E10.64697
G1 X78.588 Y40.659 E10.67403
G1 X78.448 Y39.961 E10.70138
G1 X78.377 Y39.25 E10.72883
G1 X78.376 Y38.55 E10.75572
G1 X78.447 Y37.829 E10.78355
G1 X78.587 Y37.131 E10.8109
G1 X78.792 Y36.457 E10.83796
G1 X79.059 Y35.811 E10.86481
M204 S3000
M205 X10 Y10
G0 F1800 X79.577 Y36.025
M204 S1800
M205 X8 Y8
G1 F2400 X79.858 Y35.496 E10.88783
G1 X80.251 Y34.905 E10.91509
G1 X80.638 Y34.432 E10.93857
G1 X81.136 Y33.934 E10.96562
G1 X81.606 Y33.549 E10.98896
G1 X82.197 Y33.155 E11.01625
G1 X82.729 Y32.872 E11.0394
G1 X83.375 Y32.605 E11.06625
G1 X83.945 Y32.431 E11.08914
G1 X84.643 Y32.291 E11.11649
G1 X85.249 Y32.231 E11.13989
G1 X85.951 Y32.231 E11.16685
G1 X86.552 Y32.29 E11.19005
G1 X87.246 Y32.428 E11.21723
G1 X87.822 Y32.603 E11.24036
G1 X88.47 Y32.871 E11.2673
G1 X89 Y33.154 E11.29038
G1 X89.593 Y33.549 E11.31775
G1 X90.064 Y33.934 E11.34112
G1 X90.56 Y34.43 E11.36807
G1 X90.945 Y34.9 E11.39141
G1 X91.339 Y35.491 E11.41869
G1 X91.622 Y36.023 E11.44184
G1 X91.889 Y36.669 E11.46869
G1 X91.899 Y36.703 E11.47006
G1 X92.177 Y36.024 E11.49824
G1 X92.46 Y35.494 E11.52132
G1 X92.855 Y34.901 E11.54869
G1 X93.24 Y34.43 E11.57206
G1 X93.734 Y33.936 E11.5989
G1 X94.202 Y33.553 E11.62213
G1 X94.795 Y33.157 E11.64952
G1 X95.328 Y32.872 E11.67274
G1 X95.976 Y32.604 E11.69968
G1 X96.55 Y32.43 E11.72272
G1 X97.246 Y32.291 E11.74999
G1 X97.849 Y32.231 E11.77327
G1 X98.551 Y32.231 E11.80023
G1 X99.152 Y32.29 E11.82343
G1 X99.846 Y32.428 E11.85062
G1 X100.422 Y32.603 E11.87374
G1 X101.07 Y32.871 E11.90068
G1 X101.598 Y33.152 E11.92366
G1 X102.189 Y33.545 E11.95092
G1 X102.662 Y33.932 E11.9744
G1 X103.16 Y34.43 E12.00145
G1 X103.544 Y34.899 E12.02474
G1 X103.937 Y35.488 E12.05194
G1 X104.221 Y36.02 E12.07511
G1 X104.489 Y36.668 E12.10205
G1 X104.5 Y36.703 E12.10346
G1 X104.777 Y36.024 E12.13163
G1 X105.06 Y35.494 E12.15471
G1 X105.455 Y34.901 E12.18208
G1 X105.84 Y34.43 E12.20545
G1 X106.336 Y33.934 E12.23239
G1 X106.806 Y33.549 E12.25573
G1 X107.397 Y33.155 E12.28302
G1 X107.928 Y32.872 E12.30614
G1 X108.576 Y32.604 E12.33307
G1 X109.152 Y32.429 E12.3562
G1 X109.846 Y32.291 E12.38338
G1 X110.443 Y32.232 E12.40643
G1 X111.147 Y32.231 E12.43347
G1 X111.754 Y32.291 E12.4569
G1 X112.45 Y32.43 E12.48417
G1 X113.024 Y32.604 E12.50721
G1 X113.672 Y32.872 E12.53415
G1 X114.201 Y33.154 E12.55718
G1 X114.79 Y33.546 E12.58436
G1 X115.262 Y33.932 E12.60778
G1 X115.76 Y34.43 E12.63484
G1 X116.145 Y34.9 E12.65818
G1 X116.539 Y35.491 E12.68546
G1 X116.822 Y36.023 E12.70861
G1 X117.089 Y36.669 E12.73546
G1 X117.263 Y37.239 E12.75836
G1 X117.403 Y37.937 E12.7857
G1 X117.463 Y38.539 E12.80895
G1 X117.464 Y39.239 E12.83584
G1 X117.404 Y39.849 E12.85938
G1 X117.264 Y40.547 E12.88673
G1 X117.09 Y41.117 E12.90963
G1 X116.823 Y41.763 E12.93648
G1 X116.541 Y42.293 E12.95954
G1 X116.147 Y42.885 E12.98686
G1 X115.761 Y43.357 E13.01028
G1 X115.266 Y43.852 E13.03717
G1 X114.798 Y44.235 E13.06041
G1 X114.205 Y44.631 E13.0878
G1 X113.671 Y44.916 E13.11105
G1 X113.025 Y45.183 E13.1379
G1 X112.452 Y45.357 E13.16091
G1 X111.756 Y45.496 E13.18817
G1 X111.157 Y45.556 E13.2113
G1 X110.453 Y45.557 E13.23834
G1 X109.848 Y45.498 E13.2617
G1 X109.154 Y45.36 E13.28888
G1 X108.578 Y45.185 E13.312
G1 X107.93 Y44.917 E13.33894
G1 X107.402 Y44.636 E13.36192
G1 X106.811 Y44.243 E13.38918
G1 X106.338 Y43.856 E13.41266
G1 X105.842 Y43.36 E13.43961
G1 X105.459 Y42.892 E13.46284
G1 X105.063 Y42.299 E13.49023
G1 X104.778 Y41.765 E13.51348
G1 X104.511 Y41.119 E13.54034
G1 X104.501 Y41.085 E13.5417
G1 X104.223 Y41.764 E13.56988
G1 X103.942 Y42.291 E13.59283
G1 X103.55 Y42.881 E13.62004
G1 X103.163 Y43.355 E13.64355
G1 X102.664 Y43.854 E13.67066
G1 X102.195 Y44.238 E13.69394
G1 X101.606 Y44.631 E13.72114
G1 X101.074 Y44.915 E13.74431
G1 X100.426 Y45.183 E13.77125
G1 X99.855 Y45.357 E13.79418
G1 X99.157 Y45.497 E13.82153
G1 X98.551 Y45.557 E13.84492
G1 X97.849 Y45.557 E13.87189
G1 X97.246 Y45.497 E13.89517
G1 X96.55 Y45.358 E13.92243
G1 X95.977 Y45.184 E13.94544
G1 X95.331 Y44.917 E13.97229
G1 X94.8 Y44.634 E13.9954
G1 X94.207 Y44.239 E14.02278
G1 X93.736 Y43.854 E14.04614
G1 X93.242 Y43.36 E14.07298
G1 X92.859 Y42.893 E14.09618
G1 X92.464 Y42.302 E14.12349
G1 X92.179 Y41.769 E14.14671
G1 X91.91 Y41.119 E14.17373
G1 X91.9 Y41.087 E14.17502
G1 X91.622 Y41.767 E14.20324
