;FLAVOR:Marlin
;TIME:1550
;Filament used: 1.12012m
;Layer height: 0.14
;MINX:76.321
;MINY:15.045
;MINZ:0.15
;MAXX:133.677
;MAXY:33.431
;MAXZ:10.025
;Generated with Cura_SteamEngine 4.5.0
M140 S65
M105
M190 S65
M104 S205
M105
M109 S205
M82 ;absolute extrusion mode
G21 ;metric values
G90 ;absolute positioning
M82 ;set extruder to absolute mode
M107 ;start with the fan off
G28 X0 Y0 ;move X/Y to min endstops
G28 Z0 ;move Z to min endstops
G1 Z15.0 F100 ;move the platform down 15mm
G92 E0 ;zero the extruded length
G1 F200 E3 ;extrude 3mm of feed stock
G92 E0 ;zero the extruded length again
G1 F100
G0 Y20 F100
M117 Printing...
G5
G92 E0
G92 E0
G1 F2400 E-6
;LAYER_COUNT:71
;LAYER:0
M106 S255
M204 S3000
M205 X10 Y10
G1 F600 Z0.225
G0 F1800 X76.571 Y22.072 Z0.225
M204 S1800
M205 X8 Y8
;TYPE:SKIRT
G1 F600 Z0.15
G1 F2400 E0
G1 X76.854 Y21.13 E0.03779
G1 X77.168 Y20.365 E0.06955
G1 X77.63 Y19.497 E0.10733
G1 X78.083 Y18.816 E0.13875
G1 X78.697 Y18.063 E0.17607
G1 X79.273 Y17.482 E0.2075
G1 X80.029 Y16.856 E0.24521
G1 X80.535 Y16.497 E0.26904
G1 X80.965 Y16.237 E0.28834
G1 X81.531 Y15.95 E0.31272
G1 X82.427 Y15.579 E0.34998
G1 X83.203 Y15.343 E0.38113
G1 X84.164 Y15.149 E0.4188
G1 X84.775 Y15.072 E0.44245
G1 X85.29 Y15.045 E0.46226
G1 X85.922 Y15.059 E0.48655
G1 X86.876 Y15.153 E0.52338
G1 X87.674 Y15.311 E0.55463
G1 X88.611 Y15.593 E0.59222
G1 X89.194 Y15.817 E0.61621
G1 X89.658 Y16.036 E0.63592
G1 X90.199 Y16.342 E0.6598
G1 X90.998 Y16.876 E0.69671
G1 X91.625 Y17.389 E0.72783
G1 X91.99 Y17.752 E0.74761
G1 X93.047 Y16.842 E0.80119
G1 X93.538 Y16.495 E0.82429
G1 X93.967 Y16.236 E0.84354
G1 X94.529 Y15.953 E0.86771
G1 X95.421 Y15.583 E0.90481
G1 X96.195 Y15.346 E0.9359
G1 X97.166 Y15.149 E0.97397
G1 X97.988 Y15.065 E1.00571
G1 X98.959 Y15.062 E1.04301
G1 X99.781 Y15.141 E1.07473
G1 X100.749 Y15.331 E1.11263
G1 X101.535 Y15.567 E1.14415
G1 X102.436 Y15.937 E1.18157
G1 X103.162 Y16.321 E1.21312
G1 X103.981 Y16.864 E1.25087
G1 X104.619 Y17.384 E1.28249
G1 X104.99 Y17.752 E1.30256
G1 X106.053 Y16.837 E1.35644
G1 X106.55 Y16.487 E1.3798
G1 X106.984 Y16.226 E1.39925
G1 X107.548 Y15.942 E1.42351
G1 X108.433 Y15.577 E1.46028
G1 X109.203 Y15.343 E1.4912
G1 X110.164 Y15.149 E1.52886
G1 X110.776 Y15.072 E1.55256
G1 X111.294 Y15.045 E1.57248
G1 X111.93 Y15.06 E1.59692
G1 X112.881 Y15.155 E1.63364
G1 X113.67 Y15.311 E1.66453
G1 X114.607 Y15.592 E1.70211
G1 X115.194 Y15.817 E1.72626
G1 X115.658 Y16.036 E1.74597
G1 X116.198 Y16.341 E1.7698
G1 X116.993 Y16.872 E1.80652
G1 X117.619 Y17.384 E1.83759
G1 X117.998 Y17.76 E1.8581
G1 X118.273 Y17.482 E1.87312
G1 X119.029 Y16.856 E1.91083
G1 X119.535 Y16.497 E1.93466
G1 X119.965 Y16.237 E1.95397
G1 X120.531 Y15.95 E1.97834
G1 X121.427 Y15.579 E2.0156
G1 X122.203 Y15.343 E2.04676
G1 X123.164 Y15.149 E2.08442
G1 X123.776 Y15.072 E2.10811
G1 X124.294 Y15.045 E2.12804
G1 X124.93 Y15.06 E2.15248
G1 X125.881 Y15.155 E2.18919
G1 X126.667 Y15.31 E2.21997
G1 X127.597 Y15.588 E2.25726
G1 X128.357 Y15.899 E2.2888
G1 X129.227 Y16.359 E2.32661
G1 X129.919 Y16.818 E2.35851
G1 X130.679 Y17.438 E2.39619
G1 X131.262 Y18.018 E2.42778
G1 X131.888 Y18.776 E2.46555
G1 X132.249 Y19.284 E2.48949
G1 X132.512 Y19.721 E2.50908
G1 X132.796 Y20.287 E2.53341
G1 X133.159 Y21.168 E2.57001
G1 X133.392 Y21.933 E2.60073
G1 X133.589 Y22.904 E2.63879
G1 X133.673 Y23.722 E2.67038
G1 X133.677 Y24.688 E2.70749
G1 X133.599 Y25.509 E2.73917
G1 X133.411 Y26.473 E2.7769
G1 X133.178 Y27.255 E2.80825
G1 X132.807 Y28.165 E2.846
G1 X132.414 Y28.907 E2.87826
G1 X131.866 Y29.73 E2.91624
G1 X131.349 Y30.363 E2.94764
G1 X130.668 Y31.048 E2.98474
G1 X130.034 Y31.571 E3.01631
G1 X129.211 Y32.125 E3.05443
G1 X128.481 Y32.518 E3.08628
G1 X127.581 Y32.893 E3.12373
G1 X126.796 Y33.133 E3.15526
G1 X125.829 Y33.328 E3.19316
G1 X125.012 Y33.411 E3.22471
G1 X124.04 Y33.414 E3.26205
G1 X123.223 Y33.336 E3.29358
G1 X122.264 Y33.149 E3.33111
G1 X121.471 Y32.911 E3.36292
G1 X120.559 Y32.536 E3.4008
G1 X119.834 Y32.152 E3.43231
G1 X119.014 Y31.608 E3.47012
G1 X118.375 Y31.087 E3.50179
G1 X117.999 Y30.714 E3.52213
G1 X117.663 Y31.052 E3.54044
G1 X117.027 Y31.578 E3.57215
G1 X116.208 Y32.128 E3.61005
G1 X115.48 Y32.518 E3.64177
G1 X114.584 Y32.891 E3.67906
G1 X113.805 Y33.13 E3.71036
G1 X112.834 Y33.327 E3.74842
G1 X112.012 Y33.411 E3.78016
G1 X111.04 Y33.414 E3.8175
G1 X110.223 Y33.336 E3.84903
G1 X109.264 Y33.149 E3.88656
G1 X108.471 Y32.911 E3.91837
G1 X107.559 Y32.536 E3.95625
G1 X106.832 Y32.151 E3.98785
G1 X106.016 Y31.609 E4.02549
G1 X105.532 Y31.233 E4.04903
G1 X105.146 Y30.886 E4.06897
G1 X104.991 Y30.723 E4.07761
G1 X104.668 Y31.048 E4.09521
G1 X104.033 Y31.572 E4.12684
G1 X103.214 Y32.123 E4.16476
G1 X102.492 Y32.512 E4.19626
G1 X101.589 Y32.89 E4.23387
G1 X100.796 Y33.133 E4.26573
G1 X99.828 Y33.328 E4.30367
G1 X99.016 Y33.411 E4.33502
G1 X98.05 Y33.415 E4.37213
G1 X97.23 Y33.337 E4.40377
G1 X96.265 Y33.149 E4.44154
G1 X95.471 Y32.911 E4.47338
G1 X94.559 Y32.536 E4.51127
G1 X93.832 Y32.151 E4.54287
G1 X93.016 Y31.609 E4.5805
G1 X92.532 Y31.233 E4.60404
G1 X92.146 Y30.886 E4.62398
G1 X91.991 Y30.723 E4.63262
G1 X91.668 Y31.048 E4.65023
G1 X91.034 Y31.571 E4.6818
G1 X90.211 Y32.125 E4.71991
G1 X89.484 Y32.517 E4.75164
G1 X88.583 Y32.893 E4.78915
G1 X87.999 Y33.088 E4.8128
G1 X86.896 Y33.319 E4.85609
G1 X85.93 Y33.415 E4.89338
G1 X85.312 Y33.431 E4.91713
G1 X84.795 Y33.406 E4.93701
G1 X84.183 Y33.331 E4.9607
G1 X83.253 Y33.147 E4.99712
G1 X82.481 Y32.916 E5.02808
G1 X81.572 Y32.545 E5.06579
G1 X80.832 Y32.153 E5.09796
G1 X80.013 Y31.608 E5.13575
G1 X79.379 Y31.089 E5.16723
G1 X78.687 Y30.401 E5.20471
G1 X78.163 Y29.767 E5.23631
G1 X77.615 Y28.952 E5.27404
G1 X77.226 Y28.231 E5.30551
G1 X76.846 Y27.324 E5.34329
G1 X76.646 Y26.723 E5.36762
G1 X76.521 Y26.225 E5.38735
G1 X76.415 Y25.61 E5.41132
G1 X76.323 Y24.666 E5.44776
G1 X76.321 Y23.875 E5.47814
G1 X76.411 Y22.896 E5.51591
G1 X76.571 Y22.072 E5.54815
M204 S3000
M205 X10 Y10
G0 F1800 X77.107 Y22.233
M204 S1800
M205 X8 Y8
G1 F2400 X77.39 Y21.291 E5.58594
G1 X77.663 Y20.628 E5.61348
G1 X78.125 Y19.76 E5.65126
G1 X78.517 Y19.17 E5.67847
G1 X79.131 Y18.417 E5.71579
G1 X79.63 Y17.913 E5.74304
G1 X80.386 Y17.287 E5.78075
G1 X80.825 Y16.976 E5.80141
G1 X81.255 Y16.716 E5.82072
G1 X81.745 Y16.468 E5.84181
G1 X82.641 Y16.097 E5.87907
G1 X83.314 Y15.892 E5.90609
G1 X84.275 Y15.698 E5.94376
G1 X84.804 Y15.631 E5.96424
G1 X85.319 Y15.604 E5.98405
G1 X85.867 Y15.617 E6.00511
G1 X86.821 Y15.711 E6.04193
G1 X87.513 Y15.847 E6.06903
G1 X88.45 Y16.129 E6.10662
G1 X88.955 Y16.323 E6.1274
G1 X89.419 Y16.542 E6.14711
G1 X89.888 Y16.808 E6.16782
G1 X90.687 Y17.342 E6.20474
G1 X91.23 Y17.787 E6.23171
G1 X91.915 Y18.468 E6.26882
G1 X91.994 Y18.563 E6.27356
G1 X92.666 Y17.878 E6.31043
G1 X93.402 Y17.275 E6.34698
G1 X93.828 Y16.975 E6.36699
G1 X94.257 Y16.716 E6.38624
G1 X94.743 Y16.47 E6.40717
G1 X95.635 Y16.1 E6.44427
G1 X96.306 Y15.895 E6.47122
G1 X97.277 Y15.698 E6.50928
G1 X97.99 Y15.625 E6.53681
G1 X98.961 Y15.622 E6.57412
G1 X99.673 Y15.69 E6.60159
G1 X100.641 Y15.88 E6.63949
G1 X101.323 Y16.085 E6.66684
G1 X102.224 Y16.455 E6.70426
G1 X102.852 Y16.788 E6.73157
G1 X103.671 Y17.331 E6.76932
G1 X104.224 Y17.782 E6.79673
G1 X104.912 Y18.465 E6.83397
G1 X104.993 Y18.563 E6.83886
G1 X105.666 Y17.878 E6.87575
G1 X106.408 Y17.27 E6.9126
G1 X106.839 Y16.967 E6.93284
G1 X107.273 Y16.706 E6.95229
G1 X107.761 Y16.46 E6.97329
G1 X108.646 Y16.095 E7.01006
G1 X109.314 Y15.892 E7.03688
G1 X110.275 Y15.698 E7.07454
G1 X110.806 Y15.631 E7.0951
G1 X111.324 Y15.604 E7.11503
G1 X111.875 Y15.617 E7.1362
G1 X112.826 Y15.712 E7.17292
G1 X113.51 Y15.847 E7.1997
G1 X114.447 Y16.128 E7.23728
G1 X114.955 Y16.323 E7.25818
G1 X115.419 Y16.542 E7.27789
G1 X115.887 Y16.807 E7.29855
G1 X116.682 Y17.338 E7.33528
G1 X117.224 Y17.782 E7.3622
G1 X117.912 Y18.465 E7.39944
G1 X118.002 Y18.574 E7.40487
G1 X118.63 Y17.913 E7.43989
G1 X119.386 Y17.287 E7.4776
G1 X119.825 Y16.976 E7.49827
G1 X120.255 Y16.716 E7.51757
G1 X120.745 Y16.468 E7.53867
G1 X121.641 Y16.097 E7.57592
G1 X122.314 Y15.892 E7.60295
G1 X123.275 Y15.698 E7.64061
G1 X123.806 Y15.631 E7.66117
G1 X124.324 Y15.604 E7.6811
G1 X124.875 Y15.617 E7.70227
G1 X125.826 Y15.712 E7.73899
G1 X126.507 Y15.846 E7.76565
G1 X127.437 Y16.124 E7.80294
G1 X128.095 Y16.394 E7.83026
G1 X128.965 Y16.854 E7.86806
G1 X129.565 Y17.251 E7.8957
G1 X130.325 Y17.871 E7.93338
G1 X130.831 Y18.374 E7.96079
G1 X131.457 Y19.132 E7.99855
G1 X131.769 Y19.573 E8.01931
G1 X132.032 Y20.01 E8.0389
G1 X132.279 Y20.5 E8.05998
G1 X132.642 Y21.381 E8.09658
G1 X132.843 Y22.044 E8.1232
G1 X133.04 Y23.015 E8.16126
G1 X133.113 Y23.724 E8.18864
G1 X133.117 Y24.69 E8.22575
G1 X133.05 Y25.402 E8.25322
G1 X132.862 Y26.366 E8.29095
G1 X132.66 Y27.043 E8.31809
G1 X132.289 Y27.953 E8.35585
G1 X131.948 Y28.596 E8.38381
G1 X131.4 Y29.419 E8.42179
G1 X130.951 Y29.968 E8.44903
G1 X130.27 Y30.653 E8.48614
G1 X129.722 Y31.107 E8.51348
G1 X128.899 Y31.661 E8.55159
G1 X128.266 Y32.001 E8.57919
G1 X127.366 Y32.376 E8.61665
G1 X126.686 Y32.584 E8.64396
G1 X125.719 Y32.779 E8.68186
G1 X125.01 Y32.851 E8.70924
G1 X124.038 Y32.854 E8.74658
G1 X123.33 Y32.787 E8.7739
G1 X122.371 Y32.6 E8.81143
G1 X121.684 Y32.394 E8.83898
G1 X120.772 Y32.019 E8.87686
G1 X120.144 Y31.685 E8.90419
G1 X119.324 Y31.141 E8.94199
G1 X118.77 Y30.689 E8.96946
G1 X118.085 Y30.008 E9.00656
G1 X118.001 Y29.907 E9.01161
G1 X117.266 Y30.657 E9.05195
G1 X116.714 Y31.113 E9.07946
G1 X115.895 Y31.663 E9.11735
G1 X115.265 Y32.001 E9.14482
G1 X114.369 Y32.374 E9.1821
G1 X113.694 Y32.581 E9.20922
G1 X112.723 Y32.778 E9.24729
G1 X112.01 Y32.851 E9.27482
G1 X111.038 Y32.854 E9.31216
G1 X110.33 Y32.787 E9.33948
G1 X109.371 Y32.6 E9.37701
G1 X108.684 Y32.394 E9.40457
G1 X107.772 Y32.019 E9.44245
G1 X107.142 Y31.684 E9.46986
G1 X106.326 Y31.142 E9.50749
G1 X105.907 Y30.817 E9.52786
G1 X105.521 Y30.47 E9.5478
G1 X105.138 Y30.069 E9.5691
G1 X105.003 Y29.904 E9.57729
G1 X104.27 Y30.653 E9.61755
G1 X103.721 Y31.107 E9.64492
G1 X102.902 Y31.658 E9.68284
G1 X102.276 Y31.996 E9.71017
G1 X101.373 Y32.374 E9.74777
G1 X100.686 Y32.584 E9.77537
G1 X99.718 Y32.779 E9.8133
G1 X99.014 Y32.851 E9.84049
G1 X98.048 Y32.855 E9.8776
G1 X97.337 Y32.788 E9.90503
G1 X96.372 Y32.6 E9.9428
G1 X95.684 Y32.394 E9.97039
G1 X94.772 Y32.019 E10.00827
G1 X94.142 Y31.684 E10.03568
G1 X93.326 Y31.142 E10.07331
G1 X92.907 Y30.817 E10.09368
G1 X92.521 Y30.47 E10.11362
G1 X92.136 Y30.067 E10.13503
G1 X92.003 Y29.904 E10.14311
G1 X91.27 Y30.653 E10.18337
G1 X90.722 Y31.107 E10.21071
G1 X89.899 Y31.661 E10.24882
G1 X89.268 Y32 E10.27634
G1 X88.367 Y32.376 E10.31385
G1 X87.862 Y32.545 E10.3343
G1 X86.841 Y32.762 E10.3744
G1 X85.875 Y32.858 E10.41169
G1 X85.339 Y32.872 E10.43229
G1 X84.822 Y32.847 E10.45217
G1 X84.292 Y32.782 E10.47269
G1 X83.362 Y32.598 E10.50911
G1 X82.693 Y32.397 E10.53594
G1 X81.784 Y32.026 E10.57366
G1 X81.142 Y31.686 E10.60157
G1 X80.323 Y31.141 E10.63936
G1 X79.774 Y30.692 E10.6666
G1 X79.082 Y30.004 E10.70409
G1 X78.627 Y29.454 E10.73151
G1 X78.079 Y28.639 E10.76924
G1 X77.743 Y28.015 E10.79646
G1 X77.363 Y27.108 E10.83424
G1 X77.19 Y26.587 E10.85533
G1 X77.065 Y26.089 E10.87505
G1 X76.972 Y25.556 E10.89584
G1 X76.88 Y24.612 E10.93227
G1 X76.878 Y23.926 E10.95863
G1 X76.968 Y22.947 E10.99639
G1 X77.107 Y22.233 E11.02434
M204 S3000
M205 X10 Y10
G0 F1800 X77.643 Y22.394
M204 S1800
M205 X8 Y8
G1 F2400 X77.926 Y21.452 E11.06212
G1 X78.157 Y20.891 E11.08543
G1 X78.619 Y20.023 E11.1232
G1 X78.951 Y19.524 E11.14623
G1 X79.565 Y18.771 E11.18355
G1 X79.988 Y18.345 E11.20661
G1 X80.744 Y17.719 E11.24432
G1 X81.544 Y17.195 E11.28106
G1 X82.856 Y16.614 E11.33618
G1 X83.425 Y16.441 E11.35903
G1 X84.386 Y16.247 E11.39669
G1 X85.349 Y16.163 E11.43382
G1 X86.766 Y16.268 E11.48841
G1 X87.352 Y16.384 E11.51136
G1 X88.289 Y16.666 E11.54895
G1 X89.18 Y17.049 E11.5862
G1 X90.375 Y17.807 E11.64057
G1 X90.836 Y18.184 E11.66344
G1 X91.521 Y18.865 E11.70055
G1 X91.904 Y19.33 E11.72369
G1 X91.998 Y19.47 E11.73017
G1 X92.337 Y19.02 E11.75181
G1 X92.682 Y18.636 E11.77164
G1 X93.757 Y17.709 E11.82617
G1 X94.546 Y17.195 E11.86235
G1 X95.85 Y16.617 E11.91714
G1 X96.418 Y16.443 E11.93996
G1 X97.389 Y16.246 E11.97802
G1 X97.991 Y16.185 E12.00127
G1 X98.962 Y16.182 E12.03857
G1 X99.565 Y16.24 E12.06184
G1 X100.533 Y16.43 E12.09974
G1 X101.11 Y16.603 E12.12288
G1 X102.011 Y16.973 E12.1603
G1 X102.543 Y17.255 E12.18343
G1 X103.362 Y17.798 E12.22117
G1 X103.83 Y18.179 E12.24436
G1 X104.518 Y18.862 E12.2816
G1 X104.903 Y19.328 E12.30482
G1 X104.998 Y19.469 E12.31135
G1 X105.337 Y19.02 E12.33296
G1 X105.682 Y18.636 E12.3528
G1 X106.763 Y17.704 E12.40763
G1 X107.562 Y17.186 E12.44421
G1 X108.86 Y16.613 E12.49871
G1 X109.425 Y16.441 E12.5214
G1 X110.386 Y16.247 E12.55906
G1 X111.353 Y16.163 E12.59635
G1 X112.77 Y16.269 E12.65094
G1 X113.349 Y16.384 E12.67361
G1 X114.286 Y16.665 E12.71119
G1 X115.18 Y17.049 E12.74857
G1 X116.371 Y17.804 E12.80274
G1 X116.83 Y18.179 E12.82551
G1 X117.518 Y18.862 E12.86275
G1 X117.903 Y19.328 E12.88597
G1 X117.996 Y19.467 E12.8924
G1 X118.566 Y18.769 E12.92702
G1 X118.988 Y18.345 E12.95
G1 X119.744 Y17.719 E12.9877
G1 X120.544 Y17.195 E13.02444
G1 X121.856 Y16.614 E13.07956
G1 X122.425 Y16.441 E13.10241
G1 X123.386 Y16.247 E13.14007
G1 X124.353 Y16.163 E13.17736
G1 X125.77 Y16.269 E13.23195
G1 X126.346 Y16.383 E13.2545
G1 X127.276 Y16.661 E13.29179
G1 X127.834 Y16.889 E13.31495
G1 X128.704 Y17.349 E13.35275
G1 X129.211 Y17.685 E13.37612
G1 X129.971 Y18.305 E13.4138
G1 X130.399 Y18.731 E13.43699
G1 X131.025 Y19.489 E13.47476
G1 X131.552 Y20.299 E13.51188
G1 X132.124 Y21.595 E13.5663
G1 X132.295 Y22.156 E13.58883
G1 X132.492 Y23.127 E13.62689
G1 X132.553 Y23.726 E13.65002
G1 X132.557 Y24.692 E13.68713
G1 X132.5 Y25.295 E13.7104
G1 X132.312 Y26.259 E13.74813
G1 X132.141 Y26.832 E13.7711
G1 X131.77 Y27.742 E13.80885
G1 X131.482 Y28.286 E13.8325
G1 X130.934 Y29.109 E13.87048
G1 X130.554 Y29.574 E13.89355
G1 X129.873 Y30.259 E13.93066
G1 X129.409 Y30.642 E13.95377
G1 X128.586 Y31.196 E13.99188
G1 X128.051 Y31.484 E14.01522
G1 X127.151 Y31.859 E14.05268
G1 X126.575 Y32.035 E14.07582
G1 X125.608 Y32.23 E14.11371
G1 X125.009 Y32.291 E14.13684
G1 X124.037 Y32.294 E14.17418
G1 X123.438 Y32.237 E14.1973
G1 X122.479 Y32.05 E14.23483
G1 X121.897 Y31.876 E14.25817
G1 X120.985 Y31.501 E14.29605
G1 X120.453 Y31.219 E14.31918
G1 X119.633 Y30.675 E14.35698
G1 X119.164 Y30.292 E14.38024
G1 X118.479 Y29.611 E14.41735
G1 X118.096 Y29.147 E14.44046
G1 X118.002 Y29.007 E14.44694
G1 X117.554 Y29.574 E14.4747
G1 X116.869 Y30.263 E14.51202
G1 X116.402 Y30.648 E14.53527
G1 X115.583 Y31.198 E14.57317
G1 X115.05 Y31.484 E14.59641
G1 X114.154 Y31.857 E14.63369
G1 X113.582 Y32.033 E14.65668
G1 X112.611 Y32.23 E14.69474
G1 X112.009 Y32.291 E14.71799
G1 X111.037 Y32.294 E14.75533
G1 X110.438 Y32.237 E14.77844
G1 X109.479 Y32.05 E14.81598
G1 X108.897 Y31.876 E14.83931
G1 X107.985 Y31.501 E14.87719
G1 X107.452 Y31.218 E14.90038
G1 X106.636 Y30.676 E14.93801
G1 X105.895 Y30.054 E14.97517
G1 X104.997 Y29.014 E15.02796
G1 X104.554 Y29.574 E15.05539
G1 X103.873 Y30.259 E15.09249
G1 X103.408 Y30.642 E15.11564
G1 X102.589 Y31.193 E15.15356
G1 X102.059 Y31.479 E15.17669
G1 X101.156 Y31.857 E15.2143
G1 X100.575 Y32.035 E15.23764
G1 X99.607 Y32.23 E15.27557
G1 X99.012 Y32.291 E15.29855
G1 X98.046 Y32.295 E15.33566
G1 X97.444 Y32.238 E15.35889
G1 X96.479 Y32.05 E15.39666
G1 X95.897 Y31.876 E15.41999
G1 X94.985 Y31.501 E15.45787
G1 X94.452 Y31.218 E15.48106
G1 X93.636 Y30.676 E15.51869
G1 X92.895 Y30.054 E15.55585
G1 X91.998 Y29.013 E15.60864
G1 X91.554 Y29.574 E15.63613
G1 X90.873 Y30.259 E15.67323
G1 X90.409 Y30.642 E15.69635
G1 X89.586 Y31.196 E15.73446
G1 X89.052 Y31.483 E15.75775
G1 X88.151 Y31.859 E15.79525
G1 X87.24 Y32.125 E15.83171
G1 X85.82 Y32.301 E15.88668
G1 X84.849 Y32.287 E15.92398
G1 X83.47 Y32.048 E15.97775
G1 X82.904 Y31.879 E16.00044
G1 X81.995 Y31.508 E16.03815
G1 X81.453 Y31.22 E16.06173
G1 X80.634 Y30.675 E16.09952
G1 X80.168 Y30.295 E16.12262
G1 X79.476 Y29.607 E16.16011
G1 X79.092 Y29.142 E16.18328
G1 X78.544 Y28.327 E16.221
