;FLAVOR:Marlin
;TIME:22403
;Filament used: 14.7951m
;Layer height: 0.18
;MINX:35.813
;MINY:16.577
;MINZ:0.15
;MAXX:174.195
;MAXY:154.958
;MAXZ:3.465
;Generated with Cura_SteamEngine 4.5.0
M140 S60
M105
M190 S60
M104 S200
M105
M109 S200
M82 ;absolute extrusion mode
G21 ;metric values
G90 ;absolute positioning
M82 ;set extruder to absolute mode
M107 ;start with the fan off
G28 X0 Y0 ;move X/Y to min endstops
G28 Z0 ;move Z to min endstops
G1 Z15.0 F100 ;move the platform down 15mm
G92 E0 ;zero the extruded length
G1 F200 E3 ;extrude 3mm of feed stock
G92 E0 ;zero the extruded length again
G1 F100
G0 Y20 F100
M117 Printing...
G5
G92 E0
G92 E0
G1 F2400 E-6
;LAYER_COUNT:19
;LAYER:0
M106 S255
M204 S3000
M205 X10 Y10
G1 F600 Z0.225
G0 F1800 X51.381 Y42.026 Z0.225
M204 S1800
M205 X8 Y8
;TYPE:SKIRT
G1 F600 Z0.15
G1 F2400 E0
G1 X55.832 Y37.084 E0.2555
G1 X60.834 Y32.506 E0.51598
G1 X66.268 Y28.431 E0.77691
G1 X72.075 Y24.912 E1.03775
G1 X78.197 Y21.979 E1.29853
G1 X84.579 Y19.659 E1.55939
G1 X91.155 Y17.975 E1.82016
G1 X97.869 Y16.945 E2.0811
G1 X104.647 Y16.577 E2.34187
G1 X105.059 Y16.577 E2.35769
G1 X111.567 Y16.882 E2.60797
G1 X118.162 Y17.837 E2.86397
G1 X124.746 Y19.453 E3.1244
G1 X131.282 Y21.755 E3.3906
G1 X137.312 Y24.583 E3.64646
G1 X143.262 Y28.11 E3.91217
G1 X148.738 Y32.145 E4.17347
G1 X153.782 Y36.689 E4.43427
G1 X158.264 Y41.604 E4.6898
G1 X162.332 Y47.03 E4.95032
G1 X165.923 Y52.957 E5.21654
G1 X168.848 Y59.094 E5.4777
G1 X171.155 Y65.481 E5.73858
G1 X172.825 Y72.061 E5.99937
G1 X173.842 Y78.776 E6.26027
G1 X174.195 Y85.557 E6.52112
G1 X173.882 Y92.34 E6.78197
G1 X172.906 Y99.062 E7.0429
G1 X171.275 Y105.653 E7.30374
G1 X169.006 Y112.052 E7.56455
G1 X166.122 Y118.2 E7.82543
G1 X162.65 Y124.034 E8.08623
G1 X158.619 Y129.502 E8.34719
G1 X154.075 Y134.546 E8.60799
G1 X149.058 Y139.121 E8.86882
G1 X143.613 Y143.184 E9.12981
G1 X137.8 Y146.692 E9.39063
G1 X131.795 Y149.553 E9.64616
G1 X125.291 Y151.916 E9.912
G1 X118.837 Y153.555 E10.1678
G1 X112.131 Y154.583 E10.42842
G1 X105.215 Y154.958 E10.69449
G1 X98.424 Y154.646 E10.95565
G1 X91.702 Y153.67 E11.21658
G1 X85.111 Y152.039 E11.47742
G1 X78.71 Y149.769 E11.73832
G1 X72.564 Y146.886 E11.99911
G1 X66.848 Y143.485 E12.25462
G1 X61.268 Y139.387 E12.52057
G1 X56.216 Y134.837 E12.78176
G1 X51.642 Y129.821 E13.04254
G1 X47.58 Y124.377 E13.30347
G1 X44.072 Y118.564 E13.56429
G1 X41.151 Y112.432 E13.82522
G1 X38.845 Y106.047 E14.086
G1 X37.175 Y99.467 E14.34679
G1 X36.179 Y92.886 E14.60248
G1 X35.813 Y86.118 E14.86286
G1 X36.11 Y79.336 E15.12364
G1 X37.093 Y72.474 E15.38994
G1 X38.725 Y65.875 E15.65108
G1 X40.994 Y59.476 E15.9119
G1 X43.878 Y53.328 E16.17277
G1 X47.35 Y47.494 E16.43357
G1 X51.381 Y42.026 E16.69454
M204 S3000
M205 X10 Y10
G0 F1800 X51.83 Y42.36
M204 S1800
M205 X8 Y8
G1 F2400 X56.247 Y37.461 E16.94793
G1 X61.211 Y32.92 E17.20638
G1 X66.603 Y28.88 E17.46521
G1 X72.364 Y25.392 E17.72392
G1 X78.437 Y22.485 E17.98257
G1 X84.768 Y20.185 E18.24133
G1 X91.292 Y18.518 E18.50001
G1 X97.953 Y17.498 E18.75888
G1 X104.676 Y17.137 E19.01751
G1 X105.032 Y17.136 E19.03119
G1 X111.54 Y17.441 E19.28147
G1 X118.079 Y18.391 E19.53531
G1 X124.611 Y19.996 E19.7937
G1 X131.094 Y22.282 E20.05778
G1 X137.072 Y25.089 E20.31148
G1 X142.976 Y28.591 E20.57519
G1 X148.404 Y32.594 E20.83428
G1 X153.406 Y37.104 E21.093
G1 X157.849 Y41.981 E21.34644
G1 X161.883 Y47.365 E21.60489
G1 X165.444 Y53.246 E21.869
G1 X168.342 Y59.333 E22.12798
G1 X170.628 Y65.669 E22.38674
G1 X172.282 Y72.197 E22.64544
G1 X173.288 Y78.858 E22.90423
G1 X173.636 Y85.584 E23.16296
G1 X173.323 Y92.313 E23.42173
G1 X172.352 Y98.98 E23.68055
G1 X170.732 Y105.517 E23.93927
G1 X168.479 Y111.863 E24.19796
G1 X165.616 Y117.961 E24.45675
G1 X162.169 Y123.746 E24.71545
G1 X158.17 Y129.168 E24.97426
G1 X153.66 Y134.17 E25.23299
G1 X148.682 Y138.706 E25.4917
G1 X143.279 Y142.735 E25.75062
G1 X137.512 Y146.211 E26.00929
G1 X131.556 Y149.047 E26.2627
G1 X125.102 Y151.39 E26.52647
G1 X118.7 Y153.012 E26.78018
G1 X112.047 Y154.03 E27.03873
G1 X105.187 Y154.399 E27.30264
G1 X98.451 Y154.087 E27.56168
G1 X91.784 Y153.116 E27.8205
G1 X85.247 Y151.496 E28.07922
G1 X78.898 Y149.242 E28.33803
G1 X72.803 Y146.38 E28.5967
G1 X67.136 Y143.004 E28.85011
G1 X61.6 Y138.937 E29.114
G1 X56.592 Y134.422 E29.37302
G1 X52.057 Y129.445 E29.63169
G1 X48.029 Y124.043 E29.89055
G1 X44.553 Y118.276 E30.14922
G1 X41.657 Y112.193 E30.40803
G1 X39.372 Y105.858 E30.66674
G1 X37.718 Y99.331 E30.9254
G1 X36.733 Y92.803 E31.17902
G1 X36.373 Y86.089 E31.43731
G1 X36.669 Y79.362 E31.69598
G1 X37.647 Y72.555 E31.96016
G1 X39.268 Y66.011 E32.21915
G1 X41.521 Y59.665 E32.47784
G1 X44.384 Y53.567 E32.73663
G1 X47.831 Y47.782 E32.99532
G1 X51.83 Y42.36 E33.25414
M204 S3000
M205 X10 Y10
G0 F1800 X52.28 Y42.693
M204 S1800
M205 X8 Y8
G1 F2400 X56.662 Y37.837 E33.50541
G1 X61.588 Y33.334 E33.76179
G1 X66.938 Y29.329 E34.01852
G1 X72.652 Y25.871 E34.2751
G1 X78.678 Y22.99 E34.53168
G1 X84.958 Y20.712 E34.78831
G1 X91.429 Y19.061 E35.04486
G1 X98.036 Y18.052 E35.30162
G1 X104.705 Y17.696 E35.55817
G1 X105.006 Y17.695 E35.56974
G1 X111.514 Y18 E35.82002
G1 X117.997 Y18.945 E36.0717
G1 X124.476 Y20.54 E36.32802
G1 X130.907 Y22.81 E36.59001
G1 X136.833 Y25.596 E36.84157
G1 X142.689 Y29.072 E37.10317
G1 X148.071 Y33.044 E37.36013
G1 X153.03 Y37.519 E37.61673
G1 X157.434 Y42.357 E37.86806
G1 X161.434 Y47.7 E38.12446
G1 X164.964 Y53.534 E38.38641
G1 X167.835 Y59.573 E38.64328
G1 X170.101 Y65.858 E38.89994
G1 X171.739 Y72.333 E39.15651
G1 X172.734 Y78.94 E39.41318
G1 X173.076 Y85.612 E39.66983
G1 X172.763 Y92.285 E39.92646
G1 X171.798 Y98.898 E40.18319
G1 X170.189 Y105.381 E40.43979
G1 X167.952 Y111.675 E40.6964
G1 X165.109 Y117.721 E40.95305
G1 X161.689 Y123.458 E41.20963
G1 X157.72 Y128.835 E41.46637
G1 X153.245 Y133.794 E41.72297
G1 X148.306 Y138.291 E41.97957
G1 X142.946 Y142.285 E42.23635
G1 X137.224 Y145.731 E42.49295
G1 X131.316 Y148.54 E42.74426
G1 X124.912 Y150.863 E43.00595
G1 X118.564 Y152.469 E43.2575
G1 X111.964 Y153.476 E43.51398
G1 X105.158 Y153.84 E43.7758
G1 X98.479 Y153.527 E44.03266
G1 X91.866 Y152.562 E44.2894
G1 X85.383 Y150.953 E44.546
G1 X79.087 Y148.715 E44.80269
G1 X73.043 Y145.873 E45.05926
G1 X67.424 Y142.524 E45.31055
G1 X61.933 Y138.487 E45.57236
G1 X56.968 Y134.007 E45.82926
G1 X52.472 Y129.069 E46.0858
G1 X48.479 Y123.71 E46.34254
G1 X45.033 Y117.988 E46.59913
G1 X42.164 Y111.953 E46.85584
G1 X39.899 Y105.67 E47.1124
G1 X38.261 Y99.195 E47.36898
G1 X37.287 Y92.721 E47.62048
G1 X36.932 Y86.06 E47.87673
G1 X37.228 Y79.389 E48.13325
G1 X38.201 Y72.636 E48.39535
G1 X39.811 Y66.147 E48.65219
G1 X42.048 Y59.853 E48.90879
G1 X44.891 Y53.807 E49.16545
G1 X48.311 Y48.07 E49.42202
G1 X52.28 Y42.693 E49.67876
M204 S3000
M205 X10 Y10
G0 F1800 X52.73 Y43.027
M204 S1800
M205 X8 Y8
G1 F2400 X57.077 Y38.213 E49.92793
G1 X61.965 Y33.748 E50.18226
G1 X67.272 Y29.778 E50.43686
G1 X72.941 Y26.351 E50.69134
G1 X78.918 Y23.496 E50.94579
G1 X85.148 Y21.239 E51.20034
G1 X91.566 Y19.604 E51.45477
G1 X98.119 Y18.606 E51.70941
G1 X104.733 Y18.255 E51.96385
G1 X111.488 Y18.56 E52.22361
G1 X117.915 Y19.499 E52.47312
G1 X124.341 Y21.083 E52.72737
G1 X130.719 Y23.338 E52.98725
G1 X136.593 Y26.102 E53.23663
G1 X142.402 Y29.553 E53.4962
G1 X147.737 Y33.494 E53.751
G1 X152.653 Y37.934 E54.00547
G1 X157.019 Y42.733 E54.25471
G1 X160.985 Y48.034 E54.50903
G1 X164.484 Y53.823 E54.76889
G1 X167.329 Y59.812 E55.0236
G1 X169.574 Y66.047 E55.27817
G1 X171.195 Y72.47 E55.53265
G1 X172.18 Y79.022 E55.78717
G1 X172.517 Y85.639 E56.0417
G1 X172.204 Y92.258 E56.29626
G1 X171.244 Y98.816 E56.55087
G1 X169.645 Y105.244 E56.80533
G1 X167.425 Y111.486 E57.05983
G1 X164.603 Y117.482 E57.31441
G1 X161.209 Y123.17 E57.56886
G1 X157.27 Y128.501 E57.82349
G1 X152.83 Y133.417 E58.07796
G1 X147.929 Y137.876 E58.3325
G1 X142.612 Y141.835 E58.58716
G1 X136.936 Y145.251 E58.84165
G1 X131.077 Y148.034 E59.09082
G1 X124.722 Y150.336 E59.35048
G1 X118.428 Y151.925 E59.59985
G1 X111.881 Y152.922 E59.85425
G1 X105.129 Y153.281 E60.114
G1 X98.506 Y152.968 E60.36871
G1 X91.948 Y152.008 E60.62333
G1 X85.52 Y150.409 E60.87779
G1 X79.276 Y148.188 E61.13237
G1 X73.282 Y145.367 E61.38686
G1 X67.712 Y142.044 E61.63602
G1 X62.266 Y138.036 E61.89578
G1 X57.345 Y133.592 E62.1505
G1 X52.887 Y128.692 E62.40499
G1 X48.929 Y123.376 E62.65959
G1 X45.513 Y117.7 E62.91408
G1 X42.67 Y111.714 E63.16865
G1 X40.426 Y105.481 E63.42314
G1 X38.805 Y99.058 E63.67762
G1 X37.841 Y92.639 E63.92697
G1 X37.491 Y86.032 E64.18114
G1 X37.788 Y79.415 E64.43559
G1 X38.756 Y72.717 E64.69557
G1 X40.355 Y66.284 E64.95022
G1 X42.575 Y60.042 E65.20472
G1 X45.397 Y54.046 E65.45929
G1 X48.791 Y48.358 E65.71374
G1 X52.73 Y43.027 E65.96838
M204 S3000
M205 X10 Y10
G0 F1800 X53.18 Y43.36
M204 S1800
M205 X8 Y8
G1 F2400 X57.492 Y38.589 E66.21542
G1 X62.342 Y34.162 E66.46768
G1 X67.607 Y30.227 E66.72019
G1 X73.23 Y26.831 E66.97254
G1 X79.158 Y24.002 E67.22486
G1 X85.338 Y21.766 E67.47733
G1 X91.704 Y20.147 E67.72967
G1 X98.203 Y19.16 E67.9822
G1 X104.762 Y18.815 E68.23451
G1 X111.462 Y19.119 E68.49216
G1 X117.833 Y20.053 E68.73952
G1 X124.206 Y21.627 E68.9917
G1 X130.531 Y23.865 E69.24944
G1 X136.354 Y26.608 E69.49671
G1 X142.115 Y30.034 E69.7542
G1 X147.404 Y33.944 E70.00687
G1 X152.277 Y38.349 E70.25922
G1 X156.604 Y43.109 E70.50633
G1 X160.536 Y48.369 E70.75862
G1 X164.004 Y54.112 E71.01634
G1 X166.823 Y60.051 E71.26889
G1 X169.046 Y66.236 E71.52137
G1 X170.652 Y72.606 E71.77373
G1 X171.626 Y79.104 E72.02614
G1 X171.958 Y85.667 E72.27859
G1 X171.645 Y92.23 E72.53099
G1 X170.69 Y98.734 E72.78353
G1 X169.102 Y105.108 E73.03587
G1 X166.897 Y111.297 E73.28826
G1 X164.097 Y117.243 E73.54074
G1 X160.728 Y122.883 E73.79311
G1 X156.82 Y128.168 E74.04562
G1 X152.415 Y133.041 E74.29796
G1 X147.553 Y137.461 E74.55038
G1 X142.279 Y141.385 E74.80291
G1 X136.649 Y144.77 E75.05528
G1 X130.838 Y147.528 E75.30237
G1 X124.532 Y149.809 E75.55998
G1 X118.292 Y151.382 E75.80719
G1 X111.797 Y152.368 E76.05956
G1 X105.1 Y152.721 E76.31719
G1 X98.534 Y152.409 E76.56971
G1 X92.03 Y151.454 E76.82224
G1 X85.656 Y149.866 E77.07459
G1 X79.465 Y147.66 E77.32706
G1 X73.521 Y144.861 E77.57945
G1 X68 Y141.563 E77.82651
G1 X62.599 Y137.586 E78.08417
G1 X57.721 Y133.177 E78.33676
G1 X53.302 Y128.316 E78.58913
G1 X49.379 Y123.043 E78.8416
G1 X45.994 Y117.413 E79.09396
G1 X43.176 Y111.475 E79.34646
G1 X40.954 Y105.292 E79.59885
G1 X39.348 Y98.922 E79.85122
G1 X38.395 Y92.557 E80.09846
G1 X38.051 Y86.003 E80.35058
G1 X38.347 Y79.441 E80.60292
G1 X39.31 Y72.798 E80.86078
G1 X40.898 Y66.42 E81.11327
G1 X43.103 Y60.231 E81.36566
G1 X45.903 Y54.285 E81.61814
G1 X49.272 Y48.645 E81.87052
G1 X53.18 Y43.36 E82.12302
M204 S3000
M205 X10 Y10
G0 F1800 X53.63 Y43.694
M204 S1800
M205 X8 Y8
G1 F2400 X57.907 Y38.965 E82.36796
G1 X62.719 Y34.577 E82.61814
G1 X67.941 Y30.676 E82.86854
G1 X73.519 Y27.311 E83.11879
G1 X79.399 Y24.508 E83.36903
G1 X85.528 Y22.293 E83.61938
G1 X91.841 Y20.69 E83.86959
G1 X98.286 Y19.714 E84.12
G1 X104.79 Y19.374 E84.3702
G1 X111.436 Y19.679 E84.62577
G1 X117.751 Y20.607 E84.87097
G1 X124.071 Y22.17 E85.12107
G1 X130.344 Y24.393 E85.37674
G1 X136.115 Y27.114 E85.62184
G1 X141.828 Y30.515 E85.87725
G1 X147.07 Y34.394 E86.12776
G1 X151.901 Y38.764 E86.37801
G1 X156.189 Y43.485 E86.62301
G1 X160.087 Y48.703 E86.87322
G1 X163.524 Y54.401 E87.12885
G1 X166.317 Y60.291 E87.37927
G1 X168.519 Y66.424 E87.6296
G1 X170.109 Y72.742 E87.87987
G1 X171.072 Y79.187 E88.13021
G1 X171.398 Y85.694 E88.38049
G1 X171.085 Y92.203 E88.63083
G1 X170.136 Y98.651 E88.8812
G1 X168.559 Y104.972 E89.13147
G1 X166.37 Y111.109 E89.38177
G1 X163.591 Y117.003 E89.6321
G1 X160.248 Y122.595 E89.88238
G1 X156.37 Y127.834 E90.13277
G1 X152 Y132.665 E90.38302
G1 X147.177 Y137.046 E90.63332
G1 X141.945 Y140.935 E90.88376
G1 X136.361 Y144.29 E91.13401
G1 X130.598 Y147.022 E91.37901
G1 X124.342 Y149.282 E91.63454
G1 X118.156 Y150.839 E91.87959
G1 X111.714 Y151.814 E92.12988
G1 X105.072 Y152.162 E92.38539
G1 X98.561 Y151.849 E92.6358
G1 X92.113 Y150.9 E92.88617
G1 X85.792 Y149.323 E93.13644
G1 X79.653 Y147.133 E93.38683
G1 X73.761 Y144.355 E93.63707
G1 X68.287 Y141.083 E93.88206
G1 X62.931 Y137.135 E94.13767
G1 X58.097 Y132.762 E94.38808
G1 X53.717 Y127.94 E94.63833
G1 X49.829 Y122.709 E94.88871
G1 X46.474 Y117.125 E95.13896
G1 X43.682 Y111.235 E95.38936
G1 X41.481 Y105.104 E95.6396
G1 X39.891 Y98.786 E95.88988
G1 X38.949 Y92.475 E96.13501
G1 X38.61 Y85.975 E96.38505
G1 X38.907 Y79.467 E96.63531
G1 X39.864 Y72.879 E96.89105
G1 X41.441 Y66.556 E97.14139
G1 X43.63 Y60.419 E97.3917
G1 X46.409 Y54.525 E97.64202
G1 X49.752 Y48.933 E97.8923
G1 X53.63 Y43.694 E98.1427
M204 S3000
M205 X10 Y10
G0 F1800 X54.079 Y44.028
M204 S1800
M205 X8 Y8
G1 F2400 X58.322 Y39.341 E98.38557
G1 X63.096 Y34.991 E98.63368
G1 X68.276 Y31.125 E98.88198
G1 X73.808 Y27.79 E99.13013
G1 X79.639 Y25.013 E99.37824
G1 X85.717 Y22.82 E99.62646
G1 X91.978 Y21.233 E99.87458
G1 X98.369 Y20.267 E100.12289
G1 X104.819 Y19.933 E100.371
G1 X111.409 Y20.238 E100.62443
G1 X117.669 Y21.161 E100.86751
G1 X123.936 Y22.714 E101.11554
G1 X130.156 Y24.921 E101.36908
G1 X135.875 Y27.621 E101.61203
G1 X141.541 Y30.996 E101.86538
G1 X146.736 Y34.843 E102.11371
G1 X151.525 Y39.179 E102.36189
G1 X155.774 Y43.861 E102.60477
G1 X159.638 Y49.038 E102.85293
G1 X163.045 Y54.69 E103.10646
G1 X165.81 Y60.53 E103.35468
G1 X167.992 Y66.613 E103.60294
G1 X169.566 Y72.878 E103.85109
G1 X170.518 Y79.269 E104.09931
G1 X170.839 Y85.722 E104.34751
G1 X170.526 Y92.175 E104.5957
G1 X169.582 Y98.569 E104.84399
G1 X168.016 Y104.836 E105.09214
G1 X165.843 Y110.92 E105.34032
G1 X163.084 Y116.764 E105.58858
G1 X159.768 Y122.307 E105.83671
G1 X155.921 Y127.5 E106.08498
G1 X151.585 Y132.289 E106.33316
G1 X146.801 Y136.631 E106.58135
G1 X141.611 Y140.486 E106.8297
G1 X136.073 Y143.81 E107.07783
G1 X130.359 Y146.515 E107.32069
G1 X124.153 Y148.755 E107.57415
G1 X118.02 Y150.296 E107.81707
G1 X111.631 Y151.261 E108.0653
G1 X105.043 Y151.603 E108.31872
G1 X98.589 Y151.29 E108.56694
G1 X92.195 Y150.346 E108.81523
G1 X85.928 Y148.78 E109.06338
G1 X79.842 Y146.606 E109.31165
G1 X74 Y143.848 E109.55983
G1 X68.575 Y140.603 E109.80267
G1 X63.264 Y136.685 E110.0562
G1 X58.473 Y132.347 E110.30448
G1 X54.132 Y127.564 E110.55262
G1 X50.278 Y122.375 E110.80092
G1 X46.954 Y116.837 E111.04905
G1 X44.189 Y110.996 E111.2973
G1 X42.008 Y104.915 E111.54548
G1 X40.434 Y98.65 E111.79363
G1 X39.503 Y92.393 E112.03664
G1 X39.169 Y85.946 E112.28464
G1 X39.466 Y79.493 E112.5328
G1 X40.418 Y72.96 E112.78642
G1 X41.984 Y66.692 E113.0346
G1 X44.157 Y60.608 E113.28278
G1 X46.916 Y54.764 E113.53105
G1 X50.232 Y49.221 E113.77918
G1 X54.079 Y44.028 E114.02745
M204 S3000
M205 X10 Y10
G0 F1800 X54.529 Y44.361
M204 S1800
M205 X8 Y8
G1 F2400 X58.737 Y39.717 E114.26819
G1 X63.473 Y35.405 E114.51424
G1 X68.611 Y31.574 E114.76044
G1 X74.097 Y28.27 E115.00646
G1 X79.88 Y25.519 E115.25247
G1 X85.907 Y23.347 E115.49858
G1 X92.115 Y21.776 E115.74458
G1 X98.452 Y20.821 E115.99077
G1 X104.848 Y20.492 E116.2368
G1 X111.383 Y20.797 E116.48812
G1 X117.587 Y21.715 E116.72904
G1 X123.801 Y23.257 E116.97499
G1 X129.969 Y25.448 E117.22645
G1 X135.636 Y28.127 E117.46725
G1 X141.254 Y31.477 E117.71852
G1 X146.403 Y35.293 E117.96472
G1 X151.149 Y39.594 E118.21077
G1 X155.359 Y44.237 E118.45154
G1 X159.189 Y49.373 E118.69766
G1 X162.565 Y54.979 E118.94905
G1 X165.304 Y60.769 E119.19511
G1 X167.465 Y66.802 E119.44129
G1 X169.023 Y73.014 E119.68732
G1 X169.964 Y79.351 E119.93343
G1 X170.28 Y85.749 E120.17951
G1 X169.967 Y92.148 E120.42562
G1 X169.028 Y98.487 E120.6718
G1 X167.473 Y104.7 E120.91783
G1 X165.316 Y110.731 E121.16389
G1 X162.578 Y116.525 E121.41007
G1 X159.287 Y122.019 E121.65609
G1 X155.471 Y127.167 E121.90226
G1 X151.17 Y131.913 E122.14831
G1 X146.425 Y136.216 E122.39438
G1 X141.278 Y140.036 E122.64061
G1 X135.785 Y143.329 E122.88664
G1 X130.12 Y146.009 E123.12739
G1 X123.963 Y148.228 E123.37881
G1 X117.884 Y149.753 E123.61957
G1 X111.548 Y150.707 E123.86571
G1 X105.014 Y151.044 E124.11705
G1 X98.616 Y150.731 E124.36313
