;FLAVOR:Marlin
;TIME:1254
;Filament used: 0.173201m
;Layer height: 0.04
;MINX:90.135
;MINY:16.647
;MINZ:0.15
;MAXX:120.075
;MAXY:31.008
;MAXZ:22.99
;Generated with Cura_SteamEngine 4.5.0
M140 S60
M105
M190 S60
M104 S200
M105
M109 S200
M82 ;absolute extrusion mode
G21 ;metric values
G90 ;absolute positioning
M82 ;set extruder to absolute mode
M107 ;start with the fan off
G28 X0 Y0 ;move X/Y to min endstops
G28 Z0 ;move Z to min endstops
G1 Z15.0 F100 ;move the platform down 15mm
G92 E0 ;zero the extruded length
G1 F200 E3 ;extrude 3mm of feed stock
G92 E0 ;zero the extruded length again
G1 F100
G0 Y20 F100
M117 Printing...
G5
G92 E0
G92 E0
G1 F2400 E-6
;LAYER_COUNT:572
;LAYER:0
M106 S255
M204 S3000
M205 X10 Y10
G1 F600 Z0.225
G0 F1800 X90.292 Y22.505 Z0.225
M204 S1800
M205 X8 Y8
;TYPE:SKIRT
G1 F600 Z0.15
G1 F2400 E0
G1 X90.539 Y21.728 E0.03132
G1 X90.877 Y20.986 E0.06264
G1 X91.19 Y20.445 E0.08665
G1 X91.673 Y19.772 E0.11848
G1 X92.481 Y18.95 E0.16275
G1 X93.444 Y18.277 E0.20789
G1 X93.94 Y18.016 E0.22942
G1 X94.556 Y17.752 E0.25516
G1 X95.536 Y17.465 E0.29439
G1 X96.126 Y17.396 E0.31721
G1 X96.971 Y17.358 E0.34971
G1 X97.55 Y17.372 E0.37196
G1 X98.085 Y17.457 E0.39277
G1 X98.599 Y17.573 E0.41301
G1 X99.154 Y17.739 E0.43526
G1 X100.177 Y18.225 E0.47877
G1 X100.304 Y18.3 E0.48444
G1 X101.247 Y17.629 E0.5289
G1 X101.76 Y17.355 E0.55124
G1 X102.506 Y17.045 E0.58227
G1 X103.066 Y16.873 E0.60478
G1 X103.871 Y16.71 E0.63633
G1 X104.457 Y16.65 E0.65896
G1 X105.285 Y16.647 E0.69077
G1 X105.881 Y16.704 E0.71377
G1 X106.699 Y16.865 E0.74579
G1 X107.26 Y17.035 E0.76831
G1 X108.015 Y17.347 E0.79969
G1 X108.528 Y17.62 E0.82202
G1 X108.896 Y17.865 E0.839
G1 X109.758 Y17.357 E0.87744
G1 X110.518 Y17.04 E0.90907
G1 X111.079 Y16.869 E0.9316
G1 X111.883 Y16.708 E0.9631
G1 X112.468 Y16.649 E0.98569
G1 X113.292 Y16.647 E1.01734
G1 X113.884 Y16.704 E1.04019
G1 X114.699 Y16.865 E1.0721
G1 X115.26 Y17.035 E1.09462
G1 X116.022 Y17.351 E1.12631
G1 X116.544 Y17.63 E1.14905
G1 X117.232 Y18.09 E1.18084
G1 X117.683 Y18.461 E1.20328
G1 X118.26 Y19.039 E1.23465
G1 X118.633 Y19.493 E1.25722
G1 X119.089 Y20.172 E1.28864
G1 X119.366 Y20.688 E1.31114
G1 X119.684 Y21.455 E1.34304
G1 X119.854 Y22.015 E1.36552
G1 X120.014 Y22.813 E1.39679
G1 X120.073 Y23.397 E1.41933
G1 X120.075 Y24.22 E1.45095
G1 X120.018 Y24.815 E1.47391
G1 X119.861 Y25.616 E1.50527
G1 X119.695 Y26.172 E1.52756
G1 X119.371 Y26.957 E1.56018
G1 X119.089 Y27.482 E1.58308
G1 X118.637 Y28.157 E1.61428
G1 X118.269 Y28.606 E1.63659
G1 X117.694 Y29.183 E1.66788
G1 X117.242 Y29.556 E1.69039
G1 X116.556 Y30.017 E1.72214
G1 X116.029 Y30.3 E1.74512
G1 X115.257 Y30.62 E1.77722
G1 X114.701 Y30.788 E1.79954
G1 X113.907 Y30.947 E1.83064
G1 X113.322 Y31.006 E1.85323
G1 X112.498 Y31.008 E1.88489
G1 X111.906 Y30.951 E1.90773
G1 X111.101 Y30.792 E1.93925
G1 X110.545 Y30.625 E1.96156
G1 X109.773 Y30.307 E1.99363
G1 X109.251 Y30.028 E2.01637
G1 X108.895 Y29.79 E2.03282
G1 X108.03 Y30.3 E2.07139
G1 X107.284 Y30.61 E2.10243
G1 X106.724 Y30.782 E2.12493
G1 X105.919 Y30.945 E2.15648
G1 X105.333 Y31.005 E2.17911
G1 X104.505 Y31.008 E2.21092
G1 X103.909 Y30.951 E2.23392
G1 X103.097 Y30.791 E2.26571
G1 X102.546 Y30.625 E2.28782
G1 X101.786 Y30.312 E2.3194
G1 X101.254 Y30.029 E2.34254
G1 X100.655 Y29.629 E2.37021
G1 X100.155 Y29.955 E2.39314
G1 X99.683 Y30.199 E2.41356
G1 X99.151 Y30.429 E2.43582
G1 X98.211 Y30.684 E2.47324
G1 X97.641 Y30.786 E2.49548
G1 X96.644 Y30.816 E2.5338
G1 X96.066 Y30.781 E2.55604
G1 X95.489 Y30.664 E2.57866
G1 X94.628 Y30.426 E2.61298
G1 X94.082 Y30.234 E2.63521
G1 X93.537 Y29.95 E2.65882
G1 X93.086 Y29.671 E2.67919
G1 X92.408 Y29.149 E2.71206
G1 X92.032 Y28.793 E2.73195
G1 X91.64 Y28.366 E2.75422
G1 X91.004 Y27.407 E2.79843
G1 X90.745 Y26.931 E2.81924
G1 X90.392 Y25.965 E2.85875
G1 X90.259 Y25.399 E2.88109
G1 X90.169 Y24.857 E2.9022
G1 X90.135 Y23.7 E2.94666
G1 X90.196 Y23.077 E2.97071
G1 X90.292 Y22.505 E2.99299
M204 S3000
M205 X10 Y10
G0 F1800 X90.845 Y22.6
M204 S1800
M205 X8 Y8
G1 F2400 X91.068 Y21.909 E3.02088
G1 X91.361 Y21.266 E3.04803
G1 X91.674 Y20.725 E3.07204
G1 X92.093 Y20.143 E3.09959
G1 X92.831 Y19.388 E3.14015
G1 X93.705 Y18.773 E3.1812
G1 X94.201 Y18.512 E3.20273
G1 X94.735 Y18.283 E3.22505
G1 X95.676 Y18.008 E3.26271
G1 X96.996 Y17.918 E3.31354
G1 X97.536 Y17.933 E3.33429
G1 X98.475 Y18.119 E3.37106
G1 X98.991 Y18.277 E3.39179
G1 X99.927 Y18.726 E3.43167
G1 X100.368 Y18.989 E3.4514
G1 X100.904 Y18.531 E3.47848
G1 X101.511 Y18.123 E3.50658
G1 X102.024 Y17.849 E3.52892
G1 X102.67 Y17.58 E3.5558
G1 X103.23 Y17.408 E3.57831
G1 X103.928 Y17.267 E3.60566
G1 X104.514 Y17.207 E3.62829
G1 X105.232 Y17.205 E3.65588
G1 X105.828 Y17.262 E3.67888
G1 X106.537 Y17.401 E3.70663
G1 X107.098 Y17.571 E3.72915
G1 X107.752 Y17.842 E3.75634
G1 X108.265 Y18.115 E3.77867
G1 X108.861 Y18.511 E3.80616
G1 X108.904 Y18.531 E3.80798
G1 X109.5 Y18.13 E3.83557
G1 X110.022 Y17.85 E3.85833
G1 X110.682 Y17.576 E3.88578
G1 X111.243 Y17.405 E3.90831
G1 X111.939 Y17.265 E3.93559
G1 X112.524 Y17.206 E3.95817
G1 X113.238 Y17.205 E3.9856
G1 X113.83 Y17.262 E4.00845
G1 X114.537 Y17.401 E4.03613
G1 X115.098 Y17.571 E4.05865
G1 X115.758 Y17.845 E4.0861
G1 X116.28 Y18.124 E4.10884
G1 X116.876 Y18.523 E4.13639
G1 X117.327 Y18.894 E4.15882
G1 X117.828 Y19.394 E4.18601
G1 X118.201 Y19.848 E4.20859
G1 X118.595 Y20.437 E4.23581
G1 X118.872 Y20.953 E4.25831
G1 X119.148 Y21.618 E4.28597
G1 X119.318 Y22.178 E4.30845
G1 X119.457 Y22.869 E4.33552
G1 X119.516 Y23.453 E4.35807
G1 X119.517 Y24.166 E4.38546
G1 X119.46 Y24.761 E4.40843
G1 X119.325 Y25.455 E4.43559
G1 X119.159 Y26.011 E4.45788
G1 X118.878 Y26.692 E4.48618
G1 X118.596 Y27.217 E4.50907
G1 X118.204 Y27.802 E4.53612
G1 X117.836 Y28.251 E4.55842
G1 X117.338 Y28.751 E4.58553
G1 X116.886 Y29.124 E4.60805
G1 X116.291 Y29.524 E4.63559
G1 X115.764 Y29.807 E4.65857
G1 X115.095 Y30.084 E4.68638
G1 X114.539 Y30.252 E4.7087
G1 X113.851 Y30.39 E4.73565
G1 X113.266 Y30.449 E4.75824
G1 X112.552 Y30.45 E4.78567
G1 X111.96 Y30.393 E4.80851
G1 X111.262 Y30.256 E4.83584
G1 X110.706 Y30.089 E4.85814
G1 X110.037 Y29.813 E4.88594
G1 X109.515 Y29.534 E4.90868
G1 X108.921 Y29.137 E4.93613
G1 X108.886 Y29.124 E4.93756
G1 X108.279 Y29.532 E4.96566
G1 X107.766 Y29.806 E4.988
G1 X107.12 Y30.075 E5.01488
G1 X106.56 Y30.247 E5.03739
G1 X105.862 Y30.388 E5.06474
G1 X105.276 Y30.448 E5.08737
G1 X104.558 Y30.45 E5.11495
G1 X103.962 Y30.393 E5.13795
G1 X103.259 Y30.255 E5.16547
G1 X102.708 Y30.089 E5.18758
G1 X102.049 Y29.818 E5.21495
G1 X101.517 Y29.535 E5.2381
G1 X100.912 Y29.131 E5.26605
G1 X100.669 Y28.931 E5.27814
G1 X99.898 Y29.457 E5.31399
G1 X99.426 Y29.701 E5.33441
G1 X98.929 Y29.913 E5.35516
G1 X98.075 Y30.141 E5.38912
G1 X97.543 Y30.233 E5.40986
G1 X96.639 Y30.256 E5.4446
G1 X96.101 Y30.221 E5.46531
G1 X94.777 Y29.886 E5.51777
G1 X94.269 Y29.705 E5.53849
G1 X93.381 Y29.195 E5.57783
G1 X92.793 Y28.742 E5.60634
G1 X92.417 Y28.386 E5.62623
G1 X92.054 Y27.987 E5.64696
G1 X91.477 Y27.108 E5.68735
G1 X91.178 Y26.533 E5.71225
G1 X90.938 Y25.837 E5.74053
G1 X90.805 Y25.271 E5.76286
G1 X90.693 Y24.472 E5.79386
G1 X90.692 Y23.754 E5.82144
G1 X90.753 Y23.131 E5.84549
G1 X90.845 Y22.6 E5.86619
M204 S3000
M205 X10 Y10
G0 F1800 X91.462 Y22.488
M204 S1800
M205 X8 Y8
G1 F2400 X91.846 Y21.547 E5.90523
G1 X92.159 Y21.006 E5.92924
G1 X92.513 Y20.513 E5.95256
G1 X93.181 Y19.825 E5.9894
G1 X93.966 Y19.268 E6.02637
G1 X94.462 Y19.007 E6.0479
G1 X95.333 Y18.673 E6.08374
G1 X95.814 Y18.553 E6.10278
G1 X97.022 Y18.477 E6.14928
G1 X97.517 Y18.495 E6.16831
G1 X98.352 Y18.666 E6.20105
G1 X99.05 Y18.914 E6.22951
G1 X99.677 Y19.227 E6.25643
G1 X100.344 Y19.678 E6.28736
G1 X100.41 Y19.736 E6.29074
G1 X100.801 Y19.343 E6.31203
G1 X101.261 Y18.962 E6.33498
G1 X101.775 Y18.617 E6.35876
G1 X102.288 Y18.343 E6.3811
G1 X102.835 Y18.116 E6.40385
G1 X103.395 Y17.944 E6.42636
G1 X103.985 Y17.824 E6.44948
G1 X104.571 Y17.764 E6.47211
G1 X105.178 Y17.762 E6.49543
G1 X105.774 Y17.819 E6.51843
G1 X106.374 Y17.937 E6.54192
G1 X106.935 Y18.107 E6.56444
G1 X107.489 Y18.336 E6.58747
G1 X108.002 Y18.609 E6.60979
G1 X108.506 Y18.945 E6.63306
G1 X108.895 Y19.264 E6.65239
G1 X109.261 Y18.962 E6.67062
G1 X109.765 Y18.624 E6.69393
G1 X110.287 Y18.344 E6.71669
G1 X110.845 Y18.112 E6.7399
G1 X111.406 Y17.941 E6.76243
G1 X111.995 Y17.823 E6.78551
G1 X112.58 Y17.764 E6.80809
G1 X113.184 Y17.762 E6.8313
G1 X113.776 Y17.819 E6.85414
G1 X114.374 Y17.937 E6.87756
G1 X114.935 Y18.107 E6.90008
G1 X115.494 Y18.339 E6.92333
G1 X116.016 Y18.618 E6.94607
G1 X116.521 Y18.955 E6.96939
G1 X116.972 Y19.326 E6.99182
G1 X117.395 Y19.75 E7.01483
G1 X117.768 Y20.204 E7.0374
G1 X118.102 Y20.702 E7.06044
G1 X118.379 Y21.218 E7.08294
G1 X118.612 Y21.78 E7.10631
G1 X118.782 Y22.34 E7.12879
G1 X118.899 Y22.925 E7.15171
G1 X118.958 Y23.509 E7.17426
G1 X118.96 Y24.113 E7.19746
G1 X118.903 Y24.708 E7.22042
G1 X118.788 Y25.295 E7.2434
G1 X118.622 Y25.851 E7.26569
G1 X118.384 Y26.427 E7.28963
G1 X118.102 Y26.952 E7.31253
G1 X117.771 Y27.447 E7.3354
G1 X117.403 Y27.896 E7.3577
G1 X116.981 Y28.32 E7.38068
G1 X116.529 Y28.693 E7.4032
G1 X116.026 Y29.031 E7.42648
G1 X115.499 Y29.314 E7.44946
G1 X114.933 Y29.548 E7.47298
G1 X114.377 Y29.716 E7.4953
G1 X113.795 Y29.832 E7.51809
G1 X113.21 Y29.891 E7.54068
G1 X112.606 Y29.893 E7.56388
G1 X112.014 Y29.836 E7.58673
G1 X111.423 Y29.72 E7.60987
G1 X110.867 Y29.553 E7.63217
G1 X110.301 Y29.319 E7.6557
G1 X109.779 Y29.04 E7.67844
G1 X109.277 Y28.705 E7.70162
G1 X108.894 Y28.391 E7.72065
G1 X108.529 Y28.693 E7.73884
G1 X108.015 Y29.038 E7.76263
G1 X107.502 Y29.312 E7.78497
G1 X106.955 Y29.539 E7.80772
G1 X106.395 Y29.711 E7.83022
G1 X105.805 Y29.831 E7.85335
G1 X105.219 Y29.891 E7.87598
G1 X104.612 Y29.893 E7.8993
G1 X104.016 Y29.836 E7.9223
G1 X103.421 Y29.719 E7.94559
G1 X102.87 Y29.553 E7.9677
G1 X102.312 Y29.323 E7.99089
G1 X101.78 Y29.04 E8.01404
G1 X101.268 Y28.699 E8.03767
G1 X100.815 Y28.326 E8.06021
G1 X100.684 Y28.195 E8.06733
G1 X100.163 Y28.619 E8.09313
G1 X99.64 Y28.96 E8.11712
G1 X99.168 Y29.204 E8.13753
G1 X98.506 Y29.455 E8.16472
G1 X97.938 Y29.598 E8.18723
G1 X97.213 Y29.691 E8.2153
G1 X96.635 Y29.696 E8.23751
G1 X96.14 Y29.66 E8.25658
G1 X94.926 Y29.347 E8.30474
G1 X94.461 Y29.176 E8.32377
G1 X93.676 Y28.718 E8.35868
G1 X93.178 Y28.336 E8.38279
G1 X92.802 Y27.98 E8.40269
G1 X92.315 Y27.386 E8.43219
G1 X91.951 Y26.809 E8.4584
G1 X91.686 Y26.298 E8.48051
G1 X91.483 Y25.709 E8.50445
G1 X91.35 Y25.143 E8.52678
G1 X91.25 Y24.416 E8.55497
G1 X91.25 Y23.809 E8.57829
G1 X91.311 Y23.186 E8.60234
G1 X91.462 Y22.488 E8.62977
M204 S3000
M205 X10 Y10
G0 F1800 X91.992 Y22.669
M204 S1800
M205 X8 Y8
G1 F2400 X92.331 Y21.827 E8.66464
G1 X92.644 Y21.286 E8.68865
G1 X93.214 Y20.565 E8.72396
G1 X93.826 Y20.026 E8.75529
G1 X94.723 Y19.503 E8.79518
G1 X95.511 Y19.204 E8.82755
G1 X96.202 Y19.075 E8.85456
G1 X97.047 Y19.037 E8.88705
G1 X97.715 Y19.096 E8.91281
G1 X98.229 Y19.212 E8.93305
G1 X98.8 Y19.415 E8.95634
G1 X99.427 Y19.728 E8.98326
G1 X99.972 Y20.097 E9.00854
G1 X100.429 Y20.502 E9.032
G1 X100.468 Y20.543 E9.03417
G1 X100.817 Y20.117 E9.05533
G1 X101.159 Y19.774 E9.07393
G1 X101.619 Y19.393 E9.09688
G1 X102.039 Y19.111 E9.11631
G1 X102.552 Y18.837 E9.13866
G1 X102.999 Y18.651 E9.15725
G1 X103.559 Y18.479 E9.17976
G1 X104.042 Y18.381 E9.19869
G1 X104.628 Y18.321 E9.22132
G1 X105.125 Y18.319 E9.24041
G1 X105.721 Y18.376 E9.26341
G1 X106.212 Y18.473 E9.28264
G1 X106.773 Y18.643 E9.30516
G1 X107.226 Y18.83 E9.32399
G1 X107.739 Y19.103 E9.34631
G1 X108.151 Y19.378 E9.36534
G1 X108.603 Y19.748 E9.38778
G1 X108.895 Y20.038 E9.40359
G1 X109.617 Y19.394 E9.44075
G1 X110.03 Y19.117 E9.45986
G1 X110.552 Y18.837 E9.48261
G1 X111.008 Y18.647 E9.50159
G1 X111.569 Y18.476 E9.52412
G1 X112.051 Y18.38 E9.543
G1 X112.636 Y18.321 E9.56559
G1 X113.131 Y18.32 E9.5846
G1 X113.723 Y18.377 E9.60745
G1 X114.212 Y18.473 E9.62659
G1 X114.773 Y18.643 E9.64911
G1 X115.23 Y18.833 E9.66813
G1 X115.752 Y19.112 E9.69086
G1 X116.165 Y19.388 E9.70995
G1 X116.616 Y19.759 E9.73238
G1 X116.962 Y20.105 E9.75118
G1 X117.335 Y20.559 E9.77375
G1 X117.608 Y20.967 E9.79261
G1 X117.885 Y21.483 E9.81511
G1 X118.076 Y21.943 E9.83424
G1 X118.246 Y22.503 E9.85672
G1 X118.342 Y22.982 E9.87549
G1 X118.401 Y23.566 E9.89804
G1 X118.403 Y24.059 E9.91698
G1 X118.346 Y24.654 E9.93994
G1 X118.252 Y25.135 E9.95877
G1 X118.086 Y25.691 E9.98106
G1 X117.891 Y26.162 E10.00064
G1 X117.609 Y26.687 E10.02353
G1 X117.338 Y27.092 E10.04225
G1 X116.97 Y27.541 E10.06455
G1 X116.625 Y27.888 E10.08335
G1 X116.173 Y28.261 E10.10586
G1 X115.761 Y28.537 E10.12491
G1 X115.234 Y28.82 E10.14789
G1 X114.771 Y29.012 E10.16715
G1 X114.215 Y29.18 E10.18946
G1 X113.739 Y29.275 E10.20811
G1 X113.154 Y29.334 E10.23069
G1 X112.659 Y29.335 E10.24971
G1 X112.067 Y29.278 E10.27256
G1 X111.584 Y29.183 E10.29147
G1 X111.028 Y29.016 E10.31377
G1 X110.565 Y28.825 E10.33301
G1 X110.043 Y28.546 E10.35575
G1 X109.632 Y28.272 E10.37472
G1 X109.174 Y27.896 E10.39749
G1 X108.895 Y27.616 E10.41267
G1 X108.171 Y28.262 E10.44995
G1 X107.751 Y28.544 E10.46938
G1 X107.238 Y28.818 E10.49172
G1 X106.791 Y29.004 E10.51032
G1 X106.231 Y29.176 E10.53283
G1 X105.748 Y29.274 E10.55176
G1 X105.162 Y29.334 E10.57439
G1 X104.665 Y29.336 E10.59348
G1 X104.069 Y29.279 E10.61648
G1 X103.582 Y29.183 E10.63555
G1 X103.031 Y29.017 E10.65766
G1 X102.575 Y28.829 E10.6766
G1 X102.043 Y28.546 E10.69975
G1 X101.624 Y28.266 E10.71911
G1 X101.171 Y27.893 E10.74165
G1 X100.69 Y27.381 E10.76864
G1 X100.301 Y27.787 E10.79024
G1 X99.81 Y28.184 E10.8145
G1 X99.383 Y28.463 E10.83409
G1 X98.911 Y28.707 E10.8545
G1 X98.369 Y28.912 E10.87676
G1 X97.801 Y29.055 E10.89926
G1 X97.208 Y29.131 E10.92223
G1 X96.63 Y29.136 E10.94444
G1 X95.937 Y29.045 E10.97129
G1 X95.076 Y28.807 E11.0056
G1 X94.421 Y28.521 E11.03306
G1 X93.97 Y28.242 E11.05343
G1 X93.563 Y27.929 E11.07316
G1 X93.187 Y27.573 E11.09305
G1 X92.789 Y27.088 E11.11715
G1 X92.425 Y26.511 E11.14336
G1 X92.194 Y26.063 E11.16272
G1 X92.028 Y25.58 E11.18234
G1 X91.895 Y25.014 E11.20467
G1 X91.808 Y24.361 E11.22998
G1 X91.807 Y23.863 E11.24911
G1 X91.868 Y23.24 E11.27316
G1 X91.992 Y22.669 E11.29561
M204 S3000
M205 X10 Y10
G0 F1800 X92.522 Y22.851
M204 S1800
M205 X8 Y8
G1 F2400 X92.815 Y22.107 E11.32632
G1 X93.128 Y21.566 E11.35033
G1 X93.634 Y20.935 E11.38141
G1 X94.176 Y20.463 E11.40902
G1 X94.983 Y19.998 E11.44479
G1 X95.69 Y19.734 E11.47379
G1 X96.227 Y19.634 E11.49477
G1 X97.072 Y19.596 E11.52726
G1 X97.591 Y19.642 E11.54728
G1 X98.105 Y19.758 E11.56752
G1 X98.549 Y19.916 E11.58563
G1 X99.176 Y20.229 E11.61255
G1 X99.601 Y20.516 E11.63225
G1 X100.058 Y20.921 E11.65571
G1 X100.4 Y21.317 E11.67581
G1 X100.526 Y21.51 E11.68466
G1 X100.886 Y20.916 E11.71134
G1 X101.25 Y20.472 E11.7334
G1 X101.976 Y19.825 E11.77076
G1 X102.816 Y19.331 E11.80819
G1 X103.724 Y19.014 E11.84514
G1 X104.685 Y18.878 E11.88242
G1 X105.668 Y18.934 E11.92025
G1 X106.61 Y19.179 E11.95764
G1 X107.476 Y19.598 E11.99459
G1 X108.249 Y20.181 E12.03179
G1 X108.893 Y20.904 E12.06898
G1 X109.251 Y20.471 E12.09057
G1 X109.973 Y19.826 E12.12776
G1 X110.817 Y19.331 E12.16535
G1 X111.733 Y19.012 E12.20261
G1 X112.692 Y18.878 E12.23981
G1 X113.077 Y18.877 E12.2546
G1 X113.669 Y18.934 E12.27744
G1 X114.61 Y19.179 E12.3148
G1 X115.488 Y19.605 E12.35229
G1 X116.26 Y20.191 E12.38952
G1 X116.902 Y20.915 E12.42669
G1 X117.392 Y21.748 E12.46382
G1 X117.71 Y22.666 E12.50114
G1 X117.844 Y23.622 E12.53822
G1 X117.788 Y24.601 E12.57589
G1 X117.549 Y25.531 E12.61278
G1 X117.116 Y26.422 E12.65084
G1 X116.537 Y27.186 E12.68766
G1 X115.817 Y27.829 E12.72475
G1 X114.969 Y28.327 E12.76252
G1 X114.053 Y28.644 E12.79976
G1 X113.098 Y28.777 E12.8368
G1 X112.121 Y28.721 E12.87439
G1 X111.189 Y28.48 E12.91137
G1 X110.307 Y28.053 E12.94902
G1 X109.529 Y27.463 E12.98653
G1 X108.894 Y26.749 E13.02324
G1 X108.542 Y27.18 E13.04461
G1 X107.814 Y27.83 E13.0821
G1 X106.974 Y28.324 E13.11954
G1 X106.066 Y28.641 E13.15649
G1 X105.105 Y28.777 E13.19377
G1 X104.122 Y28.721 E13.23159
G1 X103.193 Y28.481 E13.26845
G1 X102.306 Y28.051 E13.30632
