;FLAVOR:Marlin
;TIME:20834
;Filament used: 14.0846m
;Layer height: 0.18
;MINX:35.805
;MINY:12.382
;MINZ:0.15
;MAXX:174.195
;MAXY:150.764
;MAXZ:3.465
;Generated with Cura_SteamEngine 4.5.0
M140 S60
M105
M190 S60
M104 S200
M105
M109 S200
M82 ;absolute extrusion mode
G21 ;metric values
G90 ;absolute positioning
M82 ;set extruder to absolute mode
M107 ;start with the fan off
G28 X0 Y0 ;move X/Y to min endstops
G28 Z0 ;move Z to min endstops
G1 Z15.0 F100 ;move the platform down 15mm
G92 E0 ;zero the extruded length
G1 F200 E3 ;extrude 3mm of feed stock
G92 E0 ;zero the extruded length again
G1 F100
G0 Y20 F100
M117 Printing...
G5
G92 E0
G92 E0
G1 F2400 E-6
;LAYER_COUNT:19
;LAYER:0
M106 S255
M204 S3000
M205 X10 Y10
G1 F600 Z0.225
G0 F1800 X51.381 Y37.831 Z0.225
M204 S1800
M205 X8 Y8
;TYPE:SKIRT
G1 F600 Z0.15
G1 F2400 E0
G1 X55.832 Y32.889 E0.2555
G1 X60.936 Y28.218 E0.52129
G1 X66.276 Y24.231 E0.77729
G1 X72.075 Y20.717 E1.03777
G1 X78.197 Y17.784 E1.29855
G1 X84.579 Y15.464 E1.55941
G1 X91.155 Y13.78 E1.82019
G1 X97.869 Y12.75 E2.08113
G1 X104.647 Y12.382 E2.34189
G1 X105.058 Y12.382 E2.35768
G1 X111.428 Y12.679 E2.60265
G1 X118.154 Y13.641 E2.86366
G1 X124.746 Y15.258 E3.1244
G1 X131.151 Y17.512 E3.38525
G1 X137.429 Y20.444 E3.65142
G1 X143.27 Y23.919 E3.91252
G1 X148.738 Y27.95 E4.17348
G1 X153.782 Y32.494 E4.43428
G1 X158.357 Y37.511 E4.69511
G1 X162.337 Y42.843 E4.95071
G1 X165.852 Y48.644 E5.21128
G1 X168.844 Y54.891 E5.47737
G1 X171.155 Y61.286 E5.73858
G1 X172.825 Y67.866 E5.99937
G1 X173.842 Y74.581 E6.26027
G1 X174.195 Y81.362 E6.52112
G1 X173.89 Y88.006 E6.77662
G1 X172.907 Y94.859 E7.04258
G1 X171.275 Y101.458 E7.30372
G1 X169.006 Y107.857 E7.56453
G1 X166.181 Y113.88 E7.8201
G1 X162.725 Y119.713 E8.08055
G1 X158.625 Y125.3 E8.34677
G1 X154.168 Y130.249 E8.60262
G1 X149.166 Y134.827 E8.86311
G1 X143.732 Y138.902 E9.12403
G1 X137.925 Y142.421 E9.38488
G1 X131.803 Y145.354 E9.64565
G1 X125.42 Y147.675 E9.90657
G1 X118.712 Y149.392 E10.17256
G1 X111.986 Y150.411 E10.43389
G1 X105.206 Y150.764 E10.6947
G1 X98.424 Y150.451 E10.95552
G1 X91.702 Y149.475 E11.21645
G1 X85.111 Y147.844 E11.47729
G1 X78.841 Y145.623 E11.73281
G1 X72.571 Y142.694 E11.99867
G1 X66.73 Y139.219 E12.25976
G1 X61.372 Y135.269 E12.51547
G1 X56.223 Y130.648 E12.78125
G1 X51.642 Y125.626 E13.04238
G1 X47.58 Y120.182 E13.30332
G1 X44.072 Y114.369 E13.56414
G1 X41.151 Y108.237 E13.82506
G1 X38.845 Y101.852 E14.08585
G1 X37.175 Y95.272 E14.34664
G1 X36.158 Y88.555 E14.60762
G1 X35.805 Y81.776 E14.86839
G1 X36.11 Y75.132 E15.12389
G1 X37.093 Y68.279 E15.38984
G1 X38.725 Y61.68 E15.65098
G1 X40.994 Y55.281 E15.9118
G1 X43.878 Y49.133 E16.17267
G1 X47.35 Y43.299 E16.43348
G1 X51.381 Y37.831 E16.69444
M204 S3000
M205 X10 Y10
G0 F1800 X51.83 Y38.165
M204 S1800
M205 X8 Y8
G1 F2400 X56.247 Y33.266 E16.94784
G1 X61.313 Y28.632 E17.21159
G1 X66.609 Y24.68 E17.46544
G1 X72.364 Y21.197 E17.72386
G1 X78.437 Y18.29 E17.9825
G1 X84.768 Y15.99 E18.24126
G1 X91.292 Y14.323 E18.49994
G1 X97.953 Y13.303 E18.75881
G1 X104.676 Y12.942 E19.01745
G1 X105.032 Y12.941 E19.03112
G1 X111.402 Y13.238 E19.27609
G1 X118.073 Y14.195 E19.53499
G1 X124.611 Y15.801 E19.79361
G1 X130.964 Y18.04 E20.05238
G1 X137.191 Y20.95 E20.31642
G1 X142.982 Y24.4 E20.57538
G1 X148.404 Y28.399 E20.83419
G1 X153.406 Y32.909 E21.09292
G1 X157.942 Y37.887 E21.35163
G1 X161.887 Y43.176 E21.60511
G1 X165.373 Y48.933 E21.86365
G1 X168.338 Y55.131 E22.12759
G1 X170.628 Y61.474 E22.38665
G1 X172.282 Y68.002 E22.64535
G1 X173.288 Y74.663 E22.90414
G1 X173.636 Y81.389 E23.16287
G1 X173.331 Y87.979 E23.4163
G1 X172.353 Y94.778 E23.68017
G1 X170.732 Y101.322 E23.93916
G1 X168.479 Y107.668 E24.19785
G1 X165.675 Y113.641 E24.45133
G1 X162.244 Y119.426 E24.70971
G1 X158.174 Y124.967 E24.97382
G1 X153.753 Y129.872 E25.2275
G1 X148.789 Y134.413 E25.48594
G1 X143.397 Y138.453 E25.74477
G1 X137.636 Y141.941 E26.00349
G1 X131.563 Y144.848 E26.26213
G1 X125.23 Y147.148 E26.52097
G1 X118.574 Y148.849 E26.78488
G1 X111.904 Y149.857 E27.04402
G1 X105.179 Y150.205 E27.30271
G1 X98.451 Y149.892 E27.56145
G1 X91.784 Y148.921 E27.82026
G1 X85.247 Y147.301 E28.07898
G1 X79.029 Y145.095 E28.33244
G1 X72.809 Y142.188 E28.59619
G1 X67.018 Y138.738 E28.85514
G1 X61.705 Y134.82 E29.10873
G1 X56.598 Y130.232 E29.37247
G1 X52.057 Y125.25 E29.63142
G1 X48.029 Y119.848 E29.89028
G1 X44.553 Y114.081 E30.14896
G1 X41.657 Y107.998 E30.40777
G1 X39.372 Y101.663 E30.66648
G1 X37.718 Y95.136 E30.92514
G1 X36.712 Y88.473 E31.184
G1 X36.364 Y81.749 E31.44265
G1 X36.669 Y75.159 E31.69608
G1 X37.647 Y68.36 E31.95996
G1 X39.268 Y61.816 E32.21895
G1 X41.521 Y55.47 E32.47764
G1 X44.384 Y49.372 E32.73643
G1 X47.831 Y43.587 E32.99512
G1 X51.83 Y38.165 E33.25394
M204 S3000
M205 X10 Y10
G0 F1800 X52.28 Y38.498
M204 S1800
M205 X8 Y8
G1 F2400 X56.662 Y33.642 E33.50521
G1 X61.69 Y29.046 E33.76689
G1 X66.943 Y25.13 E34.01859
G1 X72.652 Y21.676 E34.27492
G1 X78.678 Y18.795 E34.53151
G1 X84.958 Y16.517 E34.78814
G1 X91.429 Y14.866 E35.04469
G1 X98.036 Y13.857 E35.30144
G1 X104.705 Y13.501 E35.558
G1 X105.005 Y13.5 E35.56953
G1 X111.375 Y13.797 E35.8145
G1 X117.992 Y14.749 E36.07131
G1 X124.476 Y16.345 E36.32783
G1 X130.776 Y18.568 E36.58447
G1 X136.952 Y21.457 E36.8464
G1 X142.694 Y24.88 E37.1032
G1 X148.071 Y28.849 E37.35994
G1 X153.03 Y33.324 E37.61654
G1 X157.527 Y38.263 E37.87314
G1 X161.438 Y43.51 E38.12454
G1 X164.893 Y49.221 E38.38096
G1 X167.833 Y55.372 E38.64285
G1 X170.101 Y61.663 E38.89975
G1 X171.739 Y68.138 E39.15633
G1 X172.734 Y74.745 E39.413
G1 X173.076 Y81.417 E39.66964
G1 X172.771 Y87.952 E39.92096
G1 X171.799 Y94.697 E40.18275
G1 X170.189 Y101.186 E40.43959
G1 X167.952 Y107.48 E40.69619
G1 X165.168 Y113.401 E40.94754
G1 X161.763 Y119.139 E41.20385
G1 X157.724 Y124.635 E41.46587
G1 X153.338 Y129.496 E41.71738
G1 X148.412 Y133.999 E41.97377
G1 X143.062 Y138.004 E42.2305
G1 X137.348 Y141.462 E42.48707
G1 X131.322 Y144.343 E42.74366
G1 X125.041 Y146.621 E43.00033
G1 X118.437 Y148.306 E43.26215
G1 X111.822 Y149.303 E43.51914
G1 X105.151 Y149.645 E43.77574
G1 X98.479 Y149.332 E44.03233
G1 X91.866 Y148.367 E44.28907
G1 X85.383 Y146.758 E44.54567
G1 X79.218 Y144.568 E44.797
G1 X73.048 Y141.681 E45.05869
G1 X67.306 Y138.258 E45.31549
G1 X62.039 Y134.37 E45.56698
G1 X56.973 Y129.816 E45.82866
G1 X52.472 Y124.874 E46.08545
G1 X48.479 Y119.515 E46.34218
G1 X45.033 Y113.793 E46.59878
G1 X42.164 Y107.758 E46.85548
G1 X39.899 Y101.475 E47.11205
G1 X38.261 Y95 E47.36863
G1 X37.266 Y88.391 E47.62538
G1 X36.924 Y81.721 E47.88194
G1 X37.229 Y75.186 E48.13326
G1 X38.201 Y68.441 E48.39505
G1 X39.811 Y61.952 E48.65189
G1 X42.048 Y55.658 E48.90849
G1 X44.891 Y49.612 E49.16515
G1 X48.311 Y43.875 E49.42173
G1 X52.28 Y38.498 E49.67846
M204 S3000
M205 X10 Y10
G0 F1800 X52.73 Y38.832
M204 S1800
M205 X8 Y8
G1 F2400 X57.077 Y34.018 E49.92764
G1 X62.067 Y29.46 E50.18726
G1 X67.277 Y25.58 E50.43681
G1 X72.941 Y22.156 E50.69106
G1 X78.918 Y19.301 E50.94552
G1 X85.148 Y17.044 E51.20007
G1 X91.566 Y15.409 E51.4545
G1 X98.119 Y14.411 E51.70913
G1 X104.733 Y14.06 E51.96357
G1 X111.349 Y14.357 E52.21798
G1 X117.911 Y15.304 E52.47268
G1 X124.341 Y16.888 E52.72707
G1 X130.589 Y19.095 E52.98163
G1 X136.714 Y21.964 E53.24146
G1 X142.406 Y25.36 E53.49608
G1 X147.737 Y29.299 E53.75071
G1 X152.653 Y33.739 E54.00518
G1 X157.112 Y38.64 E54.25972
G1 X160.988 Y43.844 E54.50899
G1 X164.413 Y49.51 E54.76333
G1 X167.327 Y55.612 E55.0231
G1 X169.574 Y61.852 E55.27788
G1 X171.195 Y68.275 E55.53236
G1 X172.18 Y74.827 E55.78689
G1 X172.517 Y81.444 E56.04141
G1 X172.212 Y87.924 E56.29062
G1 X171.244 Y94.616 E56.55037
G1 X169.645 Y101.049 E56.80502
G1 X167.425 Y107.291 E57.05952
G1 X164.662 Y113.162 E57.30878
G1 X161.282 Y118.853 E57.56306
G1 X157.273 Y124.302 E57.82293
G1 X152.923 Y129.12 E58.0723
G1 X148.035 Y133.585 E58.32662
G1 X142.728 Y137.555 E58.58122
G1 X137.059 Y140.982 E58.8357
G1 X131.082 Y143.837 E59.09016
G1 X124.851 Y146.094 E59.34474
G1 X118.3 Y147.763 E59.60444
G1 X111.74 Y148.749 E59.85928
G1 X105.124 Y149.086 E60.11376
G1 X98.506 Y148.773 E60.36828
G1 X91.948 Y147.813 E60.6229
G1 X85.52 Y146.214 E60.87736
G1 X79.406 Y144.041 E61.12662
G1 X73.286 Y141.174 E61.38624
G1 X67.594 Y137.778 E61.64086
G1 X62.373 Y133.92 E61.89025
G1 X57.348 Y129.401 E62.14986
G1 X52.887 Y124.497 E62.40454
G1 X48.929 Y119.181 E62.65914
G1 X45.513 Y113.505 E62.91363
G1 X42.67 Y107.519 E63.1682
G1 X40.426 Y101.286 E63.42269
G1 X38.805 Y94.863 E63.67717
G1 X37.82 Y88.309 E63.93177
G1 X37.483 Y81.694 E64.18622
G1 X37.788 Y75.214 E64.43543
G1 X38.756 Y68.522 E64.69518
G1 X40.355 Y62.089 E64.94983
G1 X42.575 Y55.847 E65.20433
G1 X45.397 Y49.851 E65.45891
G1 X48.791 Y44.163 E65.71336
G1 X52.73 Y38.832 E65.96799
M204 S3000
M205 X10 Y10
G0 F1800 X53.18 Y39.165
M204 S1800
M205 X8 Y8
G1 F2400 X57.492 Y34.394 E66.21503
G1 X62.444 Y29.874 E66.47259
G1 X67.61 Y26.03 E66.71996
G1 X73.23 Y22.636 E66.97217
G1 X79.158 Y19.807 E67.2245
G1 X85.338 Y17.571 E67.47697
G1 X91.704 Y15.952 E67.72931
G1 X98.203 Y14.965 E67.98183
G1 X104.762 Y14.62 E68.23415
G1 X111.323 Y14.916 E68.48645
G1 X117.83 Y15.858 E68.73902
G1 X124.206 Y17.432 E68.99131
G1 X130.401 Y19.623 E69.24374
G1 X136.475 Y22.47 E69.50144
G1 X142.119 Y25.841 E69.75398
G1 X147.404 Y29.749 E70.00649
G1 X152.277 Y34.154 E70.25883
G1 X156.697 Y39.016 E70.51125
G1 X160.538 Y44.177 E70.7584
G1 X163.933 Y49.799 E71.01069
G1 X166.821 Y55.853 E71.26837
G1 X169.046 Y62.041 E71.52098
G1 X170.652 Y68.411 E71.77335
G1 X171.626 Y74.909 E72.02576
G1 X171.958 Y81.472 E72.2782
G1 X171.653 Y87.897 E72.5253
G1 X170.69 Y94.535 E72.78297
G1 X169.102 Y100.913 E73.03546
G1 X166.897 Y107.102 E73.28786
G1 X164.156 Y112.923 E73.53502
G1 X160.801 Y118.566 E73.78722
G1 X156.823 Y123.969 E74.04497
G1 X152.508 Y128.744 E74.2922
G1 X147.658 Y133.171 E74.54446
G1 X142.393 Y137.106 E74.79697
G1 X136.77 Y140.502 E75.04932
G1 X130.842 Y143.331 E75.30165
G1 X124.661 Y145.567 E75.55415
G1 X118.163 Y147.22 E75.81173
G1 X111.658 Y148.195 E76.06441
G1 X105.096 Y148.527 E76.31682
G1 X98.534 Y148.214 E76.56918
G1 X92.03 Y147.259 E76.82172
G1 X85.656 Y145.671 E77.07406
G1 X79.595 Y143.514 E77.3212
G1 X73.525 Y140.668 E77.57874
G1 X67.881 Y137.297 E77.83129
G1 X62.706 Y133.47 E78.07854
G1 X57.724 Y128.985 E78.33606
G1 X53.302 Y124.121 E78.58859
G1 X49.379 Y118.848 E78.84106
G1 X45.994 Y113.218 E79.09342
G1 X43.176 Y107.28 E79.34592
G1 X40.954 Y101.097 E79.59831
G1 X39.348 Y94.727 E79.85068
G1 X38.374 Y88.227 E80.10317
G1 X38.042 Y81.666 E80.35553
G1 X38.347 Y75.241 E80.60263
G1 X39.31 Y68.603 E80.8603
G1 X40.898 Y62.225 E81.1128
G1 X43.103 Y56.036 E81.36519
G1 X45.903 Y50.09 E81.61766
G1 X49.272 Y44.45 E81.87004
G1 X53.18 Y39.165 E82.12254
M204 S3000
M205 X10 Y10
G0 F1800 X53.63 Y39.499
M204 S1800
M205 X8 Y8
G1 F2400 X57.907 Y34.77 E82.36749
G1 X62.821 Y30.289 E82.62296
G1 X67.944 Y26.48 E82.8682
G1 X73.519 Y23.116 E83.11834
G1 X79.399 Y20.313 E83.36857
G1 X85.528 Y18.098 E83.61892
G1 X91.841 Y16.495 E83.86914
G1 X98.286 Y15.519 E84.11955
G1 X104.79 Y15.179 E84.36974
G1 X111.297 Y15.476 E84.61997
G1 X117.749 Y16.412 E84.87042
G1 X124.071 Y17.975 E85.1206
G1 X130.214 Y20.151 E85.37095
G1 X136.237 Y22.977 E85.62653
G1 X141.831 Y26.321 E85.8769
G1 X147.07 Y30.199 E86.12729
G1 X151.901 Y34.569 E86.37754
G1 X156.282 Y39.392 E86.62784
G1 X160.088 Y44.511 E86.87289
G1 X163.453 Y50.088 E87.12311
G1 X166.315 Y56.093 E87.37866
G1 X168.519 Y62.229 E87.62912
G1 X170.109 Y68.547 E87.8794
G1 X171.072 Y74.992 E88.12973
G1 X171.398 Y81.499 E88.38001
G1 X171.093 Y87.869 E88.625
G1 X170.136 Y94.454 E88.88062
G1 X168.559 Y100.777 E89.13097
G1 X166.37 Y106.914 E89.38127
G1 X163.65 Y112.683 E89.62629
G1 X160.32 Y118.279 E89.87644
G1 X156.372 Y123.637 E90.13211
G1 X152.093 Y128.368 E90.37717
G1 X147.281 Y132.756 E90.62734
G1 X142.059 Y136.657 E90.87774
G1 X136.481 Y140.022 E91.12799
G1 X130.601 Y142.825 E91.37823
G1 X124.471 Y145.04 E91.62862
G1 X118.025 Y146.677 E91.8841
G1 X111.575 Y147.641 E92.13464
G1 X105.069 Y147.967 E92.38488
G1 X98.561 Y147.654 E92.63518
G1 X92.113 Y146.705 E92.88555
G1 X85.792 Y145.128 E93.13582
G1 X79.784 Y142.986 E93.38085
G1 X73.763 Y140.161 E93.63634
G1 X68.169 Y136.817 E93.8867
G1 X63.04 Y133.02 E94.13185
G1 X58.099 Y128.569 E94.38732
G1 X53.717 Y123.745 E94.63768
G1 X49.829 Y118.514 E94.88806
G1 X46.474 Y112.93 E95.13831
G1 X43.682 Y107.04 E95.38871
G1 X41.481 Y100.909 E95.63896
G1 X39.891 Y94.591 E95.88923
G1 X38.928 Y88.144 E96.13964
G1 X38.602 Y81.639 E96.38985
G1 X38.907 Y75.269 E96.63484
G1 X39.864 Y68.684 E96.89046
G1 X41.441 Y62.361 E97.1408
G1 X43.63 Y56.224 E97.39111
G1 X46.409 Y50.33 E97.64143
G1 X49.752 Y44.738 E97.89171
G1 X53.63 Y39.499 E98.14211
M204 S3000
M205 X10 Y10
G0 F1800 X54.079 Y39.833
M204 S1800
M205 X8 Y8
G1 F2400 X58.322 Y35.146 E98.38498
G1 X63.198 Y30.703 E98.63839
G1 X68.278 Y26.929 E98.88151
G1 X73.808 Y23.595 E99.12956
G1 X79.639 Y20.818 E99.37767
G1 X85.717 Y18.625 E99.62589
G1 X91.978 Y17.038 E99.87402
G1 X98.369 Y16.072 E100.12232
G1 X104.819 Y15.738 E100.37043
G1 X111.271 Y16.035 E100.61855
G1 X117.668 Y16.966 E100.86688
G1 X123.936 Y18.519 E101.11495
G1 X130.026 Y20.678 E101.36317
G1 X135.999 Y23.484 E101.61668
G1 X141.543 Y26.801 E101.86487
G1 X146.736 Y30.648 E102.11314
G1 X151.525 Y34.984 E102.36131
G1 X155.867 Y39.768 E102.6095
G1 X159.639 Y44.845 E102.85247
G1 X162.974 Y50.377 E103.10062
G1 X165.81 Y56.333 E103.35403
G1 X167.992 Y62.418 E103.60237
G1 X169.566 Y68.683 E103.85052
G1 X170.518 Y75.074 E104.09874
G1 X170.839 Y81.527 E104.34694
G1 X170.534 Y87.842 E104.58982
G1 X169.582 Y94.373 E104.84336
G1 X168.016 Y100.641 E105.09155
G1 X165.843 Y106.725 E105.33973
G1 X163.143 Y112.444 E105.58268
G1 X159.839 Y117.992 E105.83074
G1 X155.922 Y123.304 E106.08428
G1 X151.678 Y127.992 E106.32721
G1 X146.904 Y132.342 E106.57532
G1 X141.724 Y136.208 E106.82362
G1 X136.192 Y139.543 E107.07177
G1 X130.361 Y142.32 E107.31987
G1 X124.282 Y144.513 E107.56813
G1 X117.888 Y146.134 E107.82153
G1 X111.493 Y147.087 E108.06991
G1 X105.041 Y147.408 E108.31808
G1 X98.589 Y147.095 E108.56622
G1 X92.195 Y146.151 E108.81451
G1 X85.928 Y144.585 E109.06267
G1 X79.972 Y142.459 E109.30561
G1 X74.001 Y139.654 E109.55904
G1 X68.457 Y136.337 E109.80722
G1 X63.374 Y132.571 E110.05024
G1 X58.474 Y128.154 E110.30367
G1 X54.132 Y123.369 E110.55188
G1 X50.278 Y118.18 E110.80019
G1 X46.954 Y112.642 E111.04831
G1 X44.189 Y106.801 E111.29657
G1 X42.008 Y100.72 E111.54474
G1 X40.434 Y94.455 E111.79289
G1 X39.482 Y88.062 E112.04119
G1 X39.161 Y81.611 E112.28932
G1 X39.466 Y75.296 E112.53219
G1 X40.418 Y68.765 E112.78574
G1 X41.984 Y62.497 E113.03393
G1 X44.157 Y56.413 E113.28211
G1 X46.916 Y50.569 E113.53037
G1 X50.232 Y45.026 E113.7785
G1 X54.079 Y39.833 E114.02677
M204 S3000
M205 X10 Y10
G0 F1800 X54.529 Y40.166
M204 S1800
M205 X8 Y8
G1 F2400 X58.737 Y35.522 E114.26751
G1 X63.575 Y31.117 E114.51886
G1 X68.611 Y27.379 E114.75979
G1 X74.097 Y24.075 E115.00581
G1 X79.88 Y21.324 E115.25182
G1 X85.907 Y19.152 E115.49793
G1 X92.115 Y17.581 E115.74393
G1 X98.452 Y16.626 E115.99012
G1 X104.848 Y16.297 E116.23615
G1 X111.245 Y16.594 E116.48215
G1 X117.587 Y17.52 E116.72837
G1 X123.801 Y19.062 E116.97432
G1 X129.839 Y21.206 E117.22046
G1 X135.76 Y23.991 E117.47183
G1 X141.255 Y27.282 E117.71788
G1 X146.403 Y31.098 E117.96405
G1 X151.149 Y35.399 E118.2101
G1 X155.452 Y40.144 E118.45617
G1 X159.189 Y45.178 E118.69702
G1 X162.494 Y50.666 E118.94312
G1 X165.304 Y56.574 E119.19444
G1 X167.465 Y62.607 E119.44062
G1 X169.023 Y68.819 E119.68665
G1 X169.964 Y75.156 E119.93276
G1 X170.28 Y81.554 E120.17884
G1 X169.975 Y87.815 E120.41964
G1 X169.028 Y94.292 E120.67111
G1 X167.473 Y100.505 E120.91714
G1 X165.316 Y106.536 E121.1632
G1 X162.637 Y112.205 E121.40407
G1 X159.358 Y117.705 E121.65005
G1 X155.471 Y122.971 E121.90149
G1 X151.263 Y127.616 E122.14226
G1 X146.527 Y131.928 E122.38831
G1 X141.389 Y135.759 E122.63452
G1 X135.903 Y139.063 E122.88053
G1 X130.12 Y141.814 E123.12655
G1 X124.092 Y143.986 E123.37269
G1 X117.751 Y145.591 E123.62396
G1 X111.411 Y146.533 E123.87019
