;FLAVOR:Marlin
;TIME:20888
;Filament used: 14.0762m
;Layer height: 0.18
;MINX:35.805
;MINY:11.312
;MINZ:0.15
;MAXX:174.195
;MAXY:149.694
;MAXZ:3.465
;Generated with Cura_SteamEngine 4.5.0
M140 S60
M105
M190 S60
M104 S200
M105
M109 S200
M82 ;absolute extrusion mode
G21 ;metric values
G90 ;absolute positioning
M82 ;set extruder to absolute mode
M107 ;start with the fan off
G28 X0 Y0 ;move X/Y to min endstops
G28 Z0 ;move Z to min endstops
G1 Z15.0 F100 ;move the platform down 15mm
G92 E0 ;zero the extruded length
G1 F200 E3 ;extrude 3mm of feed stock
G92 E0 ;zero the extruded length again
G1 F100
G0 Y20 F100
M117 Printing...
G5
G92 E0
G92 E0
G1 F2400 E-6
;LAYER_COUNT:19
;LAYER:0
M106 S255
M204 S3000
M205 X10 Y10
G1 F600 Z0.225
G0 F1800 X51.381 Y36.761 Z0.225
M204 S1800
M205 X8 Y8
;TYPE:SKIRT
G1 F600 Z0.15
G1 F2400 E0
G1 X55.832 Y31.819 E0.2555
G1 X60.834 Y27.241 E0.51598
G1 X66.268 Y23.166 E0.77691
G1 X72.075 Y19.647 E1.03775
G1 X78.322 Y16.655 E1.30384
G1 X84.587 Y14.391 E1.55974
G1 X91.155 Y12.71 E1.82019
G1 X97.869 Y11.68 E2.08113
G1 X104.647 Y11.312 E2.34189
G1 X105.058 Y11.312 E2.35768
G1 X111.428 Y11.609 E2.60265
G1 X118.154 Y12.571 E2.86366
G1 X124.746 Y14.188 E3.1244
G1 X131.151 Y16.442 E3.38525
G1 X137.429 Y19.374 E3.65142
G1 X143.27 Y22.849 E3.91252
G1 X148.627 Y26.798 E4.16818
G1 X153.775 Y31.418 E4.4339
G1 X158.357 Y36.441 E4.69509
G1 X162.337 Y41.773 E4.95069
G1 X165.852 Y47.574 E5.21125
G1 X168.785 Y53.696 E5.47203
G1 X171.152 Y60.208 E5.73821
G1 X172.825 Y66.796 E5.99932
G1 X173.842 Y73.511 E6.26022
G1 X174.195 Y80.292 E6.52107
G1 X173.882 Y87.075 E6.78192
G1 X172.906 Y93.797 E7.04286
G1 X171.275 Y100.388 E7.30369
G1 X169.006 Y106.787 E7.56451
G1 X166.181 Y112.81 E7.82007
G1 X162.725 Y118.643 E8.08052
G1 X158.625 Y124.23 E8.34674
G1 X154.168 Y129.179 E8.60259
G1 X149.064 Y133.85 E8.86838
G1 X143.724 Y137.837 E9.12439
G1 X137.925 Y141.351 E9.38487
G1 X131.803 Y144.284 E9.64565
G1 X125.291 Y146.651 E9.91182
G1 X118.703 Y148.324 E10.17293
G1 X111.986 Y149.341 E10.43391
G1 X105.206 Y149.694 E10.69472
G1 X98.424 Y149.381 E10.95553
G1 X91.702 Y148.405 E11.21647
G1 X85.111 Y146.774 E11.4773
G1 X78.71 Y144.504 E11.7382
G1 X72.689 Y141.68 E11.99368
G1 X66.856 Y138.224 E12.25414
G1 X61.379 Y134.206 E12.51508
G1 X56.222 Y129.577 E12.7813
G1 X51.735 Y124.658 E13.03707
G1 X47.585 Y119.119 E13.30295
G1 X44.072 Y113.299 E13.5641
G1 X41.151 Y107.167 E13.82502
G1 X38.845 Y100.782 E14.08581
G1 X37.175 Y94.202 E14.3466
G1 X36.158 Y87.485 E14.60758
G1 X35.805 Y80.706 E14.86835
G1 X36.11 Y74.062 E15.12385
G1 X37.093 Y67.209 E15.38981
G1 X38.725 Y60.61 E15.65095
G1 X40.994 Y54.211 E15.91177
G1 X43.878 Y48.063 E16.17264
G1 X47.35 Y42.229 E16.43344
G1 X51.381 Y36.761 E16.69441
M204 S3000
M205 X10 Y10
G0 F1800 X51.83 Y37.095
M204 S1800
M205 X8 Y8
G1 F2400 X56.247 Y32.196 E16.9478
G1 X61.211 Y27.655 E17.20625
G1 X66.603 Y23.615 E17.46508
G1 X72.364 Y20.127 E17.72379
G1 X78.562 Y17.161 E17.98775
G1 X84.776 Y14.918 E18.24154
G1 X91.292 Y13.253 E18.4999
G1 X97.953 Y12.233 E18.75876
G1 X104.676 Y11.872 E19.0174
G1 X105.032 Y11.871 E19.03108
G1 X111.402 Y12.168 E19.27605
G1 X118.073 Y13.125 E19.53494
G1 X124.611 Y14.731 E19.79357
G1 X130.964 Y16.97 E20.05234
G1 X137.191 Y19.88 E20.31638
G1 X142.982 Y23.33 E20.57533
G1 X148.293 Y27.247 E20.82884
G1 X153.4 Y31.834 E21.09255
G1 X157.942 Y36.817 E21.35156
G1 X161.887 Y42.106 E21.60504
G1 X165.373 Y47.863 E21.86358
G1 X168.279 Y53.936 E22.12221
G1 X170.626 Y60.397 E22.38628
G1 X172.282 Y66.932 E22.64526
G1 X173.288 Y73.593 E22.90405
G1 X173.636 Y80.319 E23.16277
G1 X173.323 Y87.048 E23.42155
G1 X172.352 Y93.715 E23.68037
G1 X170.732 Y100.252 E23.93909
G1 X168.479 Y106.598 E24.19778
G1 X165.675 Y112.571 E24.45126
G1 X162.244 Y118.356 E24.70964
G1 X158.174 Y123.897 E24.97375
G1 X153.753 Y128.802 E25.22742
G1 X148.687 Y133.436 E25.49117
G1 X143.391 Y137.388 E25.74502
G1 X137.636 Y140.871 E26.00344
G1 X131.563 Y143.778 E26.26209
G1 X125.102 Y146.125 E26.52616
G1 X118.567 Y147.781 E26.78514
G1 X111.904 Y148.787 E27.044
G1 X105.179 Y149.135 E27.30269
G1 X98.451 Y148.822 E27.56143
G1 X91.784 Y147.851 E27.82025
G1 X85.247 Y146.231 E28.07897
G1 X78.898 Y143.977 E28.33778
G1 X72.928 Y141.174 E28.59114
G1 X67.143 Y137.743 E28.84952
G1 X61.712 Y133.755 E29.10836
G1 X56.598 Y129.162 E29.37242
G1 X52.15 Y124.281 E29.62611
G1 X48.034 Y118.785 E29.88988
G1 X44.553 Y113.011 E30.14888
G1 X41.657 Y106.928 E30.4077
G1 X39.372 Y100.593 E30.6664
G1 X37.718 Y94.066 E30.92507
G1 X36.712 Y87.403 E31.18393
G1 X36.364 Y80.679 E31.44258
G1 X36.669 Y74.089 E31.69601
G1 X37.647 Y67.29 E31.95989
G1 X39.268 Y60.746 E32.21887
G1 X41.521 Y54.4 E32.47757
G1 X44.384 Y48.302 E32.73636
G1 X47.831 Y42.517 E32.99505
G1 X51.83 Y37.095 E33.25386
M204 S3000
M205 X10 Y10
G0 F1800 X52.28 Y37.428
M204 S1800
M205 X8 Y8
G1 F2400 X56.662 Y32.572 E33.50513
G1 X61.588 Y28.069 E33.76152
G1 X66.938 Y24.064 E34.01825
G1 X72.652 Y20.606 E34.27482
G1 X78.803 Y17.666 E34.53672
G1 X84.964 Y15.445 E34.78831
G1 X91.429 Y13.796 E35.04461
G1 X98.036 Y12.787 E35.30137
G1 X104.705 Y12.431 E35.55793
G1 X105.005 Y12.43 E35.56945
G1 X111.375 Y12.727 E35.81442
G1 X117.992 Y13.679 E36.07124
G1 X124.476 Y15.275 E36.32776
G1 X130.776 Y17.498 E36.5844
G1 X136.952 Y20.387 E36.84633
G1 X142.694 Y23.81 E37.10313
G1 X147.96 Y27.697 E37.35456
G1 X153.025 Y32.25 E37.6162
G1 X157.527 Y37.193 E37.87304
G1 X161.438 Y42.44 E38.12444
G1 X164.893 Y48.151 E38.38085
G1 X167.774 Y54.177 E38.63744
G1 X170.099 Y60.587 E38.89938
G1 X171.739 Y67.068 E39.1562
G1 X172.734 Y73.675 E39.41287
G1 X173.076 Y80.347 E39.66952
G1 X172.763 Y87.02 E39.92614
G1 X171.798 Y93.633 E40.18288
G1 X170.189 Y100.116 E40.43948
G1 X167.952 Y106.41 E40.69608
G1 X165.168 Y112.331 E40.94743
G1 X161.763 Y118.069 E41.20375
G1 X157.724 Y123.565 E41.46576
G1 X153.338 Y128.426 E41.71728
G1 X148.31 Y133.022 E41.97896
G1 X143.057 Y136.938 E42.23066
G1 X137.348 Y140.392 E42.48699
G1 X131.322 Y143.273 E42.74358
G1 X124.912 Y145.598 E43.00552
G1 X118.431 Y147.238 E43.26234
G1 X111.822 Y148.233 E43.51909
G1 X105.151 Y148.575 E43.77569
G1 X98.479 Y148.262 E44.03228
G1 X91.866 Y147.297 E44.28901
G1 X85.383 Y145.688 E44.54562
G1 X79.087 Y143.45 E44.80231
G1 X73.168 Y140.667 E45.05357
G1 X67.43 Y137.262 E45.30989
G1 X62.045 Y133.305 E45.5666
G1 X56.973 Y128.746 E45.82858
G1 X52.565 Y123.905 E46.0801
G1 X48.483 Y118.45 E46.34183
G1 X45.033 Y112.723 E46.59867
G1 X42.164 Y106.688 E46.85537
G1 X39.899 Y100.405 E47.11194
G1 X38.261 Y93.93 E47.36852
G1 X37.266 Y87.321 E47.62527
G1 X36.924 Y80.651 E47.88183
G1 X37.229 Y74.116 E48.13315
G1 X38.201 Y67.371 E48.39494
G1 X39.811 Y60.882 E48.65178
G1 X42.048 Y54.588 E48.90838
G1 X44.891 Y48.542 E49.16504
G1 X48.311 Y42.805 E49.42162
G1 X52.28 Y37.428 E49.67835
M204 S3000
M205 X10 Y10
G0 F1800 X52.73 Y37.762
M204 S1800
M205 X8 Y8
G1 F2400 X57.077 Y32.948 E49.92752
G1 X61.965 Y28.483 E50.18185
G1 X67.272 Y24.513 E50.43645
G1 X72.941 Y21.086 E50.69093
G1 X79.043 Y18.172 E50.9507
G1 X85.153 Y15.972 E51.20017
G1 X91.566 Y14.339 E51.45439
G1 X98.119 Y13.341 E51.70902
G1 X104.733 Y12.99 E51.96346
G1 X111.349 Y13.287 E52.21787
G1 X117.911 Y14.234 E52.47257
G1 X124.341 Y15.818 E52.72696
G1 X130.589 Y18.025 E52.98152
G1 X136.714 Y20.894 E53.24135
G1 X142.406 Y24.29 E53.49597
G1 X147.626 Y28.147 E53.7453
G1 X152.649 Y32.665 E54.00483
G1 X157.112 Y37.57 E54.25958
G1 X160.988 Y42.774 E54.50886
G1 X164.413 Y48.44 E54.7632
G1 X167.268 Y54.417 E55.01765
G1 X169.572 Y60.777 E55.27751
G1 X171.195 Y67.205 E55.5322
G1 X172.18 Y73.757 E55.78672
G1 X172.517 Y80.374 E56.04125
G1 X172.204 Y86.993 E56.2958
G1 X171.244 Y93.551 E56.55042
G1 X169.645 Y99.979 E56.80488
G1 X167.425 Y106.221 E57.05938
G1 X164.662 Y112.092 E57.30865
G1 X161.282 Y117.783 E57.56292
G1 X157.273 Y123.232 E57.8228
G1 X152.923 Y128.05 E58.07216
G1 X147.933 Y132.608 E58.33178
G1 X142.723 Y136.488 E58.58133
G1 X137.059 Y139.912 E58.83559
G1 X131.082 Y142.767 E59.09004
G1 X124.722 Y145.071 E59.34991
G1 X118.294 Y146.694 E59.60459
G1 X111.74 Y147.679 E59.85919
G1 X105.124 Y148.016 E60.11368
G1 X98.506 Y147.703 E60.3682
G1 X91.948 Y146.743 E60.62281
G1 X85.52 Y145.144 E60.87727
G1 X79.276 Y142.923 E61.13186
G1 X73.407 Y140.161 E61.38104
G1 X67.716 Y136.781 E61.63531
G1 X62.377 Y132.854 E61.88992
G1 X57.348 Y128.33 E62.14977
G1 X52.98 Y123.529 E62.39912
G1 X48.932 Y118.115 E62.65881
G1 X45.513 Y112.435 E62.91349
G1 X42.67 Y106.449 E63.16806
G1 X40.426 Y100.216 E63.42255
G1 X38.805 Y93.793 E63.67703
G1 X37.82 Y87.239 E63.93163
G1 X37.483 Y80.624 E64.18608
G1 X37.788 Y74.144 E64.43528
G1 X38.756 Y67.452 E64.69504
G1 X40.355 Y61.019 E64.94968
G1 X42.575 Y54.777 E65.20419
G1 X45.397 Y48.781 E65.45876
G1 X48.791 Y43.093 E65.71321
G1 X52.73 Y37.762 E65.96784
M204 S3000
M205 X10 Y10
G0 F1800 X53.18 Y38.095
M204 S1800
M205 X8 Y8
G1 F2400 X57.492 Y33.324 E66.21489
G1 X62.342 Y28.897 E66.46715
G1 X67.607 Y24.962 E66.71965
G1 X73.23 Y21.566 E66.972
G1 X79.284 Y18.678 E67.22968
G1 X85.342 Y16.5 E67.47698
G1 X91.704 Y14.882 E67.72916
G1 X98.203 Y13.895 E67.98168
G1 X104.762 Y13.55 E68.234
G1 X111.323 Y13.846 E68.4863
G1 X117.83 Y14.788 E68.73887
G1 X124.206 Y16.362 E68.99116
G1 X130.401 Y18.553 E69.24359
G1 X136.475 Y21.4 E69.50129
G1 X142.119 Y24.771 E69.75384
G1 X147.293 Y28.597 E70.00104
G1 X152.274 Y33.081 E70.2585
G1 X156.697 Y37.946 E70.51108
G1 X160.538 Y43.107 E70.75822
G1 X163.933 Y48.729 E71.01052
G1 X166.762 Y54.657 E71.26285
G1 X169.045 Y60.967 E71.52063
G1 X170.652 Y67.341 E71.77315
G1 X171.626 Y73.839 E72.02556
G1 X171.958 Y80.402 E72.27801
G1 X171.645 Y86.965 E72.53041
G1 X170.69 Y93.469 E72.78295
G1 X169.102 Y99.843 E73.03529
G1 X166.897 Y106.032 E73.28768
G1 X164.156 Y111.853 E73.53485
G1 X160.801 Y117.496 E73.78705
G1 X156.823 Y122.899 E74.0448
G1 X152.508 Y127.674 E74.29203
G1 X147.556 Y132.194 E74.54959
G1 X142.39 Y136.038 E74.79696
G1 X136.77 Y139.432 E75.04917
G1 X130.842 Y142.261 E75.3015
G1 X124.532 Y144.544 E75.55928
G1 X118.158 Y146.151 E75.8118
G1 X111.658 Y147.125 E76.06429
G1 X105.096 Y147.457 E76.3167
G1 X98.534 Y147.144 E76.56906
G1 X92.03 Y146.189 E76.8216
G1 X85.656 Y144.601 E77.07394
G1 X79.465 Y142.395 E77.32642
G1 X73.646 Y139.655 E77.5735
G1 X68.003 Y136.3 E77.8257
G1 X62.71 Y132.404 E78.07818
G1 X57.724 Y127.915 E78.33591
G1 X53.395 Y123.153 E78.58313
G1 X49.381 Y117.781 E78.84075
G1 X45.994 Y112.148 E79.09325
G1 X43.176 Y106.21 E79.34574
G1 X40.954 Y100.027 E79.59814
G1 X39.348 Y93.657 E79.8505
G1 X38.374 Y87.157 E80.10299
G1 X38.042 Y80.596 E80.35536
G1 X38.347 Y74.171 E80.60245
G1 X39.31 Y67.533 E80.86012
G1 X40.898 Y61.155 E81.11262
G1 X43.103 Y54.966 E81.36501
G1 X45.903 Y49.02 E81.61749
G1 X49.272 Y43.38 E81.86986
G1 X53.18 Y38.095 E82.12237
M204 S3000
M205 X10 Y10
G0 F1800 X53.63 Y38.429
M204 S1800
M205 X8 Y8
G1 F2400 X57.907 Y33.7 E82.36731
G1 X62.719 Y29.312 E82.61748
G1 X67.941 Y25.411 E82.86788
G1 X73.519 Y22.046 E83.11814
G1 X79.524 Y19.184 E83.37368
G1 X85.53 Y17.027 E83.61883
G1 X91.841 Y15.425 E83.86896
G1 X98.286 Y14.449 E84.11937
G1 X104.79 Y14.109 E84.36957
G1 X111.297 Y14.406 E84.6198
G1 X117.749 Y15.342 E84.87025
G1 X124.071 Y16.905 E85.12042
G1 X130.214 Y19.081 E85.37078
G1 X136.237 Y21.907 E85.62636
G1 X141.831 Y25.251 E85.87672
G1 X146.959 Y29.047 E86.12182
G1 X151.899 Y33.497 E86.37723
G1 X156.282 Y38.322 E86.62765
G1 X160.088 Y43.441 E86.87269
G1 X163.453 Y49.018 E87.12291
G1 X166.256 Y54.898 E87.37315
G1 X168.518 Y61.157 E87.62881
G1 X170.109 Y67.477 E87.87917
G1 X171.072 Y73.922 E88.12951
G1 X171.398 Y80.429 E88.37979
G1 X171.085 Y86.938 E88.63012
G1 X170.136 Y93.386 E88.8805
G1 X168.559 Y99.707 E89.13076
G1 X166.37 Y105.844 E89.38107
G1 X163.65 Y111.613 E89.62608
G1 X160.32 Y117.209 E89.87624
G1 X156.372 Y122.567 E90.13191
G1 X152.093 Y127.298 E90.37696
G1 X147.179 Y131.779 E90.63244
G1 X142.056 Y135.588 E90.87768
G1 X136.481 Y138.952 E91.12781
G1 X130.601 Y141.755 E91.37805
G1 X124.342 Y144.017 E91.63371
G1 X118.022 Y145.608 E91.88407
G1 X111.575 Y146.571 E92.13448
G1 X105.069 Y146.897 E92.38473
G1 X98.561 Y146.584 E92.63503
G1 X92.113 Y145.635 E92.8854
G1 X85.792 Y144.058 E93.13566
G1 X79.653 Y141.868 E93.38605
G1 X73.886 Y139.149 E93.63098
G1 X68.29 Y135.819 E93.88114
G1 X63.042 Y131.953 E94.13154
G1 X58.099 Y127.499 E94.38714
G1 X53.81 Y122.777 E94.6322
G1 X49.83 Y117.446 E94.88777
G1 X46.474 Y111.86 E95.13811
G1 X43.682 Y105.97 E95.38851
G1 X41.481 Y99.839 E95.63875
G1 X39.891 Y93.521 E95.88903
G1 X38.928 Y87.074 E96.13944
G1 X38.602 Y80.569 E96.38965
G1 X38.907 Y74.199 E96.63463
G1 X39.864 Y67.614 E96.89026
G1 X41.441 Y61.291 E97.1406
G1 X43.63 Y55.154 E97.3909
G1 X46.409 Y49.26 E97.64123
G1 X49.752 Y43.668 E97.89151
G1 X53.63 Y38.429 E98.14191
M204 S3000
M205 X10 Y10
G0 F1800 X54.079 Y38.763
M204 S1800
M205 X8 Y8
G1 F2400 X58.322 Y34.076 E98.38478
G1 X63.096 Y29.726 E98.63289
G1 X68.276 Y25.86 E98.88119
G1 X73.808 Y22.525 E99.12934
G1 X79.764 Y19.689 E99.38275
G1 X85.719 Y17.554 E99.62577
G1 X91.978 Y15.968 E99.87382
G1 X98.369 Y15.002 E100.12212
G1 X104.819 Y14.668 E100.37023
G1 X111.271 Y14.965 E100.61835
G1 X117.668 Y15.896 E100.86668
G1 X123.936 Y17.449 E101.11475
G1 X130.026 Y19.608 E101.36297
G1 X135.999 Y22.414 E101.61648
G1 X141.543 Y25.731 E101.86467
G1 X146.625 Y29.496 E102.10763
G1 X151.524 Y33.912 E102.361
G1 X155.867 Y38.698 E102.60927
G1 X159.639 Y43.775 E102.85225
G1 X162.974 Y49.307 E103.10039
G1 X165.751 Y55.138 E103.3485
G1 X167.991 Y61.346 E103.60203
G1 X169.566 Y67.613 E103.85027
G1 X170.518 Y74.004 E104.09849
G1 X170.839 Y80.457 E104.34669
G1 X170.526 Y86.91 E104.59488
G1 X169.582 Y93.304 E104.84317
G1 X168.016 Y99.571 E105.09132
G1 X165.843 Y105.655 E105.3395
G1 X163.143 Y111.374 E105.58245
G1 X159.839 Y116.922 E105.83051
G1 X155.922 Y122.234 E106.08405
G1 X151.678 Y126.922 E106.32698
G1 X146.802 Y131.365 E106.58039
G1 X141.722 Y135.139 E106.8235
G1 X136.192 Y138.473 E107.07156
G1 X130.361 Y141.25 E107.31967
G1 X124.153 Y143.49 E107.5732
G1 X117.886 Y145.065 E107.82144
G1 X111.493 Y146.017 E108.06974
G1 X105.041 Y146.338 E108.3179
G1 X98.589 Y146.025 E108.56605
G1 X92.195 Y145.081 E108.81434
G1 X85.928 Y143.515 E109.06249
G1 X79.842 Y141.341 E109.31076
G1 X74.125 Y138.642 E109.55362
G1 X68.577 Y135.338 E109.80168
G1 X63.375 Y131.503 E110.04995
G1 X58.474 Y127.083 E110.30348
G1 X54.225 Y122.401 E110.54637
G1 X50.279 Y117.112 E110.79987
G1 X46.954 Y111.572 E111.04808
G1 X44.189 Y105.731 E111.29633
G1 X42.008 Y99.65 E111.54451
G1 X40.434 Y93.385 E111.79266
G1 X39.482 Y86.992 E112.04096
G1 X39.161 Y80.541 E112.28908
G1 X39.466 Y74.226 E112.53196
G1 X40.418 Y67.695 E112.7855
G1 X41.984 Y61.427 E113.03369
G1 X44.157 Y55.343 E113.28187
G1 X46.916 Y49.499 E113.53013
G1 X50.232 Y43.956 E113.77826
G1 X54.079 Y38.763 E114.02653
M204 S3000
M205 X10 Y10
G0 F1800 X54.529 Y39.096
M204 S1800
M205 X8 Y8
G1 F2400 X58.737 Y34.452 E114.26728
G1 X63.473 Y30.14 E114.51333
G1 X68.611 Y26.309 E114.75953
G1 X74.097 Y23.005 E115.00555
G1 X80.005 Y20.195 E115.25687
G1 X85.908 Y18.081 E115.49774
G1 X92.115 Y16.511 E115.74369
G1 X98.452 Y15.556 E115.98988
G1 X104.848 Y15.227 E116.23591
G1 X111.245 Y15.524 E116.48192
G1 X117.587 Y16.45 E116.72813
G1 X123.801 Y17.992 E116.97409
G1 X129.839 Y20.136 E117.22023
G1 X135.76 Y22.921 E117.47159
G1 X141.255 Y26.212 E117.71765
G1 X146.292 Y29.946 E117.95852
G1 X151.149 Y34.328 E118.20981
G1 X155.452 Y39.074 E118.45591
G1 X159.189 Y44.108 E118.69676
G1 X162.494 Y49.596 E118.94286
G1 X165.245 Y55.379 E119.18887
G1 X167.464 Y61.536 E119.44029
G1 X169.023 Y67.749 E119.68636
G1 X169.964 Y74.086 E119.93247
G1 X170.28 Y80.484 E120.17855
G1 X169.967 Y86.883 E120.42467
G1 X169.028 Y93.222 E120.67084
G1 X167.473 Y99.435 E120.91688
G1 X165.316 Y105.466 E121.16293
G1 X162.637 Y111.135 E121.4038
G1 X159.358 Y116.635 E121.64979
G1 X155.471 Y121.901 E121.90123
G1 X151.263 Y126.546 E122.142
G1 X146.425 Y130.951 E122.39335
G1 X141.389 Y134.689 E122.63428
G1 X135.903 Y137.993 E122.8803
G1 X130.12 Y140.744 E123.12631
G1 X123.963 Y142.963 E123.37772
G1 X117.75 Y144.522 E123.6238
G1 X111.411 Y145.463 E123.86998
G1 X105.014 Y145.779 E124.11603
