;FLAVOR:Marlin
;TIME:18701
;Filament used: 12.1781m
;Layer height: 0.18
;MINX:10.853
;MINY:10.853
;MINZ:0.15
;MAXX:199.147
;MAXY:199.147
;MAXZ:2.925
;Generated with Cura_SteamEngine 4.5.0
M140 S65
M105
M190 S65
M104 S205
M105
M109 S205
M82 ;absolute extrusion mode
G21 ;metric values
G90 ;absolute positioning
M82 ;set extruder to absolute mode
M107 ;start with the fan off
G28 X0 Y0 ;move X/Y to min endstops
G28 Z0 ;move Z to min endstops
G1 Z15.0 F100 ;move the platform down 15mm
G92 E0 ;zero the extruded length
G1 F200 E3 ;extrude 3mm of feed stock
G92 E0 ;zero the extruded length again
G1 F100
G0 Y20 F100
M117 Printing...
G5
G92 E0
G92 E0
G1 F2400 E-6
;LAYER_COUNT:16
;LAYER:0
M106 S255
M204 S3000
M205 X10 Y10
G1 F600 Z0.225
G0 F1800 X13.667 Y13.522 Z0.225
M204 S1800
M205 X8 Y8
;TYPE:SKIRT
G1 F600 Z0.15
G1 F2400 E0
G1 X14.262 Y12.988 E0.03071
G1 X14.784 Y12.588 E0.05598
G1 X15.459 Y12.151 E0.08687
G1 X16.044 Y11.836 E0.11239
G1 X16.777 Y11.512 E0.14318
G1 X17.392 Y11.295 E0.16823
G1 X18.164 Y11.089 E0.19892
G1 X18.814 Y10.969 E0.22432
G1 X19.615 Y10.886 E0.25525
G1 X46.271 Y10.854 E1.27926
G1 X189.827 Y10.853 E6.79402
G1 X190.837 Y10.92 E6.83291
G1 X191.384 Y11.001 E6.85415
G1 X192.171 Y11.17 E6.88507
G1 X192.798 Y11.356 E6.9102
G1 X193.546 Y11.644 E6.94099
G1 X194.142 Y11.929 E6.96637
G1 X194.831 Y12.328 E6.99695
G1 X195.376 Y12.704 E7.02239
G1 X196.002 Y13.213 E7.05338
G1 X196.478 Y13.667 E7.07865
G1 X197.012 Y14.262 E7.10937
G1 X197.412 Y14.784 E7.13463
G1 X197.849 Y15.459 E7.16552
G1 X198.163 Y16.04 E7.19089
G1 X198.487 Y16.771 E7.22161
G1 X198.706 Y17.393 E7.24694
G1 X198.912 Y18.167 E7.27771
G1 X199.031 Y18.813 E7.30294
G1 X199.114 Y19.612 E7.3338
G1 X199.147 Y163.726 E12.87001
G1 X199.146 Y189.827 E13.87269
G1 X199.08 Y190.831 E13.91134
G1 X199 Y191.382 E13.93273
G1 X198.832 Y192.166 E13.96353
G1 X198.645 Y192.794 E13.9887
G1 X198.356 Y193.545 E14.01961
G1 X198.071 Y194.142 E14.04503
G1 X197.672 Y194.831 E14.07561
G1 X197.296 Y195.376 E14.10105
G1 X196.787 Y196.002 E14.13204
G1 X196.333 Y196.478 E14.15731
G1 X195.738 Y197.012 E14.18803
G1 X195.216 Y197.412 E14.21329
G1 X194.541 Y197.849 E14.24418
G1 X193.956 Y198.164 E14.2697
G1 X193.223 Y198.488 E14.30049
G1 X192.608 Y198.705 E14.32554
G1 X191.836 Y198.911 E14.35624
G1 X191.186 Y199.031 E14.38163
G1 X190.385 Y199.114 E14.41256
G1 X46.274 Y199.147 E19.94865
G1 X20.173 Y199.146 E20.95134
G1 X19.169 Y199.08 E20.98999
G1 X18.616 Y198.999 E21.01146
G1 X17.829 Y198.83 E21.04238
G1 X17.202 Y198.644 E21.06751
G1 X16.454 Y198.356 E21.0983
G1 X15.858 Y198.071 E21.12367
G1 X15.169 Y197.672 E21.15426
G1 X14.624 Y197.296 E21.1797
G1 X13.998 Y196.787 E21.21069
G1 X13.522 Y196.333 E21.23596
G1 X12.988 Y195.738 E21.26667
G1 X12.588 Y195.216 E21.29194
G1 X12.151 Y194.541 E21.32283
G1 X11.837 Y193.958 E21.34826
G1 X11.512 Y193.224 E21.3791
G1 X11.293 Y192.603 E21.4044
G1 X11.088 Y191.832 E21.43505
G1 X10.969 Y191.187 E21.46024
G1 X10.886 Y190.388 E21.4911
G1 X10.853 Y152.751 E22.93694
G1 X10.853 Y46.274 E27.02731
G1 X10.854 Y20.173 E28.02999
G1 X10.92 Y19.169 E28.06864
G1 X11 Y18.618 E28.09003
G1 X11.168 Y17.834 E28.12083
G1 X11.355 Y17.206 E28.146
G1 X11.644 Y16.455 E28.17691
G1 X11.929 Y15.858 E28.20233
G1 X12.328 Y15.169 E28.23291
G1 X12.704 Y14.624 E28.25835
G1 X13.213 Y13.998 E28.28934
G1 X13.667 Y13.522 E28.31461
M204 S3000
M205 X10 Y10
G0 F1800 X14.041 Y13.939
M204 S1800
M205 X8 Y8
G1 F2400 X14.636 Y13.405 E28.34533
G1 X15.089 Y13.058 E28.36725
G1 X15.764 Y12.621 E28.39814
G1 X16.27 Y12.348 E28.42022
G1 X17.003 Y12.024 E28.45101
G1 X17.537 Y11.836 E28.47276
G1 X18.309 Y11.63 E28.50345
G1 X18.872 Y11.526 E28.52545
G1 X19.673 Y11.443 E28.55638
G1 X46.272 Y11.414 E29.5782
G1 X189.827 Y11.413 E35.09293
G1 X190.792 Y11.479 E35.13008
G1 X192.053 Y11.717 E35.17938
G1 X192.597 Y11.879 E35.20119
G1 X193.345 Y12.167 E35.23198
G1 X193.861 Y12.414 E35.25395
G1 X194.55 Y12.813 E35.28454
G1 X195.022 Y13.139 E35.30658
G1 X195.648 Y13.648 E35.33757
G1 X196.061 Y14.041 E35.35947
G1 X196.595 Y14.636 E35.39018
G1 X196.942 Y15.089 E35.41211
G1 X197.379 Y15.764 E35.443
G1 X197.651 Y16.267 E35.46496
G1 X197.975 Y16.998 E35.49568
G1 X198.165 Y17.537 E35.51763
G1 X198.371 Y18.311 E35.5484
G1 X198.474 Y18.871 E35.57028
G1 X198.557 Y19.67 E35.60114
G1 X198.587 Y163.726 E41.13511
G1 X198.586 Y189.827 E42.13779
G1 X198.522 Y190.787 E42.17476
G1 X198.284 Y192.049 E42.22409
G1 X198.122 Y192.593 E42.24589
G1 X197.833 Y193.344 E42.27681
G1 X197.586 Y193.861 E42.29882
G1 X197.187 Y194.55 E42.3294
G1 X196.861 Y195.022 E42.35144
G1 X196.352 Y195.648 E42.38244
G1 X195.959 Y196.061 E42.40434
G1 X195.364 Y196.595 E42.43505
G1 X194.911 Y196.942 E42.45697
G1 X194.236 Y197.379 E42.48786
G1 X193.73 Y197.652 E42.50995
G1 X192.997 Y197.976 E42.54073
G1 X192.463 Y198.164 E42.56248
G1 X191.691 Y198.37 E42.59318
G1 X191.128 Y198.474 E42.61517
G1 X190.327 Y198.557 E42.64611
G1 X46.274 Y198.587 E48.17997
G1 X20.173 Y198.586 E49.18265
G1 X19.213 Y198.522 E49.21961
G1 X17.947 Y198.283 E49.2691
G1 X17.403 Y198.121 E49.29091
G1 X16.655 Y197.833 E49.3217
G1 X16.139 Y197.586 E49.34368
G1 X15.45 Y197.187 E49.37426
G1 X14.978 Y196.861 E49.3963
G1 X14.352 Y196.352 E49.42729
G1 X13.939 Y195.959 E49.44919
G1 X13.405 Y195.364 E49.47991
G1 X13.058 Y194.911 E49.50183
G1 X12.621 Y194.236 E49.53272
G1 X12.349 Y193.732 E49.55472
G1 X12.024 Y192.998 E49.58556
G1 X11.834 Y192.459 E49.60751
G1 X11.629 Y191.688 E49.63816
G1 X11.526 Y191.129 E49.65999
G1 X11.443 Y190.33 E49.69085
G1 X11.413 Y152.751 E51.13447
G1 X11.413 Y46.274 E55.22483
G1 X11.414 Y20.173 E56.22751
G1 X11.478 Y19.213 E56.26447
G1 X11.716 Y17.951 E56.31381
G1 X11.878 Y17.407 E56.33561
G1 X12.167 Y16.656 E56.36652
G1 X12.414 Y16.139 E56.38854
G1 X12.813 Y15.45 E56.41912
G1 X13.139 Y14.978 E56.44116
G1 X13.648 Y14.352 E56.47215
G1 X14.041 Y13.939 E56.49405
M204 S3000
M205 X10 Y10
G0 F1800 X14.082 Y14.705
M204 S1800
M205 X8 Y8
G1 F2400 X15.01 Y13.822 E56.54326
G1 X16.068 Y13.092 E56.59264
G1 X17.23 Y12.536 E56.64213
G1 X18.453 Y12.171 E56.69116
G1 X19.731 Y12 E56.74069
G1 X46.272 Y11.974 E57.76027
G1 X189.827 Y11.973 E63.27501
G1 X190.748 Y12.037 E63.31047
G1 X191.936 Y12.265 E63.35694
G1 X193.144 Y12.69 E63.40614
G1 X194.269 Y13.298 E63.45526
G1 X195.295 Y14.082 E63.50486
G1 X196.178 Y15.01 E63.55407
G1 X196.908 Y16.068 E63.60345
G1 X197.463 Y17.225 E63.65275
G1 X197.829 Y18.455 E63.70205
G1 X198 Y19.728 E63.75139
G1 X198.027 Y163.726 E69.28314
G1 X198.026 Y189.827 E70.28582
G1 X197.964 Y190.743 E70.32109
G1 X197.737 Y191.931 E70.36755
G1 X197.311 Y193.143 E70.4169
G1 X196.702 Y194.269 E70.46608
G1 X195.918 Y195.295 E70.51569
G1 X194.99 Y196.178 E70.56489
G1 X193.932 Y196.908 E70.61427
G1 X192.77 Y197.464 E70.66376
G1 X191.547 Y197.829 E70.71279
G1 X190.269 Y198 E70.76232
G1 X46.274 Y198.027 E76.29396
G1 X20.173 Y198.026 E77.29664
G1 X19.257 Y197.964 E77.33191
G1 X18.064 Y197.735 E77.37857
G1 X16.856 Y197.31 E77.42777
G1 X15.731 Y196.702 E77.47689
G1 X14.705 Y195.918 E77.5265
G1 X13.822 Y194.99 E77.5757
G1 X13.092 Y193.932 E77.62508
G1 X12.536 Y192.771 E77.67454
G1 X12.17 Y191.544 E77.72372
G1 X12 Y190.272 E77.77302
G1 X11.973 Y152.751 E79.21441
G1 X11.973 Y46.274 E83.30477
G1 X11.974 Y20.173 E84.30745
G1 X12.036 Y19.257 E84.34272
G1 X12.263 Y18.069 E84.38919
G1 X12.689 Y16.857 E84.43854
G1 X13.298 Y15.731 E84.48771
G1 X14.082 Y14.705 E84.53732
M204 S3000
M205 X10 Y10
G0 F1800 X14.517 Y15.058
M204 S1800
M205 X8 Y8
G1 F2400 X15.384 Y14.239 E84.58314
G1 X16.372 Y13.562 E84.62915
G1 X17.456 Y13.048 E84.67523
G1 X18.597 Y12.712 E84.72092
G1 X19.788 Y12.557 E84.76706
G1 X46.272 Y12.534 E85.78446
G1 X189.826 Y12.533 E91.29915
G1 X190.703 Y12.595 E91.33293
G1 X191.818 Y12.812 E91.37656
G1 X192.942 Y13.212 E91.42239
G1 X193.989 Y13.782 E91.46819
G1 X194.942 Y14.517 E91.51442
G1 X195.761 Y15.384 E91.56024
G1 X196.438 Y16.372 E91.60625
G1 X196.951 Y17.452 E91.65218
G1 X197.288 Y18.599 E91.69811
G1 X197.443 Y19.786 E91.74409
G1 X197.467 Y163.726 E97.27361
G1 X197.466 Y189.827 E98.27629
G1 X197.405 Y190.699 E98.30987
G1 X197.189 Y191.814 E98.3535
G1 X196.788 Y192.942 E98.39949
G1 X196.218 Y193.989 E98.44529
G1 X195.483 Y194.942 E98.49152
G1 X194.616 Y195.761 E98.53734
G1 X193.628 Y196.438 E98.58335
G1 X192.544 Y196.952 E98.62944
G1 X191.403 Y197.288 E98.67513
G1 X190.212 Y197.443 E98.72127
G1 X46.274 Y197.467 E104.25071
G1 X20.173 Y197.466 E105.25339
G1 X19.301 Y197.405 E105.28697
G1 X18.182 Y197.188 E105.33076
G1 X17.058 Y196.788 E105.37659
G1 X16.011 Y196.218 E105.42239
G1 X15.058 Y195.483 E105.46862
G1 X14.239 Y194.616 E105.51444
G1 X13.562 Y193.628 E105.56045
G1 X13.048 Y192.544 E105.60653
G1 X12.712 Y191.401 E105.6523
G1 X12.557 Y190.214 E105.69829
G1 X12.533 Y152.751 E107.13745
G1 X12.533 Y46.275 E111.22777
G1 X12.534 Y20.174 E112.23045
G1 X12.595 Y19.301 E112.26407
G1 X12.811 Y18.186 E112.3077
G1 X13.212 Y17.058 E112.35369
G1 X13.782 Y16.011 E112.39948
G1 X14.517 Y15.058 E112.44572
M204 S3000
M205 X10 Y10
G0 F1800 X14.951 Y15.411
M204 S1800
M205 X8 Y8
G1 F2400 X15.758 Y14.655 E112.4882
G1 X16.677 Y14.032 E112.53085
G1 X17.683 Y13.56 E112.57354
G1 X18.742 Y13.253 E112.61589
G1 X19.846 Y13.114 E112.65864
G1 X46.272 Y13.094 E113.67381
G1 X189.826 Y13.093 E119.1885
G1 X190.658 Y13.153 E119.22054
G1 X191.701 Y13.36 E119.26139
G1 X192.741 Y13.735 E119.30386
G1 X193.708 Y14.267 E119.34626
G1 X194.589 Y14.951 E119.38911
G1 X195.345 Y15.758 E119.43159
G1 X195.968 Y16.677 E119.47424
G1 X196.439 Y17.679 E119.51677
G1 X196.747 Y18.743 E119.55932
G1 X196.886 Y19.843 E119.60192
G1 X196.907 Y163.726 E125.12925
G1 X196.906 Y189.827 E126.13193
G1 X196.847 Y190.655 E126.16382
G1 X196.641 Y191.697 E126.20462
G1 X196.265 Y192.741 E126.24725
G1 X195.733 Y193.708 E126.28965
G1 X195.049 Y194.589 E126.33249
G1 X194.242 Y195.345 E126.37497
G1 X193.323 Y195.968 E126.41763
G1 X192.317 Y196.44 E126.46031
G1 X191.258 Y196.747 E126.50267
G1 X190.154 Y196.886 E126.54542
G1 X46.274 Y196.907 E132.07263
G1 X20.173 Y196.906 E133.07531
G1 X19.345 Y196.847 E133.1072
G1 X18.299 Y196.64 E133.14816
G1 X17.259 Y196.265 E133.19063
G1 X16.292 Y195.733 E133.23303
G1 X15.411 Y195.049 E133.27588
G1 X14.655 Y194.242 E133.31836
G1 X14.032 Y193.323 E133.36101
G1 X13.56 Y192.318 E133.40366
G1 X13.253 Y191.257 E133.44609
G1 X13.114 Y190.157 E133.48869
G1 X13.093 Y152.751 E134.92566
G1 X13.093 Y46.275 E139.01598
G1 X13.094 Y20.174 E140.01866
G1 X13.153 Y19.345 E140.05059
G1 X13.359 Y18.303 E140.09139
G1 X13.735 Y17.259 E140.13402
G1 X14.267 Y16.292 E140.17642
G1 X14.951 Y15.411 E140.21927
M204 S3000
M205 X10 Y10
G0 F1800 X15.386 Y15.765
M204 S1800
M205 X8 Y8
G1 F2400 X16.132 Y15.072 E140.25838
G1 X16.981 Y14.502 E140.29766
G1 X17.909 Y14.073 E140.33694
G1 X18.886 Y13.794 E140.37597
G1 X19.904 Y13.671 E140.41536
G1 X46.272 Y13.654 E141.4283
G1 X189.826 Y13.653 E146.94299
G1 X190.614 Y13.711 E146.97335
G1 X191.583 Y13.907 E147.01133
G1 X192.54 Y14.257 E147.05047
G1 X193.428 Y14.751 E147.08951
G1 X194.235 Y15.386 E147.12896
G1 X194.928 Y16.132 E147.16807
G1 X195.498 Y16.981 E147.20735
G1 X195.927 Y17.906 E147.24652
G1 X196.206 Y18.887 E147.2857
G1 X196.329 Y19.901 E147.32494
G1 X196.347 Y163.726 E152.85005
G1 X196.346 Y189.827 E153.85273
G1 X196.289 Y190.612 E153.88296
G1 X196.094 Y191.579 E153.92086
G1 X195.743 Y192.54 E153.96016
G1 X195.249 Y193.428 E153.9992
G1 X194.614 Y194.235 E154.03865
G1 X193.868 Y194.928 E154.07776
G1 X193.019 Y195.498 E154.11704
G1 X192.091 Y195.927 E154.15632
G1 X191.114 Y196.206 E154.19535
G1 X190.096 Y196.329 E154.23474
G1 X46.274 Y196.347 E159.75973
G1 X20.173 Y196.346 E160.76241
G1 X19.388 Y196.289 E160.79265
G1 X18.417 Y196.093 E160.8307
G1 X17.46 Y195.743 E160.86985
G1 X16.572 Y195.249 E160.90888
G1 X15.765 Y194.614 E160.94833
G1 X15.072 Y193.868 E160.98745
G1 X14.502 Y193.019 E161.02673
G1 X14.072 Y192.091 E161.06602
G1 X13.794 Y191.113 E161.10508
G1 X13.671 Y190.099 E161.14432
G1 X13.653 Y152.75 E162.5791
G1 X13.653 Y46.274 E166.66942
G1 X13.654 Y20.173 E167.6721
G1 X13.711 Y19.388 E167.70234
G1 X13.906 Y18.421 E167.74023
G1 X14.257 Y17.46 E167.77954
G1 X14.751 Y16.572 E167.81857
G1 X15.386 Y15.765 E167.85802
M204 S3000
M205 X10 Y10
G0 F1800 X15.82 Y16.118
M204 S1800
M205 X8 Y8
G1 F2400 X16.506 Y15.489 E167.89377
G1 X17.285 Y14.972 E167.92969
G1 X18.135 Y14.585 E167.96557
G1 X19.03 Y14.335 E168.00127
G1 X19.961 Y14.228 E168.03727
G1 X46.273 Y14.214 E169.04805
G1 X189.827 Y14.213 E174.56275
G1 X190.569 Y14.27 E174.59134
G1 X191.465 Y14.455 E174.62648
G1 X192.339 Y14.78 E174.6623
G1 X193.147 Y15.236 E174.69794
G1 X193.882 Y15.82 E174.73401
G1 X194.511 Y16.506 E174.76976
G1 X195.028 Y17.285 E174.80568
G1 X195.415 Y18.133 E174.84149
G1 X195.665 Y19.031 E174.8773
G1 X195.772 Y19.959 E174.91318
G1 X195.787 Y163.726 E180.43606
G1 X195.786 Y189.827 E181.43874
G1 X195.73 Y190.568 E181.46728
G1 X195.546 Y191.462 E181.50235
G1 X195.22 Y192.339 E181.53829
G1 X194.764 Y193.147 E181.57393
G1 X194.18 Y193.882 E181.61
G1 X193.494 Y194.511 E181.64575
G1 X192.715 Y195.028 E181.68167
G1 X191.865 Y195.415 E181.71754
G1 X190.97 Y195.665 E181.75324
G1 X190.039 Y195.772 E181.78924
G1 X46.274 Y195.787 E187.31204
G1 X20.173 Y195.786 E188.31472
G1 X19.432 Y195.73 E188.34327
G1 X18.535 Y195.545 E188.37845
G1 X17.661 Y195.22 E188.41427
G1 X16.853 Y194.764 E188.44992
G1 X16.118 Y194.18 E188.48598
G1 X15.489 Y193.494 E188.52173
G1 X14.972 Y192.715 E188.55765
G1 X14.584 Y191.864 E188.59358
G1 X14.335 Y190.969 E188.62927
G1 X14.228 Y190.041 E188.66515
G1 X14.213 Y152.75 E190.0977
G1 X14.213 Y46.274 E194.18803
G1 X14.214 Y20.173 E195.19071
G1 X14.27 Y19.432 E195.21926
G1 X14.454 Y18.538 E195.25432
G1 X14.78 Y17.661 E195.29026
G1 X15.236 Y16.853 E195.3259
G1 X15.82 Y16.118 E195.36197
M204 S3000
M205 X10 Y10
G0 F1800 X16.255 Y16.471
M204 S1800
M205 X8 Y8
G1 F2400 X16.88 Y15.906 E195.39433
G1 X17.59 Y15.442 E195.42692
G1 X18.362 Y15.097 E195.4594
G1 X19.175 Y14.876 E195.49176
G1 X20.019 Y14.785 E195.52437
G1 X46.273 Y14.774 E196.53293
G1 X189.827 Y14.773 E202.04763
G1 X190.524 Y14.828 E202.07449
G1 X191.348 Y15.002 E202.10684
G1 X192.138 Y15.303 E202.13931
G1 X192.866 Y15.721 E202.17156
G1 X193.529 Y16.255 E202.20427
G1 X194.094 Y16.88 E202.23663
G1 X194.558 Y17.59 E202.26921
G1 X194.903 Y18.36 E202.30163
G1 X195.124 Y19.175 E202.33407
G1 X195.215 Y20.017 E202.3666
G1 X195.227 Y163.726 E207.88725
G1 X195.226 Y189.827 E208.88993
G1 X195.172 Y190.524 E208.91679
G1 X194.999 Y191.345 E208.94902
G1 X194.697 Y192.138 E208.98162
G1 X194.279 Y192.866 E209.01386
G1 X193.745 Y193.529 E209.04657
G1 X193.12 Y194.094 E209.07893
G1 X192.41 Y194.558 E209.11152
G1 X191.638 Y194.903 E209.144
G1 X190.825 Y195.124 E209.17636
G1 X189.981 Y195.215 E209.20898
G1 X46.274 Y195.227 E214.72955
G1 X20.173 Y195.226 E215.73223
G1 X19.476 Y195.172 E215.75908
G1 X18.652 Y194.998 E215.79144
G1 X17.862 Y194.697 E215.82391
G1 X17.134 Y194.279 E215.85616
G1 X16.471 Y193.745 E215.88886
G1 X15.906 Y193.12 E215.92123
G1 X15.442 Y192.41 E215.95381
G1 X15.096 Y191.637 E215.98635
G1 X14.876 Y190.825 E216.01866
G1 X14.785 Y189.983 E216.0512
G1 X14.773 Y152.75 E217.48152
G1 X14.773 Y46.274 E221.57185
G1 X14.774 Y20.173 E222.57453
G1 X14.828 Y19.476 E222.60138
G1 X15.001 Y18.655 E222.63362
G1 X15.303 Y17.862 E222.66621
G1 X15.721 Y17.134 E222.69846
G1 X16.255 Y16.471 E222.73116
M204 S3000
M205 X10 Y10
G1 F2400 E216.73116
;MESH:Cluster-Raspberry-2.0 (3).stl
G0 F1800 X17.097 Y17.241
G0 X17.658 Y20.587
G0 X18.317 Y20.588
M204 S1800
M205 X8 Y8
;TYPE:WALL-OUTER
G1 F2400 E222.73116
G1 F900 X18.5 Y21.095 E222.75187
G1 X18.813 Y21.514 E222.77196
G1 X19.232 Y21.826 E222.79203
G1 X19.724 Y22.002 E222.8121
G1 X20.251 Y22.026 E222.83237
G1 X20.755 Y21.9 E222.85233
G1 X21.208 Y21.628 E222.87263
G1 X21.559 Y21.239 E222.89275
G1 X21.782 Y20.764 E222.91291
G1 X21.857 Y20.25 E222.93287
G1 X21.78 Y19.729 E222.9531
G1 X21.556 Y19.257 E222.97317
G1 X21.204 Y18.87 E222.99327
G1 X20.752 Y18.599 E223.01351
G1 X20.234 Y18.472 E223.034
G1 X19.683 Y18.507 E223.05521
G1 X19.171 Y18.711 E223.07638
G1 X18.809 Y18.99 E223.09394
G1 X18.497 Y19.408 E223.11398
