;FLAVOR:Marlin
;TIME:25917
;Filament used: 17.2423m
;Layer height: 0.18
;MINX:35.805
;MINY:10.398
;MINZ:0.15
;MAXX:174.195
;MAXY:148.78
;MAXZ:3.465
;Generated with Cura_SteamEngine 4.5.0
M140 S60
M105
M190 S60
M104 S200
M105
M109 S200
M82 ;absolute extrusion mode
G21 ;metric values
G90 ;absolute positioning
M82 ;set extruder to absolute mode
M107 ;start with the fan off
G28 X0 Y0 ;move X/Y to min endstops
G28 Z0 ;move Z to min endstops
G1 Z15.0 F100 ;move the platform down 15mm
G92 E0 ;zero the extruded length
G1 F200 E3 ;extrude 3mm of feed stock
G92 E0 ;zero the extruded length again
G1 F100
G0 Y20 F100
M117 Printing...
G5
G92 E0
G92 E0
G1 F2400 E-6
;LAYER_COUNT:19
;LAYER:0
M106 S255
M204 S3000
M205 X10 Y10
G1 F600 Z0.225
G0 F1800 X51.381 Y35.847 Z0.225
M204 S1800
M205 X8 Y8
;TYPE:SKIRT
G1 F600 Z0.15
G1 F2400 E0
G1 X55.832 Y30.905 E0.2555
G1 X60.834 Y26.327 E0.51598
G1 X66.268 Y22.252 E0.77691
G1 X72.075 Y18.733 E1.03775
G1 X78.197 Y15.8 E1.29853
G1 X84.579 Y13.48 E1.55939
G1 X91.155 Y11.796 E1.82016
G1 X97.869 Y10.766 E2.0811
G1 X104.647 Y10.398 E2.34187
G1 X105.058 Y10.398 E2.35765
G1 X111.428 Y10.695 E2.60263
G1 X118.154 Y11.657 E2.86364
G1 X124.746 Y13.274 E3.12438
G1 X131.282 Y15.576 E3.39058
G1 X137.437 Y18.463 E3.65175
G1 X143.27 Y21.935 E3.91252
G1 X148.738 Y25.966 E4.17348
G1 X153.782 Y30.51 E4.43428
G1 X158.264 Y35.425 E4.68981
G1 X162.332 Y40.851 E4.95033
G1 X165.923 Y46.778 E5.21655
G1 X168.848 Y52.915 E5.47771
G1 X171.155 Y59.302 E5.73859
G1 X172.825 Y65.882 E5.99937
G1 X173.842 Y72.597 E6.26028
G1 X174.195 Y79.378 E6.52112
G1 X173.89 Y86.022 E6.77662
G1 X172.907 Y92.875 E7.04258
G1 X171.275 Y99.474 E7.30372
G1 X169.006 Y105.873 E7.56454
G1 X166.122 Y112.021 E7.82541
G1 X162.65 Y117.855 E8.08621
G1 X158.619 Y123.323 E8.34718
G1 X154.168 Y128.265 E8.60268
G1 X149.064 Y132.936 E8.86846
G1 X143.724 Y136.923 E9.12447
G1 X137.807 Y140.508 E9.39024
G1 X131.67 Y143.433 E9.65141
G1 X125.283 Y145.74 E9.91228
G1 X118.837 Y147.376 E10.16776
G1 X111.995 Y148.425 E10.43367
G1 X105.206 Y148.78 E10.69483
G1 X98.424 Y148.467 E10.95564
G1 X91.702 Y147.491 E11.21657
G1 X85.111 Y145.86 E11.47741
G1 X78.71 Y143.59 E11.73831
G1 X72.564 Y140.707 E11.9991
G1 X66.848 Y137.306 E12.25461
G1 X61.379 Y133.292 E12.51522
G1 X56.222 Y128.663 E12.78143
G1 X51.642 Y123.642 E13.0425
G1 X47.58 Y118.198 E13.30344
G1 X44.072 Y112.385 E13.56426
G1 X41.151 Y106.253 E13.82518
G1 X38.845 Y99.868 E14.08597
G1 X37.175 Y93.288 E14.34676
G1 X36.158 Y86.571 E14.60774
G1 X35.805 Y79.792 E14.86851
G1 X36.11 Y73.148 E15.12401
G1 X37.093 Y66.295 E15.38997
G1 X38.725 Y59.696 E15.65111
G1 X40.994 Y53.297 E15.91192
G1 X43.878 Y47.149 E16.1728
G1 X47.35 Y41.315 E16.4336
G1 X51.381 Y35.847 E16.69456
M204 S3000
M205 X10 Y10
G0 F1800 X51.83 Y36.181
M204 S1800
M205 X8 Y8
G1 F2400 X56.247 Y31.282 E16.94796
G1 X61.211 Y26.741 E17.20641
G1 X66.603 Y22.701 E17.46524
G1 X72.364 Y19.213 E17.72395
G1 X78.437 Y16.306 E17.9826
G1 X84.768 Y14.006 E18.24136
G1 X91.292 Y12.339 E18.50003
G1 X97.953 Y11.319 E18.7589
G1 X104.676 Y10.958 E19.01754
G1 X105.032 Y10.957 E19.03122
G1 X111.402 Y11.254 E19.27619
G1 X118.073 Y12.211 E19.53508
G1 X124.611 Y13.817 E19.79371
G1 X131.094 Y16.103 E20.05778
G1 X137.197 Y18.969 E20.3168
G1 X142.982 Y22.416 E20.57549
G1 X148.404 Y26.415 E20.8343
G1 X153.406 Y30.925 E21.09303
G1 X157.849 Y35.802 E21.34647
G1 X161.883 Y41.186 E21.60492
G1 X165.444 Y47.067 E21.86903
G1 X168.342 Y53.154 E22.12801
G1 X170.628 Y59.49 E22.38677
G1 X172.282 Y66.018 E22.64547
G1 X173.288 Y72.679 E22.90426
G1 X173.636 Y79.405 E23.16298
G1 X173.331 Y85.995 E23.41641
G1 X172.353 Y92.794 E23.68029
G1 X170.732 Y99.338 E23.93928
G1 X168.479 Y105.684 E24.19797
G1 X165.616 Y111.782 E24.45676
G1 X162.169 Y117.567 E24.71545
G1 X158.17 Y122.989 E24.97427
G1 X153.753 Y127.888 E25.22766
G1 X148.687 Y132.522 E25.49141
G1 X143.391 Y136.474 E25.74526
G1 X137.518 Y140.028 E26.00897
G1 X131.431 Y142.927 E26.26797
G1 X125.095 Y145.213 E26.52673
G1 X118.7 Y146.833 E26.78016
G1 X111.912 Y147.871 E27.04395
G1 X105.179 Y148.221 E27.30295
G1 X98.451 Y147.908 E27.56169
G1 X91.784 Y146.937 E27.82051
G1 X85.247 Y145.317 E28.07923
G1 X78.898 Y143.063 E28.33804
G1 X72.803 Y140.201 E28.59671
G1 X67.136 Y136.825 E28.85012
G1 X61.712 Y132.841 E29.10865
G1 X56.598 Y128.248 E29.37271
G1 X52.057 Y123.266 E29.63167
G1 X48.029 Y117.864 E29.89053
G1 X44.553 Y112.097 E30.1492
G1 X41.657 Y106.014 E30.40801
G1 X39.372 Y99.679 E30.66672
G1 X37.718 Y93.152 E30.92538
G1 X36.712 Y86.489 E31.18425
G1 X36.364 Y79.765 E31.4429
G1 X36.669 Y73.175 E31.69633
G1 X37.647 Y66.376 E31.9602
G1 X39.268 Y59.832 E32.21919
G1 X41.521 Y53.486 E32.47788
G1 X44.384 Y47.388 E32.73667
G1 X47.831 Y41.603 E32.99537
G1 X51.83 Y36.181 E33.25418
M204 S3000
M205 X10 Y10
G0 F1800 X52.28 Y36.514
M204 S1800
M205 X8 Y8
G1 F2400 X56.662 Y31.658 E33.50545
G1 X61.588 Y27.155 E33.76183
G1 X66.938 Y23.15 E34.01857
G1 X72.652 Y19.692 E34.27514
G1 X78.678 Y16.811 E34.53173
G1 X84.958 Y14.533 E34.78836
G1 X91.429 Y12.882 E35.04491
G1 X98.036 Y11.873 E35.30166
G1 X104.705 Y11.517 E35.55822
G1 X105.005 Y11.516 E35.56974
G1 X111.375 Y11.813 E35.81471
G1 X117.992 Y12.765 E36.07153
G1 X124.476 Y14.361 E36.32805
G1 X130.907 Y16.631 E36.59004
G1 X136.958 Y19.476 E36.8469
G1 X142.694 Y22.896 E37.10344
G1 X148.071 Y26.865 E37.36018
G1 X153.03 Y31.34 E37.61678
G1 X157.434 Y36.178 E37.86811
G1 X161.434 Y41.521 E38.12451
G1 X164.964 Y47.355 E38.38646
G1 X167.835 Y53.394 E38.64333
G1 X170.101 Y59.679 E38.89998
G1 X171.739 Y66.154 E39.15656
G1 X172.734 Y72.761 E39.41323
G1 X173.076 Y79.433 E39.66988
G1 X172.771 Y85.968 E39.92119
G1 X171.799 Y92.713 E40.18298
G1 X170.189 Y99.202 E40.43982
G1 X167.952 Y105.496 E40.69642
G1 X165.109 Y111.542 E40.95308
G1 X161.689 Y117.279 E41.20966
G1 X157.72 Y122.656 E41.4664
G1 X153.338 Y127.512 E41.71767
G1 X148.31 Y132.108 E41.97935
G1 X143.057 Y136.024 E42.23105
G1 X137.23 Y139.549 E42.49267
G1 X131.191 Y142.42 E42.74955
G1 X124.906 Y144.686 E43.0062
G1 X118.564 Y146.29 E43.2575
G1 X111.828 Y147.318 E43.51927
G1 X105.151 Y147.661 E43.7761
G1 X98.479 Y147.348 E44.03269
G1 X91.866 Y146.383 E44.28943
G1 X85.383 Y144.774 E44.54603
G1 X79.087 Y142.536 E44.80272
G1 X73.043 Y139.694 E45.05929
G1 X67.424 Y136.345 E45.31058
G1 X62.045 Y132.391 E45.56703
G1 X56.973 Y127.832 E45.82902
G1 X52.472 Y122.89 E46.08581
G1 X48.479 Y117.531 E46.34254
G1 X45.033 Y111.809 E46.59914
G1 X42.164 Y105.774 E46.85584
G1 X39.899 Y99.491 E47.11241
G1 X38.261 Y93.016 E47.36898
G1 X37.266 Y86.407 E47.62573
G1 X36.924 Y79.737 E47.8823
G1 X37.229 Y73.202 E48.13362
G1 X38.201 Y66.457 E48.39541
G1 X39.811 Y59.968 E48.65224
G1 X42.048 Y53.674 E48.90885
G1 X44.891 Y47.628 E49.1655
G1 X48.311 Y41.891 E49.42208
G1 X52.28 Y36.514 E49.67882
M204 S3000
M205 X10 Y10
G0 F1800 X52.73 Y36.848
M204 S1800
M205 X8 Y8
G1 F2400 X57.077 Y32.034 E49.92799
G1 X61.965 Y27.569 E50.18231
G1 X67.272 Y23.599 E50.43692
G1 X72.941 Y20.172 E50.69139
G1 X78.918 Y17.317 E50.94585
G1 X85.148 Y15.06 E51.2004
G1 X91.566 Y13.425 E51.45483
G1 X98.119 Y12.427 E51.70947
G1 X104.733 Y12.076 E51.9639
G1 X111.349 Y12.373 E52.21832
G1 X117.911 Y13.32 E52.47301
G1 X124.341 Y14.904 E52.72741
G1 X130.719 Y17.159 E52.98728
G1 X136.718 Y19.982 E53.24198
G1 X142.406 Y23.376 E53.49643
G1 X147.737 Y27.315 E53.75106
G1 X152.653 Y31.755 E54.00553
G1 X157.019 Y36.554 E54.25477
G1 X160.985 Y41.855 E54.50909
G1 X164.484 Y47.644 E54.76895
G1 X167.329 Y53.633 E55.02366
G1 X169.574 Y59.868 E55.27823
G1 X171.195 Y66.291 E55.53271
G1 X172.18 Y72.843 E55.78724
G1 X172.517 Y79.46 E56.04176
G1 X172.212 Y85.94 E56.29097
G1 X171.244 Y92.632 E56.55072
G1 X169.645 Y99.065 E56.80537
G1 X167.425 Y105.307 E57.05987
G1 X164.603 Y111.303 E57.31445
G1 X161.209 Y116.991 E57.5689
G1 X157.27 Y122.322 E57.82353
G1 X152.923 Y127.136 E58.0727
G1 X147.933 Y131.694 E58.33232
G1 X142.723 Y135.574 E58.58187
G1 X136.941 Y139.069 E58.84142
G1 X130.952 Y141.914 E59.09612
G1 X124.717 Y144.159 E59.3507
G1 X118.428 Y145.746 E59.59987
G1 X111.745 Y146.764 E59.85956
G1 X105.124 Y147.102 E60.11424
G1 X98.506 Y146.789 E60.36876
G1 X91.948 Y145.829 E60.62337
G1 X85.52 Y144.23 E60.87783
G1 X79.276 Y142.009 E61.13242
G1 X73.282 Y139.188 E61.38691
G1 X67.712 Y135.865 E61.63607
G1 X62.377 Y131.94 E61.8905
G1 X57.348 Y127.416 E62.15036
G1 X52.887 Y122.513 E62.40501
G1 X48.929 Y117.197 E62.65961
G1 X45.513 Y111.521 E62.9141
G1 X42.67 Y105.535 E63.16867
G1 X40.426 Y99.302 E63.42316
G1 X38.805 Y92.879 E63.67764
G1 X37.82 Y86.325 E63.93224
G1 X37.483 Y79.71 E64.18669
G1 X37.788 Y73.23 E64.4359
G1 X38.756 Y66.538 E64.69565
G1 X40.355 Y60.105 E64.9503
G1 X42.575 Y53.863 E65.2048
G1 X45.397 Y47.867 E65.45938
G1 X48.791 Y42.179 E65.71383
G1 X52.73 Y36.848 E65.96846
M204 S3000
M205 X10 Y10
G0 F1800 X53.18 Y37.181
M204 S1800
M205 X8 Y8
G1 F2400 X57.492 Y32.41 E66.2155
G1 X62.342 Y27.983 E66.46776
G1 X67.607 Y24.048 E66.72027
G1 X73.23 Y20.652 E66.97262
G1 X79.158 Y17.823 E67.22495
G1 X85.338 Y15.587 E67.47741
G1 X91.704 Y13.968 E67.72975
G1 X98.203 Y12.981 E67.98228
G1 X104.762 Y12.636 E68.23459
G1 X111.323 Y12.932 E68.48689
G1 X117.83 Y13.874 E68.73947
G1 X124.206 Y15.448 E68.99176
G1 X130.531 Y17.686 E69.2495
G1 X136.479 Y20.488 E69.50208
G1 X142.119 Y23.857 E69.75445
G1 X147.404 Y27.765 E70.00695
G1 X152.277 Y32.17 E70.2593
G1 X156.604 Y36.93 E70.50642
G1 X160.536 Y42.19 E70.7587
G1 X164.004 Y47.933 E71.01642
G1 X166.823 Y53.872 E71.26897
G1 X169.046 Y60.057 E71.52145
G1 X170.652 Y66.427 E71.77382
G1 X171.626 Y72.925 E72.02623
G1 X171.958 Y79.488 E72.27867
G1 X171.653 Y85.913 E72.52577
G1 X170.69 Y92.551 E72.78344
G1 X169.102 Y98.929 E73.03593
G1 X166.897 Y105.118 E73.28833
G1 X164.097 Y111.064 E73.5408
G1 X160.728 Y116.704 E73.79318
G1 X156.82 Y121.989 E74.04568
G1 X152.508 Y126.76 E74.29272
G1 X147.556 Y131.28 E74.55029
G1 X142.39 Y135.124 E74.79765
G1 X136.652 Y138.589 E75.05515
G1 X130.713 Y141.408 E75.3077
G1 X124.528 Y143.631 E75.56018
G1 X118.292 Y145.203 E75.80723
G1 X111.662 Y146.21 E76.06485
G1 X105.096 Y146.543 E76.31741
G1 X98.534 Y146.23 E76.56978
G1 X92.03 Y145.275 E76.82231
G1 X85.656 Y143.687 E77.07466
G1 X79.465 Y141.481 E77.32713
G1 X73.521 Y138.682 E77.57953
G1 X68 Y135.384 E77.82658
G1 X62.71 Y131.49 E78.07891
G1 X57.724 Y127.001 E78.33665
G1 X53.302 Y122.137 E78.58917
G1 X49.379 Y116.864 E78.84165
G1 X45.994 Y111.234 E79.09401
G1 X43.176 Y105.296 E79.34651
G1 X40.954 Y99.113 E79.5989
G1 X39.348 Y92.743 E79.85127
G1 X38.374 Y86.243 E80.10375
G1 X38.042 Y79.682 E80.35612
G1 X38.347 Y73.257 E80.60322
G1 X39.31 Y66.619 E80.86089
G1 X40.898 Y60.241 E81.11338
G1 X43.103 Y54.052 E81.36577
G1 X45.903 Y48.106 E81.61825
G1 X49.272 Y42.466 E81.87063
G1 X53.18 Y37.181 E82.12313
M204 S3000
M205 X10 Y10
G0 F1800 X53.63 Y37.515
M204 S1800
M205 X8 Y8
G1 F2400 X57.907 Y32.786 E82.36807
G1 X62.719 Y28.398 E82.61825
G1 X67.941 Y24.497 E82.86865
G1 X73.519 Y21.132 E83.1189
G1 X79.399 Y18.329 E83.36914
G1 X85.528 Y16.114 E83.61949
G1 X91.841 Y14.511 E83.8697
G1 X98.286 Y13.535 E84.12011
G1 X104.79 Y13.195 E84.37031
G1 X111.297 Y13.492 E84.62054
G1 X117.749 Y14.428 E84.87099
G1 X124.071 Y15.991 E85.12116
G1 X130.344 Y18.214 E85.37683
G1 X136.24 Y20.994 E85.62724
G1 X141.831 Y24.337 E85.87748
G1 X147.07 Y28.215 E86.12788
G1 X151.901 Y32.585 E86.37813
G1 X156.189 Y37.306 E86.62313
G1 X160.087 Y42.524 E86.87334
G1 X163.524 Y48.222 E87.12897
G1 X166.317 Y54.112 E87.37939
G1 X168.519 Y60.245 E87.62971
G1 X170.109 Y66.563 E87.87999
G1 X171.072 Y73.008 E88.13033
G1 X171.398 Y79.515 E88.38061
G1 X171.093 Y85.885 E88.6256
G1 X170.136 Y92.47 E88.88122
G1 X168.559 Y98.793 E89.13156
G1 X166.37 Y104.93 E89.38186
G1 X163.591 Y110.824 E89.63219
G1 X160.248 Y116.416 E89.88247
G1 X156.37 Y121.655 E90.13287
G1 X152.093 Y126.384 E90.37781
G1 X147.179 Y130.865 E90.63329
G1 X142.056 Y134.674 E90.87853
G1 X136.363 Y138.109 E91.13395
G1 X130.473 Y140.902 E91.38437
G1 X124.34 Y143.104 E91.6347
G1 X118.156 Y144.66 E91.87966
G1 X111.578 Y145.656 E92.13524
G1 X105.069 Y145.983 E92.3856
G1 X98.561 Y145.67 E92.6359
G1 X92.113 Y144.721 E92.88627
G1 X85.792 Y143.144 E93.13654
G1 X79.653 Y140.954 E93.38693
G1 X73.761 Y138.176 E93.63717
G1 X68.287 Y134.904 E93.88216
G1 X63.042 Y131.039 E94.13244
G1 X58.099 Y126.585 E94.38804
G1 X53.717 Y121.761 E94.6384
G1 X49.829 Y116.53 E94.88878
G1 X46.474 Y110.946 E95.13903
G1 X43.682 Y105.056 E95.38944
G1 X41.481 Y98.925 E95.63968
G1 X39.891 Y92.607 E95.88995
G1 X38.928 Y86.16 E96.14037
G1 X38.602 Y79.655 E96.39057
G1 X38.907 Y73.285 E96.63556
G1 X39.864 Y66.7 E96.89118
G1 X41.441 Y60.377 E97.14152
G1 X43.63 Y54.24 E97.39183
G1 X46.409 Y48.346 E97.64215
G1 X49.752 Y42.754 E97.89243
G1 X53.63 Y37.515 E98.14283
M204 S3000
M205 X10 Y10
G0 F1800 X54.079 Y37.849
M204 S1800
M205 X8 Y8
G1 F2400 X58.322 Y33.162 E98.3857
G1 X63.096 Y28.812 E98.63381
G1 X68.276 Y24.946 E98.88212
G1 X73.808 Y21.611 E99.13026
G1 X79.639 Y18.834 E99.37837
G1 X85.717 Y16.641 E99.62659
G1 X91.978 Y15.054 E99.87472
G1 X98.369 Y14.088 E100.12302
G1 X104.819 Y13.754 E100.37113
G1 X111.271 Y14.051 E100.61925
G1 X117.668 Y14.982 E100.86758
G1 X123.936 Y16.535 E101.11565
G1 X130.156 Y18.742 E101.36919
G1 X136 Y21.501 E101.61745
G1 X141.543 Y24.817 E101.86558
G1 X146.736 Y28.664 E102.11385
G1 X151.525 Y33 E102.36203
G1 X155.774 Y37.682 E102.60491
G1 X159.638 Y42.859 E102.85308
G1 X163.045 Y48.511 E103.1066
G1 X165.81 Y54.351 E103.35482
G1 X167.992 Y60.434 E103.60308
G1 X169.566 Y66.699 E103.85123
G1 X170.518 Y73.09 E104.09945
G1 X170.839 Y79.543 E104.34765
G1 X170.534 Y85.858 E104.59053
G1 X169.582 Y92.389 E104.84407
G1 X168.016 Y98.657 E105.09226
G1 X165.843 Y104.741 E105.34044
G1 X163.084 Y110.585 E105.5887
G1 X159.768 Y116.128 E105.83683
G1 X155.921 Y121.321 E106.0851
G1 X151.678 Y126.008 E106.32798
G1 X146.802 Y130.451 E106.58139
G1 X141.722 Y134.225 E106.8245
G1 X136.074 Y137.63 E107.07785
G1 X130.234 Y140.395 E107.32607
G1 X124.151 Y142.577 E107.57433
G1 X118.02 Y144.117 E107.81717
G1 X111.495 Y145.103 E108.07068
G1 X105.041 Y145.424 E108.31892
G1 X98.589 Y145.111 E108.56707
G1 X92.195 Y144.167 E108.81536
G1 X85.928 Y142.601 E109.06351
G1 X79.842 Y140.427 E109.31177
G1 X74 Y137.669 E109.55995
G1 X68.575 Y134.424 E109.80279
G1 X63.375 Y130.589 E110.051
G1 X58.474 Y126.169 E110.30453
G1 X54.132 Y121.385 E110.55272
G1 X50.278 Y116.196 E110.80102
G1 X46.954 Y110.658 E111.04915
G1 X44.189 Y104.817 E111.2974
G1 X42.008 Y98.736 E111.54558
G1 X40.434 Y92.471 E111.79373
G1 X39.482 Y86.078 E112.04203
G1 X39.161 Y79.627 E112.29015
G1 X39.466 Y73.312 E112.53303
G1 X40.418 Y66.781 E112.78657
G1 X41.984 Y60.513 E113.03476
G1 X44.157 Y54.429 E113.28294
G1 X46.916 Y48.585 E113.5312
G1 X50.232 Y43.042 E113.77934
G1 X54.079 Y37.849 E114.0276
M204 S3000
M205 X10 Y10
G0 F1800 X54.529 Y38.182
M204 S1800
M205 X8 Y8
G1 F2400 X58.737 Y33.538 E114.26835
G1 X63.473 Y29.226 E114.5144
G1 X68.611 Y25.395 E114.7606
G1 X74.097 Y22.091 E115.00662
G1 X79.88 Y19.34 E115.25263
G1 X85.907 Y17.168 E115.49874
G1 X92.115 Y15.597 E115.74474
G1 X98.452 Y14.642 E115.99093
G1 X104.848 Y14.313 E116.23696
G1 X111.245 Y14.61 E116.48297
G1 X117.587 Y15.536 E116.72918
G1 X123.801 Y17.078 E116.97513
G1 X129.969 Y19.269 E117.22658
G1 X135.761 Y22.007 E117.4727
G1 X141.255 Y25.298 E117.71872
G1 X146.403 Y29.114 E117.96489
G1 X151.149 Y33.415 E118.21094
G1 X155.359 Y38.058 E118.45171
G1 X159.189 Y43.194 E118.69783
G1 X162.565 Y48.8 E118.94922
G1 X165.304 Y54.59 E119.19528
G1 X167.465 Y60.623 E119.44146
G1 X169.023 Y66.835 E119.68748
G1 X169.964 Y73.172 E119.93359
G1 X170.28 Y79.57 E120.17967
G1 X169.975 Y85.831 E120.42048
G1 X169.028 Y92.308 E120.67194
G1 X167.473 Y98.521 E120.91798
G1 X165.316 Y104.552 E121.16403
G1 X162.578 Y110.346 E121.41021
G1 X159.287 Y115.84 E121.65624
G1 X155.471 Y120.988 E121.90241
G1 X151.263 Y125.632 E122.14315
G1 X146.425 Y130.037 E122.3945
G1 X141.389 Y133.775 E122.63543
G1 X135.785 Y137.15 E122.88674
G1 X129.995 Y139.889 E123.1328
G1 X123.962 Y142.05 E123.37898
G1 X117.884 Y143.574 E123.61969
G1 X111.412 Y144.549 E123.87112
G1 X105.014 Y144.865 E124.11721
