;FLAVOR:Marlin
;TIME:2392
;Filament used: 0.927205m
;Layer height: 0.1
;MINX:89.95
;MINY:14.172
;MINZ:0.15
;MAXX:120.05
;MAXY:63.172
;MAXZ:4.95
;Generated with Cura_SteamEngine 4.5.0
M140 S60
M105
M190 S60
M104 S200
M105
M109 S200
M82 ;absolute extrusion mode
G21 ;metric values
G90 ;absolute positioning
M82 ;set extruder to absolute mode
M107 ;start with the fan off
G28 X0 Y0 ;move X/Y to min endstops
G28 Z0 ;move Z to min endstops
G1 Z15.0 F100 ;move the platform down 15mm
G92 E0 ;zero the extruded length
G1 F200 E3 ;extrude 3mm of feed stock
G92 E0 ;zero the extruded length again
G1 F100
G0 Y20 F100
M117 Printing...
G5
G92 E0
G92 E0
G1 F2400 E-6
;LAYER_COUNT:49
;LAYER:0
M106 S255
M204 S3000
M205 X10 Y10
G1 F600 Z0.225
G0 F1800 X89.99 Y17.794 Z0.225
M204 S1800
M205 X8 Y8
;TYPE:SKIRT
G1 F600 Z0.15
G1 F2400 E0
G1 X90.109 Y17.227 E0.02226
G1 X90.305 Y16.682 E0.04451
G1 X90.574 Y16.169 E0.06676
G1 X90.911 Y15.698 E0.08901
G1 X91.31 Y15.278 E0.11126
G1 X91.763 Y14.916 E0.13354
G1 X92.261 Y14.621 E0.15577
G1 X92.795 Y14.396 E0.17803
G1 X93.355 Y14.248 E0.20028
G1 X94.15 Y14.172 E0.23096
G1 X102.133 Y14.172 E0.53763
G1 X102.711 Y14.212 E0.55989
G1 X103.278 Y14.331 E0.58215
G1 X103.823 Y14.527 E0.6044
G1 X104.336 Y14.796 E0.62665
G1 X104.807 Y15.133 E0.6489
G1 X104.995 Y15.312 E0.65887
G1 X105.48 Y14.916 E0.68292
G1 X105.978 Y14.621 E0.70516
G1 X106.512 Y14.396 E0.72742
G1 X107.072 Y14.248 E0.74967
G1 X107.867 Y14.172 E0.78035
G1 X115.85 Y14.172 E1.08702
G1 X116.428 Y14.212 E1.10928
G1 X116.995 Y14.331 E1.13153
G1 X117.54 Y14.527 E1.15378
G1 X118.053 Y14.796 E1.17603
G1 X118.524 Y15.133 E1.19828
G1 X118.944 Y15.532 E1.22054
G1 X119.306 Y15.985 E1.24281
G1 X119.601 Y16.483 E1.26505
G1 X119.826 Y17.017 E1.28731
G1 X119.974 Y17.577 E1.30956
G1 X120.05 Y18.372 E1.34024
G1 X120.05 Y24.672 E1.58226
G1 X120.01 Y25.25 E1.60451
G1 X119.891 Y25.817 E1.62677
G1 X119.695 Y26.362 E1.64902
G1 X119.426 Y26.875 E1.67127
G1 X119.089 Y27.346 E1.69352
G1 X118.69 Y27.766 E1.71577
G1 X118.3 Y28.078 E1.73496
G1 X118.3 Y49.273 E2.54918
G1 X118.524 Y49.433 E2.55975
G1 X118.944 Y49.832 E2.58201
G1 X119.306 Y50.285 E2.60428
G1 X119.601 Y50.783 E2.62652
G1 X119.826 Y51.317 E2.64878
G1 X119.974 Y51.877 E2.67103
G1 X120.05 Y52.672 E2.70171
G1 X120.05 Y58.972 E2.94373
G1 X120.01 Y59.55 E2.96598
G1 X119.891 Y60.117 E2.98824
G1 X119.695 Y60.662 E3.01049
G1 X119.426 Y61.175 E3.03274
G1 X119.089 Y61.646 E3.05499
G1 X118.69 Y62.066 E3.07724
G1 X118.237 Y62.428 E3.09952
G1 X117.739 Y62.723 E3.12175
G1 X117.205 Y62.948 E3.14401
G1 X116.645 Y63.096 E3.16627
G1 X115.85 Y63.172 E3.19695
G1 X110.734 Y63.172 E3.39348
G1 X110.156 Y63.132 E3.41574
G1 X109.589 Y63.013 E3.43799
G1 X109.044 Y62.817 E3.46024
G1 X108.531 Y62.548 E3.48249
G1 X108.06 Y62.211 E3.50474
G1 X107.64 Y61.812 E3.527
G1 X107.278 Y61.359 E3.54927
G1 X106.983 Y60.861 E3.57151
G1 X106.758 Y60.327 E3.59377
G1 X106.61 Y59.767 E3.61602
G1 X106.573 Y59.375 E3.63115
G1 X103.437 Y59.375 E3.75162
G1 X103.306 Y60.117 E3.78056
G1 X103.11 Y60.662 E3.80281
G1 X102.841 Y61.175 E3.82506
G1 X102.504 Y61.646 E3.84731
G1 X102.105 Y62.066 E3.86957
G1 X101.652 Y62.428 E3.89184
G1 X101.154 Y62.723 E3.91408
G1 X100.62 Y62.948 E3.93634
G1 X100.06 Y63.096 E3.95859
G1 X99.265 Y63.172 E3.98927
G1 X94.15 Y63.172 E4.18576
G1 X93.572 Y63.132 E4.20802
G1 X93.005 Y63.013 E4.23028
G1 X92.46 Y62.817 E4.25253
G1 X91.947 Y62.548 E4.27478
G1 X91.476 Y62.211 E4.29703
G1 X91.056 Y61.812 E4.31928
G1 X90.694 Y61.359 E4.34156
G1 X90.399 Y60.861 E4.36379
G1 X90.174 Y60.327 E4.38605
G1 X90.026 Y59.767 E4.4083
G1 X89.95 Y58.972 E4.43898
G1 X89.95 Y52.672 E4.681
G1 X89.99 Y52.094 E4.70326
G1 X90.109 Y51.527 E4.72551
G1 X90.305 Y50.982 E4.74776
G1 X90.574 Y50.469 E4.77002
G1 X90.911 Y49.998 E4.79226
G1 X91.31 Y49.578 E4.81452
G1 X91.7 Y49.266 E4.8337
G1 X91.7 Y28.071 E5.64792
G1 X91.476 Y27.911 E5.65849
G1 X91.056 Y27.512 E5.68075
G1 X90.694 Y27.059 E5.70303
G1 X90.399 Y26.561 E5.72526
G1 X90.174 Y26.027 E5.74752
G1 X90.026 Y25.467 E5.76977
G1 X89.95 Y24.672 E5.80045
G1 X89.95 Y18.372 E6.04247
G1 X89.99 Y17.794 E6.06473
M204 S3000
M205 X10 Y10
G0 F1800 X90.55 Y17.834
M204 S1800
M205 X8 Y8
G1 F2400 X90.669 Y17.308 E6.08544
G1 X90.864 Y16.806 E6.10613
G1 X91.132 Y16.337 E6.12688
G1 X91.465 Y15.914 E6.14756
G1 X91.858 Y15.544 E6.1683
G1 X92.301 Y15.237 E6.189
G1 X92.785 Y14.998 E6.20974
G1 X93.298 Y14.833 E6.23044
G1 X93.83 Y14.746 E6.25115
G1 X102.133 Y14.732 E6.57011
G1 X102.671 Y14.772 E6.59084
G1 X103.197 Y14.891 E6.61156
G1 X103.699 Y15.086 E6.63225
G1 X104.168 Y15.354 E6.653
G1 X104.591 Y15.687 E6.67368
G1 X104.961 Y16.08 E6.69441
G1 X105.003 Y16.141 E6.69726
G1 X105.182 Y15.914 E6.70836
G1 X105.575 Y15.544 E6.7291
G1 X106.018 Y15.237 E6.7498
G1 X106.502 Y14.998 E6.77054
G1 X107.015 Y14.833 E6.79124
G1 X107.547 Y14.746 E6.81195
G1 X115.85 Y14.732 E7.13091
G1 X116.388 Y14.772 E7.15164
G1 X116.914 Y14.891 E7.17236
G1 X117.416 Y15.086 E7.19304
G1 X117.885 Y15.354 E7.21379
G1 X118.308 Y15.687 E7.23448
G1 X118.678 Y16.08 E7.25521
G1 X118.985 Y16.523 E7.27592
G1 X119.224 Y17.007 E7.29665
G1 X119.389 Y17.52 E7.31735
G1 X119.476 Y18.052 E7.33806
G1 X119.49 Y24.672 E7.59237
G1 X119.45 Y25.21 E7.6131
G1 X119.331 Y25.736 E7.63381
G1 X119.136 Y26.238 E7.6545
G1 X118.868 Y26.707 E7.67525
G1 X118.535 Y27.13 E7.69594
G1 X118.142 Y27.5 E7.71667
G1 X117.74 Y27.779 E7.73547
G1 X117.74 Y49.571 E8.57262
G1 X118.308 Y49.987 E8.59966
G1 X118.678 Y50.38 E8.6204
G1 X118.985 Y50.823 E8.6411
G1 X119.224 Y51.307 E8.66184
G1 X119.389 Y51.82 E8.68254
G1 X119.476 Y52.352 E8.70325
G1 X119.49 Y58.972 E8.95756
G1 X119.45 Y59.51 E8.97829
G1 X119.331 Y60.036 E8.999
G1 X119.136 Y60.538 E9.01969
G1 X118.868 Y61.007 E9.04044
G1 X118.535 Y61.43 E9.06112
G1 X118.142 Y61.8 E9.08186
G1 X117.699 Y62.107 E9.10256
G1 X117.215 Y62.346 E9.1233
G1 X116.702 Y62.511 E9.144
G1 X116.17 Y62.598 E9.16471
G1 X110.734 Y62.612 E9.37354
G1 X110.196 Y62.572 E9.39426
G1 X109.67 Y62.453 E9.41498
G1 X109.168 Y62.258 E9.43567
G1 X108.699 Y61.99 E9.45642
G1 X108.276 Y61.657 E9.4771
G1 X107.906 Y61.264 E9.49784
G1 X107.599 Y60.821 E9.51854
G1 X107.36 Y60.337 E9.53928
G1 X107.195 Y59.824 E9.55998
G1 X107.108 Y59.292 E9.58069
G1 X107.094 Y58.815 E9.59902
G1 X102.905 Y58.815 E9.75994
G1 X102.865 Y59.51 E9.78668
G1 X102.746 Y60.036 E9.8074
G1 X102.551 Y60.538 E9.82809
G1 X102.283 Y61.007 E9.84884
G1 X101.95 Y61.43 E9.86952
G1 X101.557 Y61.8 E9.89026
G1 X101.114 Y62.107 E9.91096
G1 X100.63 Y62.346 E9.9317
G1 X100.117 Y62.511 E9.9524
G1 X99.585 Y62.598 E9.97311
G1 X94.15 Y62.612 E10.1819
G1 X93.612 Y62.572 E10.20262
G1 X93.086 Y62.453 E10.22334
G1 X92.584 Y62.258 E10.24403
G1 X92.115 Y61.99 E10.26478
G1 X91.692 Y61.657 E10.28546
G1 X91.322 Y61.264 E10.30619
G1 X91.015 Y60.821 E10.3269
G1 X90.776 Y60.337 E10.34764
G1 X90.611 Y59.824 E10.36834
G1 X90.524 Y59.292 E10.38905
G1 X90.51 Y52.672 E10.64336
G1 X90.55 Y52.134 E10.66408
G1 X90.669 Y51.608 E10.6848
G1 X90.864 Y51.106 E10.70549
G1 X91.132 Y50.637 E10.72624
G1 X91.465 Y50.214 E10.74692
G1 X91.858 Y49.844 E10.76765
G1 X92.26 Y49.565 E10.78645
G1 X92.26 Y27.773 E11.6236
G1 X91.692 Y27.357 E11.65065
G1 X91.322 Y26.964 E11.67138
G1 X91.015 Y26.521 E11.69209
G1 X90.776 Y26.037 E11.71282
G1 X90.611 Y25.524 E11.73353
G1 X90.524 Y24.992 E11.75423
G1 X90.51 Y18.372 E12.00855
G1 X90.55 Y17.834 E12.02927
M204 S3000
M205 X10 Y10
G0 F1800 X91.11 Y17.878
M204 S1800
M205 X8 Y8
G1 F2400 X91.229 Y17.396 E12.04834
G1 X91.423 Y16.94 E12.06738
G1 X91.688 Y16.521 E12.08642
G1 X92.018 Y16.15 E12.1055
G1 X92.402 Y15.836 E12.12455
G1 X92.832 Y15.588 E12.14362
G1 X93.295 Y15.413 E12.16264
G1 X93.782 Y15.314 E12.18173
G1 X102.133 Y15.292 E12.50254
G1 X103.109 Y15.451 E12.54052
G1 X103.565 Y15.645 E12.55956
G1 X103.984 Y15.91 E12.57861
G1 X104.355 Y16.24 E12.59768
G1 X104.669 Y16.624 E12.61674
G1 X104.917 Y17.054 E12.63581
G1 X104.999 Y17.271 E12.64472
G1 X105.14 Y16.94 E12.65854
G1 X105.405 Y16.521 E12.67758
G1 X105.735 Y16.15 E12.69666
G1 X106.119 Y15.836 E12.71571
G1 X106.549 Y15.588 E12.73478
G1 X107.012 Y15.413 E12.7538
G1 X107.499 Y15.314 E12.77289
G1 X115.85 Y15.292 E13.0937
G1 X116.344 Y15.332 E13.11274
G1 X116.826 Y15.451 E13.13181
G1 X117.282 Y15.645 E13.15084
G1 X117.701 Y15.91 E13.16989
G1 X118.072 Y16.24 E13.18896
G1 X118.386 Y16.624 E13.20802
G1 X118.634 Y17.054 E13.22709
G1 X118.809 Y17.517 E13.2461
G1 X118.908 Y18.004 E13.26519
G1 X118.93 Y24.672 E13.52135
G1 X118.89 Y25.166 E13.54039
G1 X118.771 Y25.648 E13.55946
G1 X118.577 Y26.104 E13.5785
G1 X118.312 Y26.523 E13.59754
G1 X117.982 Y26.894 E13.61662
G1 X117.598 Y27.208 E13.63567
G1 X117.18 Y27.449 E13.65421
G1 X117.18 Y49.902 E14.51675
G1 X117.701 Y50.21 E14.54
G1 X118.072 Y50.54 E14.55908
G1 X118.386 Y50.924 E14.57813
G1 X118.634 Y51.354 E14.5972
G1 X118.809 Y51.817 E14.61621
G1 X118.908 Y52.304 E14.63531
G1 X118.93 Y58.972 E14.89146
G1 X118.89 Y59.466 E14.9105
G1 X118.771 Y59.948 E14.92957
G1 X118.577 Y60.404 E14.94861
G1 X118.312 Y60.823 E14.96765
G1 X117.982 Y61.194 E14.98673
G1 X117.598 Y61.508 E15.00578
G1 X117.168 Y61.756 E15.02485
G1 X116.705 Y61.931 E15.04387
G1 X116.218 Y62.03 E15.06296
G1 X110.734 Y62.052 E15.27363
G1 X110.24 Y62.012 E15.29267
G1 X109.758 Y61.893 E15.31174
G1 X109.302 Y61.699 E15.33078
G1 X108.883 Y61.434 E15.34982
G1 X108.512 Y61.104 E15.3689
G1 X108.198 Y60.72 E15.38795
G1 X107.95 Y60.29 E15.40702
G1 X107.775 Y59.827 E15.42604
G1 X107.676 Y59.34 E15.44513
G1 X107.654 Y58.255 E15.48682
G1 X102.345 Y58.255 E15.69077
G1 X102.345 Y58.972 E15.71831
G1 X102.305 Y59.466 E15.73735
G1 X102.186 Y59.948 E15.75642
G1 X101.992 Y60.404 E15.77546
G1 X101.727 Y60.823 E15.7945
G1 X101.397 Y61.194 E15.81358
G1 X101.013 Y61.508 E15.83263
G1 X100.583 Y61.756 E15.8517
G1 X100.12 Y61.931 E15.87072
G1 X99.633 Y62.03 E15.88981
G1 X94.15 Y62.052 E16.10044
G1 X93.656 Y62.012 E16.11948
G1 X93.174 Y61.893 E16.13855
G1 X92.718 Y61.699 E16.15759
G1 X92.299 Y61.434 E16.17664
G1 X91.928 Y61.104 E16.19571
G1 X91.614 Y60.72 E16.21477
G1 X91.366 Y60.29 E16.23383
G1 X91.191 Y59.827 E16.25285
G1 X91.092 Y59.34 E16.27194
G1 X91.07 Y52.672 E16.5281
G1 X91.11 Y52.178 E16.54713
G1 X91.229 Y51.696 E16.56621
G1 X91.423 Y51.24 E16.58524
G1 X91.688 Y50.821 E16.60429
G1 X92.018 Y50.45 E16.62336
G1 X92.402 Y50.136 E16.64242
G1 X92.82 Y49.895 E16.66095
G1 X92.82 Y27.442 E17.5235
G1 X92.299 Y27.134 E17.54675
G1 X91.928 Y26.804 E17.56582
G1 X91.614 Y26.42 E17.58488
G1 X91.366 Y25.99 E17.60395
G1 X91.191 Y25.527 E17.62296
G1 X91.092 Y25.04 E17.64205
G1 X91.07 Y18.372 E17.89821
G1 X91.11 Y17.878 E17.91725
M204 S3000
M205 X10 Y10
G0 F1800 X91.67 Y17.925
M204 S1800
M205 X8 Y8
G1 F2400 X91.788 Y17.493 E17.93445
G1 X91.982 Y17.088 E17.9517
G1 X92.244 Y16.724 E17.96893
G1 X92.566 Y16.412 E17.98615
G1 X92.939 Y16.162 E18.0034
G1 X93.35 Y15.982 E18.02064
G1 X93.786 Y15.878 E18.03786
G1 X102.133 Y15.852 E18.35851
G1 X103.012 Y16.01 E18.39282
G1 X103.417 Y16.204 E18.41007
G1 X103.781 Y16.466 E18.4273
G1 X104.093 Y16.788 E18.44453
G1 X104.343 Y17.161 E18.46178
G1 X104.523 Y17.572 E18.47901
G1 X104.627 Y18.008 E18.49623
G1 X104.644 Y18.249 E18.50551
G1 X105.358 Y18.249 E18.53294
G1 X105.387 Y17.925 E18.54544
G1 X105.505 Y17.493 E18.56264
G1 X105.699 Y17.088 E18.57989
G1 X105.961 Y16.724 E18.59712
G1 X106.283 Y16.412 E18.61435
G1 X106.656 Y16.162 E18.63159
G1 X107.067 Y15.982 E18.64883
G1 X107.503 Y15.878 E18.66605
G1 X115.85 Y15.852 E18.98671
G1 X116.297 Y15.892 E19.00395
G1 X116.729 Y16.01 E19.02115
G1 X117.134 Y16.204 E19.0384
G1 X117.498 Y16.466 E19.05563
G1 X117.81 Y16.788 E19.07285
G1 X118.06 Y17.161 E19.0901
G1 X118.24 Y17.572 E19.10734
G1 X118.344 Y18.008 E19.12456
G1 X118.37 Y24.672 E19.38056
G1 X118.33 Y25.119 E19.3978
G1 X118.212 Y25.551 E19.41501
G1 X118.018 Y25.956 E19.43226
G1 X117.756 Y26.32 E19.44949
G1 X117.434 Y26.632 E19.46671
G1 X117.061 Y26.882 E19.48396
G1 X116.62 Y27.069 E19.50236
G1 X116.62 Y50.28 E20.39402
G1 X117.134 Y50.504 E20.41556
G1 X117.498 Y50.766 E20.43279
G1 X117.81 Y51.088 E20.45001
G1 X118.06 Y51.461 E20.46726
G1 X118.24 Y51.872 E20.4845
G1 X118.344 Y52.308 E20.50172
G1 X118.37 Y58.972 E20.75772
G1 X118.33 Y59.419 E20.77496
G1 X118.212 Y59.851 E20.79216
G1 X118.018 Y60.256 E20.80942
G1 X117.756 Y60.62 E20.82664
G1 X117.434 Y60.932 E20.84387
G1 X117.061 Y61.182 E20.86112
G1 X116.65 Y61.362 E20.87836
G1 X116.214 Y61.466 E20.89557
G1 X110.734 Y61.492 E21.10609
G1 X110.287 Y61.452 E21.12333
G1 X109.855 Y61.334 E21.14054
G1 X109.45 Y61.14 E21.15779
G1 X109.086 Y60.878 E21.17502
G1 X108.774 Y60.556 E21.19224
G1 X108.524 Y60.183 E21.20949
G1 X108.344 Y59.772 E21.22673
G1 X108.24 Y59.336 E21.24395
G1 X108.214 Y57.695 E21.30699
G1 X101.785 Y57.695 E21.55397
G1 X101.785 Y58.972 E21.60302
G1 X101.745 Y59.419 E21.62026
G1 X101.627 Y59.851 E21.63747
G1 X101.433 Y60.256 E21.65472
G1 X101.171 Y60.62 E21.67195
G1 X100.849 Y60.932 E21.68917
G1 X100.476 Y61.182 E21.70642
G1 X100.065 Y61.362 E21.72366
G1 X99.629 Y61.466 E21.74088
G1 X94.15 Y61.492 E21.95136
G1 X93.703 Y61.452 E21.9686
G1 X93.271 Y61.334 E21.9858
G1 X92.866 Y61.14 E22.00305
G1 X92.502 Y60.878 E22.02028
G1 X92.19 Y60.556 E22.0375
G1 X91.94 Y60.183 E22.05475
G1 X91.76 Y59.772 E22.07199
G1 X91.656 Y59.336 E22.08921
G1 X91.63 Y52.672 E22.34521
G1 X91.67 Y52.225 E22.36245
G1 X91.788 Y51.793 E22.37966
G1 X91.982 Y51.388 E22.39691
G1 X92.244 Y51.024 E22.41414
G1 X92.566 Y50.712 E22.43136
G1 X92.939 Y50.462 E22.44861
G1 X93.38 Y50.275 E22.46701
G1 X93.38 Y27.064 E23.35867
G1 X92.866 Y26.84 E23.38021
G1 X92.502 Y26.578 E23.39744
G1 X92.19 Y26.256 E23.41466
G1 X91.94 Y25.883 E23.43191
G1 X91.76 Y25.472 E23.44915
G1 X91.656 Y25.036 E23.46637
G1 X91.63 Y18.372 E23.72237
G1 X91.67 Y17.925 E23.73961
M204 S3000
M205 X10 Y10
G0 F1800 X92.23 Y17.979
M204 S1800
M205 X8 Y8
G1 F2400 X92.348 Y17.601 E23.75482
G1 X92.539 Y17.255 E23.77001
G1 X92.796 Y16.954 E23.78521
G1 X93.109 Y16.712 E23.80041
G1 X93.463 Y16.536 E23.8156
G1 X93.846 Y16.436 E23.8308
G1 X102.133 Y16.412 E24.14915
G1 X102.904 Y16.57 E24.17939
G1 X103.25 Y16.761 E24.19457
G1 X103.551 Y17.018 E24.20978
G1 X103.793 Y17.331 E24.22497
G1 X103.969 Y17.685 E24.24016
G1 X104.069 Y18.068 E24.25537
G1 X104.093 Y18.809 E24.28385
G1 X105.907 Y18.809 E24.35353
G1 X105.947 Y17.979 E24.38546
G1 X106.065 Y17.601 E24.40067
G1 X106.256 Y17.255 E24.41585
G1 X106.513 Y16.954 E24.43105
G1 X106.826 Y16.712 E24.44625
G1 X107.18 Y16.536 E24.46144
G1 X107.563 Y16.436 E24.47665
G1 X115.85 Y16.412 E24.795
G1 X116.243 Y16.452 E24.81017
G1 X116.621 Y16.57 E24.82538
G1 X116.967 Y16.761 E24.84057
G1 X117.268 Y17.018 E24.85577
G1 X117.51 Y17.331 E24.87097
G1 X117.686 Y17.685 E24.88616
G1 X117.786 Y18.068 E24.90136
G1 X117.81 Y24.672 E25.15506
G1 X117.77 Y25.065 E25.17024
G1 X117.652 Y25.443 E25.18545
G1 X117.461 Y25.789 E25.20063
G1 X117.204 Y26.09 E25.21584
G1 X116.891 Y26.332 E25.23103
G1 X116.537 Y26.508 E25.24622
G1 X116.06 Y26.615 E25.265
G1 X116.06 Y50.733 E26.1915
G1 X116.621 Y50.87 E26.21369
G1 X116.967 Y51.061 E26.22887
G1 X117.268 Y51.318 E26.24408
G1 X117.51 Y51.631 E26.25927
G1 X117.686 Y51.985 E26.27446
G1 X117.786 Y52.368 E26.28967
G1 X117.81 Y58.972 E26.54337
G1 X117.77 Y59.365 E26.55854
G1 X117.652 Y59.743 E26.57375
G1 X117.461 Y60.089 E26.58894
G1 X117.204 Y60.39 E26.60414
G1 X116.891 Y60.632 E26.61934
G1 X116.537 Y60.808 E26.63453
G1 X116.154 Y60.908 E26.64973
G1 X110.734 Y60.932 E26.85795
G1 X110.341 Y60.892 E26.87312
G1 X109.963 Y60.774 E26.88833
G1 X109.617 Y60.583 E26.90352
G1 X109.316 Y60.326 E26.91872
G1 X109.074 Y60.013 E26.93392
G1 X108.898 Y59.659 E26.94911
G1 X108.798 Y59.276 E26.96431
G1 X108.774 Y57.135 E27.04657
G1 X101.225 Y57.135 E27.33656
G1 X101.225 Y58.972 E27.40713
G1 X101.185 Y59.365 E27.42231
G1 X101.067 Y59.743 E27.43752
G1 X100.876 Y60.089 E27.4527
G1 X100.619 Y60.39 E27.46791
G1 X100.306 Y60.632 E27.48311
G1 X99.952 Y60.808 E27.49829
G1 X99.569 Y60.908 E27.5135
G1 X94.15 Y60.932 E27.72167
G1 X93.757 Y60.892 E27.73685
G1 X93.379 Y60.774 E27.75206
G1 X93.033 Y60.583 E27.76724
G1 X92.732 Y60.326 E27.78245
G1 X92.49 Y60.013 E27.79765
G1 X92.314 Y59.659 E27.81283
G1 X92.214 Y59.276 E27.82804
