;FLAVOR:Marlin
;TIME:25021
;Filament used: 16.672m
;Layer height: 0.18
;MINX:35.805
;MINY:11.939
;MINZ:0.15
;MAXX:174.195
;MAXY:150.329
;MAXZ:3.465
;Generated with Cura_SteamEngine 4.5.0
M140 S60
M105
M190 S60
M104 S200
M105
M109 S200
M82 ;absolute extrusion mode
G21 ;metric values
G90 ;absolute positioning
M82 ;set extruder to absolute mode
M107 ;start with the fan off
G28 X0 Y0 ;move X/Y to min endstops
G28 Z0 ;move Z to min endstops
G1 Z15.0 F100 ;move the platform down 15mm
G92 E0 ;zero the extruded length
G1 F200 E3 ;extrude 3mm of feed stock
G92 E0 ;zero the extruded length again
G1 F100
G0 Y20 F100
M117 Printing...
G5
G92 E0
G92 E0
G1 F2400 E-6
;LAYER_COUNT:19
;LAYER:0
M106 S255
M204 S3000
M205 X10 Y10
G1 F600 Z0.225
G0 F1800 X51.381 Y37.396 Z0.225
M204 S1800
M205 X8 Y8
;TYPE:SKIRT
G1 F600 Z0.15
G1 F2400 E0
G1 X55.925 Y32.352 E0.2608
G1 X60.84 Y27.87 E0.51633
G1 X66.268 Y23.801 E0.77693
G1 X72.075 Y20.282 E1.03778
G1 X78.197 Y17.349 E1.29855
G1 X84.579 Y15.029 E1.55942
G1 X91.288 Y13.311 E1.82546
G1 X98.014 Y12.292 E2.08679
G1 X104.794 Y11.939 E2.3476
G1 X105.205 Y11.939 E2.36339
G1 X111.437 Y12.244 E2.60308
G1 X118.29 Y13.227 E2.86904
G1 X124.889 Y14.859 E3.13018
G1 X131.29 Y17.129 E3.39108
G1 X137.436 Y20.012 E3.65187
G1 X143.27 Y23.484 E3.91267
G1 X148.738 Y27.515 E4.17363
G1 X153.68 Y31.966 E4.42913
G1 X158.258 Y36.968 E4.68962
G1 X162.332 Y42.4 E4.95046
G1 X165.852 Y48.209 E5.21139
G1 X168.785 Y54.331 E5.47216
G1 X171.152 Y60.843 E5.73834
G1 X172.825 Y67.431 E5.99945
G1 X173.842 Y74.146 E6.26035
G1 X174.195 Y80.927 E6.5212
G1 X173.89 Y87.571 E6.7767
G1 X172.928 Y94.288 E7.03737
G1 X171.311 Y100.88 E7.29811
G1 X169.058 Y107.283 E7.55887
G1 X166.184 Y113.438 E7.81982
G1 X162.725 Y119.278 E8.08057
G1 X158.625 Y124.865 E8.34679
G1 X154.168 Y129.814 E8.60264
G1 X149.064 Y134.485 E8.86843
G1 X143.613 Y138.554 E9.12974
G1 X137.8 Y142.062 E9.39056
G1 X131.67 Y144.982 E9.6514
G1 X125.283 Y147.289 E9.91227
G1 X118.703 Y148.959 E10.17306
G1 X111.986 Y149.976 E10.43404
G1 X105.206 Y150.329 E10.69485
G1 X98.563 Y150.024 E10.95031
G1 X91.71 Y149.041 E11.21626
G1 X85.111 Y147.409 E11.47741
G1 X78.841 Y145.188 E11.73294
G1 X72.571 Y142.259 E11.99879
G1 X66.73 Y138.784 E12.25988
G1 X61.261 Y134.752 E12.5209
G1 X56.216 Y130.207 E12.78175
G1 X51.735 Y125.293 E13.03723
G1 X47.667 Y119.865 E13.29781
G1 X44.077 Y113.941 E13.56391
G1 X41.15 Y107.803 E13.82514
G1 X38.844 Y101.415 E14.08604
G1 X37.175 Y94.837 E14.34674
G1 X36.158 Y88.12 E14.60772
G1 X35.805 Y81.341 E14.86849
G1 X36.11 Y74.697 E15.12399
G1 X37.093 Y67.844 E15.38994
G1 X38.725 Y61.245 E15.65109
G1 X40.994 Y54.846 E15.9119
G1 X43.878 Y48.698 E16.17278
G1 X47.35 Y42.864 E16.43358
G1 X51.381 Y37.396 E16.69454
M204 S3000
M205 X10 Y10
G0 F1800 X51.83 Y37.73
M204 S1800
M205 X8 Y8
G1 F2400 X56.34 Y32.728 E16.95327
G1 X61.217 Y28.285 E17.20671
G1 X66.603 Y24.25 E17.46524
G1 X72.364 Y20.762 E17.72395
G1 X78.437 Y17.855 E17.9826
G1 X84.768 Y15.555 E18.24136
G1 X91.426 Y13.854 E18.50535
G1 X98.096 Y12.846 E18.76449
G1 X104.821 Y12.498 E19.02318
G1 X105.178 Y12.498 E19.03689
G1 X111.41 Y12.803 E19.27658
G1 X118.209 Y13.781 E19.54046
G1 X124.753 Y15.402 E19.79945
G1 X131.102 Y17.656 E20.05826
G1 X137.197 Y20.518 E20.31693
G1 X142.982 Y23.965 E20.57562
G1 X148.404 Y27.964 E20.83444
G1 X153.303 Y32.381 E21.08783
G1 X157.844 Y37.345 E21.34628
G1 X161.883 Y42.735 E21.60503
G1 X165.373 Y48.498 E21.86385
G1 X168.279 Y54.571 E22.12248
G1 X170.626 Y61.032 E22.38655
G1 X172.282 Y67.567 E22.64553
G1 X173.288 Y74.228 E22.90431
G1 X173.636 Y80.954 E23.16304
G1 X173.331 Y87.544 E23.41647
G1 X172.374 Y94.207 E23.67506
G1 X170.768 Y100.745 E23.93369
G1 X168.53 Y107.095 E24.19233
G1 X165.678 Y113.2 E24.45119
G1 X162.244 Y118.991 E24.70982
G1 X158.174 Y124.532 E24.97394
G1 X153.753 Y129.437 E25.22761
G1 X148.687 Y134.071 E25.49136
G1 X143.279 Y138.105 E25.75054
G1 X137.512 Y141.581 E26.00921
G1 X131.431 Y144.476 E26.26794
G1 X125.095 Y146.762 E26.5267
G1 X118.567 Y148.416 E26.7854
G1 X111.904 Y149.422 E27.04426
G1 X105.179 Y149.77 E27.30295
G1 X98.59 Y149.465 E27.55634
G1 X91.791 Y148.487 E27.82021
G1 X85.247 Y146.866 E28.0792
G1 X79.029 Y144.66 E28.33266
G1 X72.809 Y141.753 E28.59641
G1 X67.018 Y138.303 E28.85536
G1 X61.595 Y134.303 E29.11423
G1 X56.592 Y129.792 E29.37301
G1 X52.15 Y124.916 E29.6264
G1 X48.116 Y119.531 E29.88487
G1 X44.557 Y113.652 E30.14887
G1 X41.656 Y107.563 E30.40798
G1 X39.372 Y101.227 E30.66671
G1 X37.718 Y94.701 E30.92534
G1 X36.712 Y88.038 E31.1842
G1 X36.364 Y81.314 E31.44285
G1 X36.669 Y74.724 E31.69628
G1 X37.647 Y67.925 E31.96015
G1 X39.268 Y61.381 E32.21914
G1 X41.521 Y55.035 E32.47783
G1 X44.384 Y48.937 E32.73663
G1 X47.831 Y43.152 E32.99532
G1 X51.83 Y37.73 E33.25413
M204 S3000
M205 X10 Y10
G0 F1800 X52.28 Y38.063
M204 S1800
M205 X8 Y8
G1 F2400 X56.755 Y33.104 E33.51073
G1 X61.593 Y28.7 E33.76206
G1 X66.938 Y24.699 E34.01854
G1 X72.652 Y21.241 E34.27512
G1 X78.678 Y18.36 E34.5317
G1 X84.958 Y16.082 E34.78833
G1 X91.563 Y14.397 E35.05019
G1 X98.178 Y13.4 E35.30718
G1 X104.849 Y13.058 E35.56379
G1 X105.151 Y13.058 E35.57539
G1 X111.383 Y13.363 E35.81508
G1 X118.128 Y14.335 E36.07687
G1 X124.617 Y15.945 E36.33371
G1 X130.913 Y18.183 E36.5904
G1 X136.957 Y21.025 E36.84697
G1 X142.694 Y24.445 E37.10354
G1 X148.071 Y28.414 E37.36028
G1 X152.927 Y32.796 E37.61155
G1 X157.43 Y37.722 E37.86794
G1 X161.434 Y43.07 E38.12458
G1 X164.893 Y48.786 E38.38124
G1 X167.774 Y54.812 E38.63783
G1 X170.099 Y61.222 E38.89977
G1 X171.739 Y67.703 E39.15659
G1 X172.734 Y74.31 E39.41326
G1 X173.076 Y80.982 E39.66991
G1 X172.771 Y87.517 E39.92122
G1 X171.82 Y94.126 E40.17773
G1 X170.224 Y100.61 E40.43425
G1 X168.002 Y106.908 E40.6908
G1 X165.171 Y112.961 E40.94751
G1 X161.763 Y118.704 E41.20405
G1 X157.724 Y124.2 E41.46606
G1 X153.338 Y129.061 E41.71758
G1 X148.31 Y133.657 E41.97927
G1 X142.946 Y137.655 E42.23627
G1 X137.224 Y141.101 E42.49286
G1 X131.191 Y143.969 E42.74948
G1 X124.906 Y146.235 E43.00613
G1 X118.431 Y147.873 E43.26271
G1 X111.822 Y148.868 E43.51946
G1 X105.151 Y149.21 E43.77606
G1 X98.617 Y148.905 E44.02734
G1 X91.872 Y147.933 E44.28913
G1 X85.383 Y146.323 E44.54597
G1 X79.218 Y144.133 E44.7973
G1 X73.048 Y141.246 E45.05899
G1 X67.306 Y137.823 E45.31579
G1 X61.928 Y133.853 E45.57258
G1 X56.968 Y129.377 E45.82924
G1 X52.565 Y124.54 E46.08051
G1 X48.565 Y119.196 E46.33694
G1 X45.036 Y113.364 E46.5988
G1 X42.163 Y107.324 E46.85574
G1 X39.899 Y101.038 E47.11241
G1 X38.261 Y94.565 E47.36891
G1 X37.266 Y87.956 E47.62566
G1 X36.924 Y81.286 E47.88222
G1 X37.229 Y74.751 E48.13354
G1 X38.201 Y68.006 E48.39533
G1 X39.811 Y61.517 E48.65217
G1 X42.048 Y55.223 E48.90877
G1 X44.891 Y49.177 E49.16543
G1 X48.311 Y43.44 E49.42201
G1 X52.28 Y38.063 E49.67874
M204 S3000
M205 X10 Y10
G0 F1800 X52.73 Y38.397
M204 S1800
M205 X8 Y8
G1 F2400 X57.17 Y33.481 E49.93322
G1 X61.969 Y29.115 E50.18245
G1 X67.272 Y25.148 E50.43686
G1 X72.941 Y21.721 E50.69134
G1 X78.918 Y18.866 E50.9458
G1 X85.148 Y16.609 E51.20035
G1 X91.7 Y14.94 E51.46008
G1 X98.26 Y13.954 E51.71492
G1 X104.876 Y13.617 E51.96941
G1 X111.355 Y13.922 E52.21857
G1 X118.047 Y14.89 E52.47833
G1 X124.48 Y16.489 E52.73297
G1 X130.724 Y18.71 E52.98756
G1 X136.718 Y21.531 E53.24205
G1 X142.406 Y24.925 E53.4965
G1 X147.737 Y28.864 E53.75113
G1 X152.551 Y33.211 E54.0003
G1 X157.016 Y38.099 E54.25463
G1 X160.985 Y43.404 E54.50914
G1 X164.413 Y49.075 E54.76371
G1 X167.268 Y55.052 E55.01817
G1 X169.572 Y61.412 E55.27803
G1 X171.195 Y67.84 E55.53271
G1 X172.18 Y74.392 E55.78724
G1 X172.517 Y81.009 E56.04176
G1 X172.212 Y87.489 E56.29097
G1 X171.265 Y94.045 E56.54543
G1 X169.681 Y100.475 E56.79983
G1 X167.475 Y106.721 E57.0543
G1 X164.664 Y112.723 E57.3089
G1 X161.282 Y118.418 E57.56335
G1 X157.273 Y123.867 E57.82322
G1 X152.923 Y128.685 E58.07259
G1 X147.933 Y133.243 E58.33221
G1 X142.612 Y137.205 E58.58706
G1 X136.936 Y140.621 E58.84155
G1 X130.952 Y143.463 E59.09604
G1 X124.717 Y145.708 E59.35061
G1 X118.294 Y147.329 E59.60509
G1 X111.74 Y148.314 E59.85969
G1 X105.124 Y148.651 E60.11418
G1 X98.645 Y148.346 E60.36335
G1 X91.953 Y147.378 E60.6231
G1 X85.52 Y145.779 E60.87775
G1 X79.406 Y143.606 E61.12701
G1 X73.286 Y140.739 E61.38663
G1 X67.594 Y137.343 E61.64126
G1 X62.262 Y133.403 E61.89594
G1 X57.345 Y128.962 E62.15047
G1 X52.98 Y124.164 E62.39965
G1 X49.014 Y118.862 E62.65401
G1 X45.516 Y113.075 E62.91377
G1 X42.669 Y107.084 E63.16858
G1 X40.426 Y100.85 E63.4231
G1 X38.805 Y94.429 E63.6775
G1 X37.82 Y87.874 E63.93214
G1 X37.483 Y81.259 E64.18659
G1 X37.788 Y74.779 E64.4358
G1 X38.756 Y68.087 E64.69555
G1 X40.355 Y61.654 E64.9502
G1 X42.575 Y55.412 E65.2047
G1 X45.397 Y49.416 E65.45927
G1 X48.791 Y43.728 E65.71372
G1 X52.73 Y38.397 E65.96836
M204 S3000
M205 X10 Y10
G0 F1800 X53.18 Y38.73
M204 S1800
M205 X8 Y8
G1 F2400 X57.585 Y33.857 E66.2207
G1 X62.345 Y29.53 E66.46782
G1 X67.607 Y25.597 E66.72019
G1 X73.23 Y22.201 E66.97254
G1 X79.158 Y19.372 E67.22486
G1 X85.338 Y17.136 E67.47733
G1 X91.838 Y15.483 E67.73498
G1 X98.342 Y14.508 E67.98763
G1 X104.904 Y14.176 E68.24003
G1 X111.328 Y14.481 E68.48709
G1 X117.966 Y15.444 E68.74476
G1 X124.344 Y17.032 E68.99726
G1 X130.535 Y19.238 E69.24973
G1 X136.479 Y22.037 E69.50213
G1 X142.119 Y25.406 E69.7545
G1 X147.404 Y29.314 E70.007
G1 X152.175 Y33.626 E70.25405
G1 X156.602 Y38.476 E70.50631
G1 X160.536 Y43.739 E70.75873
G1 X163.933 Y49.364 E71.01116
G1 X166.762 Y55.292 E71.26349
G1 X169.045 Y61.602 E71.52127
G1 X170.652 Y67.976 E71.77379
G1 X171.626 Y74.474 E72.02621
G1 X171.958 Y81.037 E72.27865
G1 X171.653 Y87.462 E72.52575
G1 X170.711 Y93.964 E72.77813
G1 X169.137 Y100.34 E73.03042
G1 X166.947 Y106.533 E73.28277
G1 X164.158 Y112.484 E73.53524
G1 X160.801 Y118.131 E73.78761
G1 X156.823 Y123.534 E74.04535
G1 X152.508 Y128.309 E74.29259
G1 X147.556 Y132.829 E74.55015
G1 X142.279 Y136.755 E74.80282
G1 X136.649 Y140.14 E75.05518
G1 X130.713 Y142.957 E75.30759
G1 X124.528 Y145.18 E75.56007
G1 X118.158 Y146.786 E75.81243
G1 X111.658 Y147.76 E76.06492
G1 X105.096 Y148.092 E76.31733
G1 X98.672 Y147.787 E76.56439
G1 X92.034 Y146.824 E76.82206
G1 X85.656 Y145.236 E77.07455
G1 X79.595 Y143.079 E77.32169
G1 X73.525 Y140.233 E77.57923
G1 X67.881 Y136.862 E77.83178
G1 X62.595 Y132.953 E78.08434
G1 X57.721 Y128.547 E78.33674
G1 X53.395 Y123.788 E78.5838
G1 X49.463 Y118.527 E78.83611
G1 X45.996 Y112.786 E79.09375
G1 X43.175 Y106.845 E79.3464
G1 X40.953 Y100.661 E79.59883
G1 X39.348 Y94.292 E79.85115
G1 X38.374 Y87.792 E80.10364
G1 X38.042 Y81.231 E80.356
G1 X38.347 Y74.806 E80.6031
G1 X39.31 Y68.168 E80.86077
G1 X40.898 Y61.79 E81.11327
G1 X43.103 Y55.601 E81.36566
G1 X45.903 Y49.655 E81.61814
G1 X49.272 Y44.015 E81.87051
G1 X53.18 Y38.73 E82.12301
M204 S3000
M205 X10 Y10
G0 F1800 X53.63 Y39.064
M204 S1800
M205 X8 Y8
G1 F2400 X58 Y34.233 E82.37326
G1 X62.721 Y29.945 E82.61826
G1 X67.941 Y26.046 E82.86855
G1 X73.519 Y22.681 E83.11881
G1 X79.399 Y19.878 E83.36904
G1 X85.528 Y17.663 E83.6194
G1 X91.975 Y16.026 E83.87492
G1 X98.425 Y15.062 E84.12545
G1 X104.931 Y14.736 E84.3757
G1 X111.3 Y15.041 E84.62064
G1 X117.885 Y15.998 E84.87627
G1 X124.208 Y17.575 E85.12661
G1 X130.347 Y19.765 E85.377
G1 X136.239 Y22.543 E85.62724
G1 X141.831 Y25.886 E85.87752
G1 X147.07 Y29.764 E86.12791
G1 X151.799 Y34.041 E86.37286
G1 X156.187 Y38.853 E86.62303
G1 X160.087 Y44.073 E86.87335
G1 X163.453 Y49.653 E87.12369
G1 X166.256 Y55.533 E87.37392
G1 X168.518 Y61.792 E87.62959
G1 X170.109 Y68.112 E87.87995
G1 X171.072 Y74.557 E88.13028
G1 X171.398 Y81.064 E88.38056
G1 X171.093 Y87.434 E88.62555
G1 X170.157 Y93.883 E88.87589
G1 X168.594 Y100.205 E89.12606
G1 X166.419 Y106.346 E89.37633
G1 X163.651 Y112.246 E89.62669
G1 X160.32 Y117.844 E89.87693
G1 X156.372 Y123.202 E90.1326
G1 X152.093 Y127.933 E90.37765
G1 X147.179 Y132.414 E90.63313
G1 X141.945 Y136.305 E90.88367
G1 X136.361 Y139.66 E91.13392
G1 X130.473 Y142.451 E91.38424
G1 X124.34 Y144.653 E91.63456
G1 X118.022 Y146.243 E91.88484
G1 X111.575 Y147.206 E92.13525
G1 X105.069 Y147.532 E92.3855
G1 X98.7 Y147.227 E92.63045
G1 X92.115 Y146.27 E92.88607
G1 X85.792 Y144.693 E93.13641
G1 X79.784 Y142.551 E93.38144
G1 X73.763 Y139.726 E93.63693
G1 X68.169 Y136.382 E93.8873
G1 X62.929 Y132.503 E94.13775
G1 X58.097 Y128.132 E94.38805
G1 X53.81 Y123.412 E94.633
G1 X49.912 Y118.192 E94.88327
G1 X46.476 Y112.497 E95.13878
G1 X43.681 Y106.606 E95.38926
G1 X41.481 Y100.472 E95.6396
G1 X39.891 Y94.156 E95.8898
G1 X38.928 Y87.709 E96.14022
G1 X38.602 Y81.204 E96.39042
G1 X38.907 Y74.834 E96.63541
G1 X39.864 Y68.249 E96.89103
G1 X41.441 Y61.926 E97.14137
G1 X43.63 Y55.789 E97.39168
G1 X46.409 Y49.895 E97.642
G1 X49.752 Y44.303 E97.89228
G1 X53.63 Y39.064 E98.14268
M204 S3000
M205 X10 Y10
G0 F1800 X54.079 Y39.398
M204 S1800
M205 X8 Y8
G1 F2400 X58.415 Y34.609 E98.39086
G1 X63.097 Y30.36 E98.63374
G1 X68.276 Y26.495 E98.88199
G1 X73.808 Y23.16 E99.13014
G1 X79.639 Y20.383 E99.37824
G1 X85.717 Y18.19 E99.62646
G1 X92.112 Y16.569 E99.8799
G1 X98.507 Y15.616 E100.12828
G1 X104.959 Y15.295 E100.37644
G1 X111.273 Y15.6 E100.61928
G1 X117.804 Y16.552 E100.87282
G1 X124.072 Y18.118 E101.12101
G1 X130.158 Y20.292 E101.36928
G1 X136 Y23.05 E101.61745
G1 X141.543 Y26.366 E101.86559
G1 X146.736 Y30.213 E102.11385
G1 X151.423 Y34.456 E102.35673
G1 X155.773 Y39.23 E102.60484
G1 X159.638 Y44.408 E102.85305
G1 X162.974 Y49.942 E103.10129
G1 X165.751 Y55.773 E103.34939
G1 X167.991 Y61.981 E103.60292
G1 X169.566 Y68.248 E103.85116
G1 X170.518 Y74.639 E104.09938
G1 X170.839 Y81.092 E104.34758
G1 X170.534 Y87.407 E104.59046
G1 X169.603 Y93.802 E104.83872
G1 X168.05 Y100.07 E105.08679
G1 X165.892 Y106.158 E105.33492
G1 X163.144 Y112.008 E105.58321
G1 X159.839 Y117.557 E105.83132
G1 X155.922 Y122.869 E106.08486
G1 X151.678 Y127.557 E106.32779
G1 X146.802 Y132 E106.5812
G1 X141.611 Y135.856 E106.82961
G1 X136.073 Y139.18 E107.07774
G1 X130.234 Y141.944 E107.32591
G1 X124.151 Y144.126 E107.57417
G1 X117.886 Y145.7 E107.82232
G1 X111.493 Y146.652 E108.07062
G1 X105.041 Y146.973 E108.31878
G1 X98.727 Y146.668 E108.56162
G1 X92.196 Y145.716 E108.81516
G1 X85.928 Y144.15 E109.06335
G1 X79.972 Y142.024 E109.3063
G1 X74.001 Y139.219 E109.55972
G1 X68.457 Y135.902 E109.80791
G1 X63.263 Y132.054 E110.05623
G1 X58.473 Y127.717 E110.30446
G1 X54.225 Y123.036 E110.54729
G1 X50.361 Y117.858 E110.79548
G1 X46.955 Y112.208 E111.04892
G1 X44.188 Y106.366 E111.29724
G1 X42.008 Y100.284 E111.54544
G1 X40.434 Y94.02 E111.79356
G1 X39.482 Y87.627 E112.04185
G1 X39.161 Y81.176 E112.28998
G1 X39.466 Y74.861 E112.53286
G1 X40.418 Y68.33 E112.7864
G1 X41.984 Y62.062 E113.03459
G1 X44.157 Y55.978 E113.28277
G1 X46.916 Y50.134 E113.53103
G1 X50.232 Y44.591 E113.77916
G1 X54.079 Y39.398 E114.02743
M204 S3000
M205 X10 Y10
G0 F1800 X54.529 Y39.731
M204 S1800
M205 X8 Y8
G1 F2400 X58.83 Y34.985 E114.27348
G1 X63.473 Y30.775 E114.51425
G1 X68.611 Y26.944 E114.76045
G1 X74.097 Y23.64 E115.00647
G1 X79.88 Y20.889 E115.25248
G1 X85.907 Y18.717 E115.49859
G1 X92.249 Y17.112 E115.7499
G1 X98.589 Y16.17 E115.99613
G1 X104.986 Y15.854 E116.24217
G1 X111.246 Y16.159 E116.48293
G1 X117.723 Y17.106 E116.7344
G1 X123.936 Y18.661 E116.98043
G1 X129.969 Y20.819 E117.22658
G1 X135.761 Y23.556 E117.47267
G1 X141.255 Y26.847 E117.71869
G1 X146.403 Y30.663 E117.96486
G1 X151.047 Y34.871 E118.20561
G1 X155.359 Y39.607 E118.45166
G1 X159.189 Y44.743 E118.69778
G1 X162.494 Y50.231 E118.94388
G1 X165.245 Y56.014 E119.18989
G1 X167.464 Y62.171 E119.44131
G1 X169.023 Y68.384 E119.68738
G1 X169.964 Y74.721 E119.93349
G1 X170.28 Y81.119 E120.17957
G1 X169.975 Y87.38 E120.42038
G1 X169.049 Y93.721 E120.66655
G1 X167.507 Y99.935 E120.91251
G1 X165.364 Y105.971 E121.15856
G1 X162.637 Y111.769 E121.4047
G1 X159.358 Y117.27 E121.65072
G1 X155.471 Y122.536 E121.90216
G1 X151.263 Y127.181 E122.14293
G1 X146.425 Y131.586 E122.39428
G1 X141.278 Y135.406 E122.64051
G1 X135.785 Y138.699 E122.88654
G1 X129.995 Y141.438 E123.1326
G1 X123.962 Y143.599 E123.37878
G1 X117.75 Y145.157 E123.62481
G1 X111.411 Y146.098 E123.87099
G1 X105.014 Y146.414 E124.11703
