;FLAVOR:Marlin
;TIME:8273
;Filament used: 5.08789m
;Layer height: 0.18
;MINX:65.8
;MINY:11.995
;MINZ:0.15
;MAXX:144.2
;MAXY:113.395
;MAXZ:3.645
;Generated with Cura_SteamEngine 4.5.0
M140 S65
M105
M190 S65
M104 S205
M105
M109 S205
M82 ;absolute extrusion mode
G21 ;metric values
G90 ;absolute positioning
M82 ;set extruder to absolute mode
M107 ;start with the fan off
G28 X0 Y0 ;move X/Y to min endstops
G28 Z0 ;move Z to min endstops
G1 Z15.0 F100 ;move the platform down 15mm
G92 E0 ;zero the extruded length
G1 F200 E3 ;extrude 3mm of feed stock
G92 E0 ;zero the extruded length again
G1 F100
G0 Y20 F100
M117 Printing...
G5
G92 E0
G92 E0
G1 F2400 E-6
;LAYER_COUNT:20
;LAYER:0
M106 S255
M204 S3000
M205 X10 Y10
G1 F600 Z0.225
G0 F1800 X65.959 Y15.05 Z0.225
M204 S1800
M205 X8 Y8
;TYPE:SKIRT
G1 F600 Z0.15
G1 F2400 E0
G1 X66.155 Y14.505 E0.02225
G1 X66.424 Y13.992 E0.0445
G1 X66.761 Y13.521 E0.06675
G1 X67.16 Y13.101 E0.089
G1 X67.613 Y12.739 E0.11128
G1 X68.111 Y12.444 E0.13352
G1 X68.645 Y12.219 E0.15578
G1 X69.205 Y12.071 E0.17803
G1 X70 Y11.995 E0.20871
G1 X140 Y11.995 E2.89779
G1 X140.578 Y12.035 E2.92005
G1 X141.145 Y12.154 E2.9423
G1 X141.69 Y12.35 E2.96455
G1 X142.203 Y12.619 E2.9868
G1 X142.674 Y12.956 E3.00905
G1 X143.094 Y13.355 E3.03131
G1 X143.456 Y13.808 E3.05358
G1 X143.751 Y14.306 E3.07582
G1 X143.976 Y14.84 E3.09808
G1 X144.124 Y15.4 E3.12033
G1 X144.2 Y16.195 E3.15101
G1 X144.2 Y109.195 E6.72365
G1 X144.16 Y109.773 E6.7459
G1 X144.041 Y110.34 E6.76816
G1 X143.845 Y110.885 E6.79041
G1 X143.576 Y111.398 E6.81266
G1 X143.239 Y111.869 E6.83491
G1 X142.84 Y112.289 E6.85716
G1 X142.387 Y112.651 E6.87944
G1 X141.889 Y112.946 E6.90168
G1 X141.355 Y113.171 E6.92394
G1 X140.795 Y113.319 E6.94619
G1 X140 Y113.395 E6.97687
G1 X70 Y113.395 E9.66595
G1 X69.422 Y113.355 E9.68821
G1 X68.855 Y113.236 E9.71046
G1 X68.31 Y113.04 E9.73271
G1 X67.797 Y112.771 E9.75496
G1 X67.326 Y112.434 E9.77721
G1 X66.906 Y112.035 E9.79947
G1 X66.544 Y111.582 E9.82174
G1 X66.249 Y111.084 E9.84398
G1 X66.024 Y110.55 E9.86624
G1 X65.876 Y109.99 E9.88849
G1 X65.8 Y109.195 E9.91917
G1 X65.8 Y16.195 E13.49181
G1 X65.84 Y15.617 E13.51406
G1 X65.959 Y15.05 E13.53632
M204 S3000
M205 X10 Y10
G0 F1800 X66.519 Y15.131
M204 S1800
M205 X8 Y8
G1 F2400 X66.714 Y14.629 E13.55701
G1 X66.982 Y14.16 E13.57776
G1 X67.315 Y13.737 E13.59844
G1 X67.708 Y13.367 E13.61917
G1 X68.151 Y13.06 E13.63988
G1 X68.635 Y12.821 E13.66062
G1 X69.148 Y12.656 E13.68132
G1 X69.68 Y12.569 E13.70203
G1 X140 Y12.555 E16.4034
G1 X140.538 Y12.595 E16.42413
G1 X141.064 Y12.714 E16.44484
G1 X141.566 Y12.909 E16.46553
G1 X142.035 Y13.177 E16.48628
G1 X142.458 Y13.51 E16.50696
G1 X142.828 Y13.903 E16.5277
G1 X143.135 Y14.346 E16.5484
G1 X143.374 Y14.83 E16.56914
G1 X143.539 Y15.343 E16.58984
G1 X143.626 Y15.875 E16.61055
G1 X143.64 Y109.195 E20.19548
G1 X143.6 Y109.733 E20.21621
G1 X143.481 Y110.259 E20.23692
G1 X143.286 Y110.761 E20.25761
G1 X143.018 Y111.23 E20.27836
G1 X142.685 Y111.653 E20.29904
G1 X142.292 Y112.023 E20.31978
G1 X141.849 Y112.33 E20.34048
G1 X141.365 Y112.569 E20.36122
G1 X140.852 Y112.734 E20.38192
G1 X140.32 Y112.821 E20.40263
G1 X70 Y112.835 E23.104
G1 X69.462 Y112.795 E23.12473
G1 X68.936 Y112.676 E23.14545
G1 X68.434 Y112.481 E23.16613
G1 X67.965 Y112.213 E23.18689
G1 X67.542 Y111.88 E23.20757
G1 X67.172 Y111.487 E23.2283
G1 X66.865 Y111.044 E23.24901
G1 X66.626 Y110.56 E23.26974
G1 X66.461 Y110.047 E23.29044
G1 X66.374 Y109.515 E23.31115
G1 X66.36 Y16.195 E26.89608
G1 X66.4 Y15.657 E26.91681
G1 X66.519 Y15.131 E26.93753
M204 S3000
M205 X10 Y10
G0 F1800 X67.079 Y15.219
M204 S1800
M205 X8 Y8
G1 F2400 X67.273 Y14.763 E26.95656
G1 X67.538 Y14.344 E26.97561
G1 X67.868 Y13.973 E26.99468
G1 X68.252 Y13.659 E27.01374
G1 X68.682 Y13.411 E27.03281
G1 X69.145 Y13.236 E27.05182
G1 X69.632 Y13.137 E27.07091
G1 X140 Y13.115 E29.77413
G1 X140.976 Y13.274 E29.81212
G1 X141.432 Y13.468 E29.83115
G1 X141.851 Y13.733 E29.8502
G1 X142.222 Y14.063 E29.86927
G1 X142.536 Y14.447 E29.88833
G1 X142.784 Y14.877 E29.9074
G1 X142.959 Y15.34 E29.92641
G1 X143.058 Y15.827 E29.9455
G1 X143.08 Y109.195 E33.53228
G1 X143.04 Y109.689 E33.55132
G1 X142.921 Y110.171 E33.57039
G1 X142.727 Y110.627 E33.58943
G1 X142.462 Y111.046 E33.60847
G1 X142.132 Y111.417 E33.62755
G1 X141.748 Y111.731 E33.6466
G1 X141.318 Y111.979 E33.66567
G1 X140.855 Y112.154 E33.68469
G1 X140.368 Y112.253 E33.70378
G1 X70 Y112.275 E36.407
G1 X69.506 Y112.235 E36.42604
G1 X69.024 Y112.116 E36.44511
G1 X68.568 Y111.922 E36.46414
G1 X68.149 Y111.657 E36.48319
G1 X67.778 Y111.327 E36.50226
G1 X67.464 Y110.943 E36.52132
G1 X67.216 Y110.513 E36.54039
G1 X67.041 Y110.05 E36.5594
G1 X66.942 Y109.563 E36.57849
G1 X66.92 Y16.195 E40.16527
G1 X66.96 Y15.701 E40.18431
G1 X67.079 Y15.219 E40.20338
M204 S3000
M205 X10 Y10
G0 F1800 X67.638 Y15.316
M204 S1800
M205 X8 Y8
G1 F2400 X67.832 Y14.911 E40.22063
G1 X68.094 Y14.547 E40.23786
G1 X68.416 Y14.235 E40.25508
G1 X68.789 Y13.985 E40.27233
G1 X69.2 Y13.805 E40.28957
G1 X69.636 Y13.701 E40.30679
G1 X70 Y13.675 E40.32081
G1 X140 Y13.675 E43.00989
G1 X140.879 Y13.833 E43.0442
G1 X141.284 Y14.027 E43.06145
G1 X141.648 Y14.289 E43.07868
G1 X141.96 Y14.611 E43.0959
G1 X142.21 Y14.984 E43.11315
G1 X142.39 Y15.395 E43.13039
G1 X142.494 Y15.831 E43.14761
G1 X142.52 Y16.195 E43.16163
G1 X142.52 Y109.195 E46.73426
G1 X142.48 Y109.642 E46.7515
G1 X142.362 Y110.074 E46.76871
G1 X142.168 Y110.479 E46.78596
G1 X141.906 Y110.843 E46.80319
G1 X141.584 Y111.155 E46.82041
G1 X141.211 Y111.405 E46.83766
G1 X140.8 Y111.585 E46.8549
G1 X140.364 Y111.689 E46.87212
G1 X140 Y111.715 E46.88614
G1 X70 Y111.715 E49.57522
G1 X69.553 Y111.675 E49.59246
G1 X69.121 Y111.557 E49.60966
G1 X68.716 Y111.363 E49.62691
G1 X68.352 Y111.101 E49.64414
G1 X68.04 Y110.779 E49.66137
G1 X67.79 Y110.406 E49.67861
G1 X67.61 Y109.995 E49.69585
G1 X67.506 Y109.559 E49.71307
G1 X67.48 Y109.195 E49.72709
G1 X67.48 Y16.195 E53.29973
G1 X67.52 Y15.748 E53.31697
G1 X67.638 Y15.316 E53.33417
M204 S3000
M205 X10 Y10
G0 F1800 X68.08 Y15.802
M204 S1800
M205 X8 Y8
G1 F2400 X68.198 Y15.424 E53.34938
G1 X68.389 Y15.078 E53.36456
G1 X68.646 Y14.777 E53.37977
G1 X68.959 Y14.535 E53.39497
G1 X69.313 Y14.359 E53.41016
G1 X69.696 Y14.259 E53.42536
G1 X140 Y14.235 E56.12612
G1 X140.771 Y14.393 E56.15636
G1 X141.117 Y14.584 E56.17154
G1 X141.418 Y14.841 E56.18674
G1 X141.66 Y15.154 E56.20194
G1 X141.836 Y15.508 E56.21713
G1 X141.936 Y15.891 E56.23234
G1 X141.96 Y109.195 E59.81665
G1 X141.92 Y109.588 E59.83183
G1 X141.802 Y109.966 E59.84704
G1 X141.611 Y110.312 E59.86222
G1 X141.354 Y110.613 E59.87743
G1 X141.041 Y110.855 E59.89262
G1 X140.687 Y111.031 E59.90781
G1 X140.304 Y111.131 E59.92302
G1 X70 Y111.155 E62.62378
G1 X69.607 Y111.115 E62.63895
G1 X69.229 Y110.997 E62.65417
G1 X68.883 Y110.806 E62.66935
G1 X68.582 Y110.549 E62.68455
G1 X68.34 Y110.236 E62.69975
G1 X68.164 Y109.882 E62.71494
G1 X68.064 Y109.499 E62.73014
G1 X68.04 Y16.195 E66.31446
G1 X68.08 Y15.802 E66.32964
M204 S3000
M205 X10 Y10
G0 F1800 X68.64 Y15.863
M204 S1800
M205 X8 Y8
G1 F2400 X68.757 Y15.551 E66.34244
G1 X68.945 Y15.274 E66.3553
G1 X69.193 Y15.051 E66.36811
G1 X69.487 Y14.892 E66.38095
G1 X70 Y14.795 E66.40101
G1 X140 Y14.795 E69.09009
G1 X140.644 Y14.952 E69.11555
G1 X140.921 Y15.14 E69.12841
G1 X141.144 Y15.388 E69.14122
G1 X141.303 Y15.682 E69.15406
G1 X141.4 Y16.195 E69.17412
G1 X141.4 Y109.195 E72.74676
G1 X141.36 Y109.527 E72.7596
G1 X141.243 Y109.839 E72.7724
G1 X141.055 Y110.116 E72.78526
G1 X140.807 Y110.339 E72.79808
G1 X140.513 Y110.498 E72.81092
G1 X140 Y110.595 E72.83097
G1 X70 Y110.595 E75.52006
G1 X69.668 Y110.555 E75.5329
G1 X69.356 Y110.438 E75.5457
G1 X69.079 Y110.25 E75.55856
G1 X68.856 Y110.002 E75.57137
G1 X68.697 Y109.708 E75.58421
G1 X68.6 Y109.195 E75.60427
G1 X68.6 Y16.195 E79.17691
G1 X68.64 Y15.863 E79.18975
M204 S3000
M205 X10 Y10
G0 F1800 X69.2 Y15.94
M204 S1800
M205 X8 Y8
G1 F2400 X69.315 Y15.708 E79.1997
G1 X69.496 Y15.523 E79.20964
G1 X69.724 Y15.402 E79.21956
G1 X70 Y15.355 E79.23032
G1 X140 Y15.355 E81.9194
G1 X140.487 Y15.51 E81.93903
G1 X140.672 Y15.691 E81.94897
G1 X140.793 Y15.919 E81.95889
G1 X140.84 Y16.195 E81.96964
G1 X140.84 Y109.195 E85.54228
G1 X140.8 Y109.45 E85.5522
G1 X140.685 Y109.682 E85.56214
G1 X140.504 Y109.867 E85.57209
G1 X140.276 Y109.988 E85.582
G1 X140 Y110.035 E85.59276
G1 X70 Y110.035 E88.28184
G1 X69.745 Y109.995 E88.29176
G1 X69.513 Y109.88 E88.3017
G1 X69.328 Y109.699 E88.31165
G1 X69.207 Y109.471 E88.32156
G1 X69.16 Y109.195 E88.33232
G1 X69.16 Y16.195 E91.90495
G1 X69.2 Y15.94 E91.91487
M204 S3000
M205 X10 Y10
G0 F1800 X69.759 Y16.052
M204 S1800
M205 X8 Y8
G1 F2400 X69.866 Y15.949 E91.92057
G1 X70 Y15.915 E91.92589
G1 X140 Y15.915 E94.61497
G1 X140.246 Y16.061 E94.62596
G1 X140.28 Y16.195 E94.63127
G1 X140.28 Y109.195 E98.20391
G1 X140.241 Y109.338 E98.2096
G1 X140.134 Y109.441 E98.2153
G1 X140 Y109.475 E98.22062
G1 X70 Y109.475 E100.9097
G1 X69.857 Y109.436 E100.91539
G1 X69.754 Y109.329 E100.9211
G1 X69.72 Y109.195 E100.92641
G1 X69.72 Y16.195 E104.49904
G1 X69.759 Y16.052 E104.50474
M204 S3000
M205 X10 Y10
;MESH:Cluster-Raspberry-2.0-plataforma-lcd.stl
G0 F1800 X70.671 Y16.855
G0 X70.74 Y16.927
M204 S1800
M205 X8 Y8
;TYPE:WALL-OUTER
G1 F900 X70.422 Y17.359 E104.52535
G1 X70.28 Y17.756 E104.54154
G1 X70.28 Y17.359 E104.54328
G1 X70.28 Y16.927 E104.5517
G1 X70.28 Y16.475 E104.56906
G1 X70.74 Y16.475 E104.58673
G1 X71.301 Y16.475 E104.60828
G1 X71.597 Y16.475 E104.61965
G1 X71.301 Y16.55 E104.62069
G1 X70.74 Y16.927 E104.63461
M204 S3000
M205 X10 Y10
G0 F1800 X70.622 Y17.088
G1 F2400 E98.63461
G1 F600 Z0.225
G0 F1800 X70.84 Y16.754 Z0.225
G0 X138.993 Y16.71
M204 S1800
M205 X8 Y8
G1 F600 Z0.15
G1 F2400 E104.63461
G1 F900 X138.52 Y16.486 E104.65471
G1 X138.99 Y16.482 E104.65796
G1 X139.72 Y16.475 E104.68601
G1 X139.72 Y17.062 E104.70856
G1 X139.72 Y17.511 E104.72581
G1 X139.72 Y17.79 E104.73652
G1 X139.65 Y17.511 E104.73743
G1 X139.381 Y17.062 E104.7461
G1 X138.993 Y16.71 E104.76623
M204 S3000
M205 X10 Y10
G0 F1800 X138.813 Y16.625
G1 F2400 E98.76623
G1 F600 Z0.225
G0 F1800 X139.575 Y108.038 Z0.225
M204 S1800
M205 X8 Y8
G1 F600 Z0.15
G1 F2400 E104.76623
G1 F900 X139.72 Y107.63 E104.78286
G1 X139.72 Y108.038 E104.78469
G1 X139.72 Y108.458 E104.8006
G1 X139.72 Y108.915 E104.81816
G1 X139.263 Y108.915 E104.83572
G1 X138.844 Y108.915 E104.85181
G1 X138.439 Y108.915 E104.86737
G1 X138.844 Y108.77 E104.87015
G1 X139.263 Y108.458 E104.88227
G1 X139.575 Y108.038 E104.8944
M204 S3000
M205 X10 Y10
G0 F1800 X139.641 Y107.85
G1 F2400 E98.8944
G0 F1800 X139.67 Y107.905
G0 X138.969 Y108.701
G0 X135.931 Y107.833
G0 X71.776 Y105.024
G0 X71.308 Y105.551
M204 S1800
M205 X8 Y8
G1 F2400 E104.8944
G1 F900 X70.816 Y105.883 E104.9172
G1 X70.736 Y105.937 E104.92091
G1 X70.425 Y106.357 E104.94099
G1 X70.28 Y106.761 E104.95748
G1 X70.28 Y106.357 E104.95929
G1 X70.28 Y105.937 E104.96745
G1 X70.28 Y105.84 E104.97088
G1 X70.28 Y19.571 E108.28494
G1 X70.28 Y19.329 E108.29424
G1 X70.28 Y18.876 E108.31164
G1 X70.28 Y18.596 E108.32239
G1 X70.351 Y18.876 E108.32331
G1 X70.625 Y19.329 E108.33222
G1 X70.804 Y19.491 E108.33987
G1 X71.007 Y19.676 E108.35042
G1 X71.487 Y19.901 E108.37078
G1 X71.999 Y19.976 E108.39066
G1 X72.523 Y19.895 E108.41103
G1 X72.995 Y19.671 E108.4311
G1 X73.381 Y19.316 E108.45125
G1 X73.648 Y18.868 E108.47128
G1 X73.773 Y18.368 E108.49108
G1 X73.747 Y17.845 E108.5112
G1 X73.571 Y17.351 E108.53134
G1 X73.319 Y17.013 E108.54754
G1 X73.258 Y16.932 E108.55143
G1 X72.838 Y16.62 E108.57153
G1 X72.431 Y16.475 E108.58813
G1 X72.838 Y16.475 E108.58995
G1 X73.258 Y16.475 E108.59813
G1 X73.36 Y16.475 E108.60173
G1 X136.623 Y16.475 E111.032
G1 X136.872 Y16.475 E111.04157
G1 X137.325 Y16.475 E111.05897
G1 X137.658 Y16.475 E111.07176
G1 X137.325 Y16.542 E111.07271
G1 X136.872 Y16.814 E111.08142
G1 X136.705 Y16.998 E111.08925
G1 X136.519 Y17.202 E111.09985
G1 X136.294 Y17.683 E111.12025
G1 X136.219 Y18.201 E111.14036
G1 X136.296 Y18.711 E111.16017
G1 X136.524 Y19.19 E111.18055
G1 X136.878 Y19.575 E111.20064
G1 X137.32 Y19.84 E111.22044
G1 X137.828 Y19.967 E111.24056
G1 X138.358 Y19.94 E111.26094
G1 X138.844 Y19.766 E111.28077
G1 X139.182 Y19.514 E111.29697
G1 X139.263 Y19.453 E111.30086
G1 X139.575 Y19.033 E111.32096
G1 X139.72 Y18.626 E111.33756
G1 X139.72 Y19.033 E111.33938
G1 X139.72 Y19.453 E111.34756
G1 X139.72 Y19.555 E111.35116
G1 X139.72 Y105.819 E114.66503
G1 X139.72 Y106.066 E114.67452
G1 X139.72 Y106.507 E114.69146
G1 X139.72 Y106.796 E114.70256
G1 X139.646 Y106.507 E114.70357
G1 X139.38 Y106.066 E114.7122
G1 X139.197 Y105.901 E114.71997
G1 X138.986 Y105.71 E114.7309
G1 X138.512 Y105.489 E114.75099
G1 X137.987 Y105.413 E114.77137
G1 X137.325 Y105.546 E114.79731
G1 X136.871 Y105.819 E114.81766
G1 X136.519 Y106.207 E114.83778
G1 X136.294 Y106.688 E114.85818
G1 X136.219 Y107.205 E114.87825
G1 X136.298 Y107.723 E114.89838
G1 X136.52 Y108.189 E114.91821
G1 X136.705 Y108.392 E114.92876
G1 X136.872 Y108.576 E114.93831
G1 X137.32 Y108.845 E114.95838
G1 X137.604 Y108.915 E114.96962
G1 X137.32 Y108.915 E114.97023
G1 X136.872 Y108.915 E114.97604
G1 X136.623 Y108.915 E114.98388
G1 X73.421 Y108.905 E117.41182
G1 X72.988 Y108.905 E117.42845
G1 X72.515 Y108.904 E117.44662
G1 X72.988 Y108.68 E117.45181
G1 X73.309 Y108.389 E117.46381
G1 X73.376 Y108.328 E117.46729
G1 X73.648 Y107.871 E117.48772
G1 X73.773 Y107.364 E117.50778
G1 X73.747 Y106.849 E117.52759
G1 X73.566 Y106.35 E117.54798
G1 X73.252 Y105.931 E117.5681
G1 X72.831 Y105.621 E117.58818
G1 X72.344 Y105.448 E117.60803
G1 X71.816 Y105.424 E117.62834
G1 X71.308 Y105.551 E117.64845
M204 S3000
M205 X10 Y10
G0 F1800 X71.143 Y105.662
G1 F2400 E111.64845
G0 F1800 X70.886 Y105.282
G0 X70.514 Y108.193
G0 X71.013 Y108.685
M204 S1800
M205 X8 Y8
G1 F2400 E117.64845
G1 F900 X71.481 Y108.904 E117.6683
G1 X71.016 Y108.908 E117.67144
G1 X70.28 Y108.915 E117.69972
G1 X70.28 Y108.329 E117.72223
G1 X70.28 Y107.887 E117.73921
G1 X70.28 Y107.596 E117.75039
G1 X70.354 Y107.887 E117.7514
G1 X70.619 Y108.329 E117.76001
G1 X71.013 Y108.685 E117.78041
M204 S3000
M205 X10 Y10
G0 F1800 X71.194 Y108.769
G1 F2400 E111.78041
G0 F1800 X71.152 Y108.807
G0 X70.514 Y108.193
G0 X70.852 Y105.406
G0 X71.077 Y105.032
M204 S1800
M205 X8 Y8
;TYPE:WALL-INNER
G1 F2400 E117.78041
G1 F900 X70.84 Y105.192 E117.7914
G1 X70.84 Y105.032 E117.79152
G1 X70.84 Y104.826 E117.79943
G1 X70.84 Y20.486 E121.03939
G1 X70.84 Y20.443 E121.04104
G1 X70.84 Y20.216 E121.04976
G1 X71.324 Y20.443 E121.06306
G1 X71.366 Y20.449 E121.06461
G1 X72.001 Y20.542 E121.08926
G1 X72.689 Y20.436 E121.116
G1 X73.312 Y20.141 E121.14248
G1 X73.82 Y19.673 E121.16902
G1 X74.171 Y19.084 E121.19536
G1 X74.336 Y18.423 E121.22153
G1 X74.302 Y17.735 E121.24799
G1 X74.191 Y17.425 E121.26064
G1 X74.07 Y17.084 E121.27454
G1 X74.033 Y17.035 E121.2769
G1 X74.07 Y17.035
G1 X74.432 Y17.035 E121.28562
G1 X135.71 Y17.035 E123.63965
G1 X135.752 Y17.035 E123.64126
G1 X135.979 Y17.035 E123.64998
G1 X135.752 Y17.521 E123.66335
G1 X135.746 Y17.562 E123.66486
G1 X135.653 Y18.203 E123.68974
G1 X135.755 Y18.877 E123.71593
G1 X136.055 Y19.507 E123.74274
G1 X136.521 Y20.014 E123.76919
G1 X137.103 Y20.363 E123.79526
G1 X137.773 Y20.531 E123.82179
G1 X138.469 Y20.495 E123.84857
G1 X138.77 Y20.387 E123.86085
G1 X139.112 Y20.265 E123.8748
G1 X139.16 Y20.229 E123.87711
G1 X139.16 Y20.265
G1 X139.16 Y20.628 E123.88584
G1 X139.16 Y104.905 E127.12338
G1 X139.16 Y104.947 E127.125
G1 X139.16 Y105.173 E127.13368
G1 X138.674 Y104.947 E127.14705
G1 X138.633 Y104.941 E127.14856
G1 X137.972 Y104.845 E127.17422
G1 X137.12 Y105.016 E127.2076
G1 X136.512 Y105.382 E127.23486
G1 X136.048 Y105.893 E127.26138
G1 X135.752 Y106.526 E127.28822
G1 X135.653 Y107.207 E127.31466
G1 X135.749 Y107.836 E127.3391
G1 X135.757 Y107.889 E127.34116
G1 X135.979 Y108.355 E127.36099
G1 X135.757 Y108.355 E127.3623
G1 X135.703 Y108.355 E127.36425
G1 X74.363 Y108.345 E129.72065
G1 X74.172 Y108.345 E129.72799
G1 X74.018 Y108.344 E129.73391
G1 X74.172 Y108.086 E129.73952
G1 X74.217 Y107.901 E129.74529
