;FLAVOR:Marlin
;TIME:6866
;Filament used: 2.8004m
;Layer height: 0.1
;MINX:70.55
;MINY:11.509
;MINZ:0.15
;MAXX:139.45
;MAXY:80.909
;MAXZ:4.025
;Generated with Cura_SteamEngine 4.5.0
M140 S60
M105
M190 S60
M104 S200
M105
M109 S200
M82 ;absolute extrusion mode
G21 ;metric values
G90 ;absolute positioning
M82 ;set extruder to absolute mode
M107 ;start with the fan off
G28 X0 Y0 ;move X/Y to min endstops
G28 Z0 ;move Z to min endstops
G1 Z15.0 F100 ;move the platform down 15mm
G92 E0 ;zero the extruded length
G1 F200 E3 ;extrude 3mm of feed stock
G92 E0 ;zero the extruded length again
G1 F100
G0 Y20 F100
M117 Printing...
G5
G92 E0
G92 E0
G1 F2400 E-6
;LAYER_COUNT:39
;LAYER:0
M106 S255
M204 S3000
M205 X10 Y10
G1 F600 Z0.225
G0 F1800 X70.703 Y15.976 Z0.225
M204 S1800
M205 X8 Y8
;TYPE:SKIRT
G1 F600 Z0.15
G1 F2400 E0
G1 X70.842 Y15.414 E0.02224
G1 X71.155 Y14.688 E0.05261
G1 X71.698 Y13.779 E0.09329
G1 X72.142 Y13.272 E0.11918
G1 X72.876 Y12.614 E0.15704
G1 X73.382 Y12.295 E0.18002
G1 X74.274 Y11.864 E0.21808
G1 X74.969 Y11.674 E0.24576
G1 X75.483 Y11.58 E0.26583
G1 X76.239 Y11.511 E0.29499
G1 X103.937 Y11.509 E1.35903
G1 X104.599 Y11.528 E1.38447
G1 X105.035 Y11.571 E1.4013
G1 X105.657 Y11.522 E1.42527
G1 X133.437 Y11.509 E2.49245
G1 X134.099 Y11.528 E2.51789
G1 X134.676 Y11.587 E2.54017
G1 X135.232 Y11.722 E2.56215
G1 X135.709 Y11.873 E2.58137
G1 X136.247 Y12.085 E2.60358
G1 X136.751 Y12.369 E2.62581
G1 X137.454 Y12.88 E2.6592
G1 X137.831 Y13.255 E2.67962
G1 X138.182 Y13.652 E2.69998
G1 X138.534 Y14.111 E2.7222
G1 X138.904 Y14.8 E2.75224
G1 X139.258 Y15.741 E2.79087
G1 X139.367 Y16.291 E2.81241
G1 X139.45 Y17.208 E2.84778
G1 X139.45 Y45.208 E3.92341
G1 X139.385 Y45.942 E3.95172
G1 X139.344 Y46.173 E3.96073
G1 X139.417 Y46.682 E3.98048
G1 X139.45 Y47.208 E4.00073
G1 X139.45 Y75.208 E5.07636
G1 X139.386 Y75.937 E5.10447
G1 X139.297 Y76.442 E5.12417
G1 X139.158 Y77.004 E5.14641
G1 X138.845 Y77.73 E5.17678
G1 X138.302 Y78.639 E5.21746
G1 X137.858 Y79.146 E5.24335
G1 X137.124 Y79.804 E5.28122
G1 X136.619 Y80.122 E5.30414
G1 X135.719 Y80.559 E5.34258
G1 X134.993 Y80.755 E5.37147
G1 X134.481 Y80.845 E5.39144
G1 X133.759 Y80.908 E5.41928
G1 X132.915 Y80.909 E5.4517
G1 X105.751 Y80.909 E6.49522
G1 X105.023 Y80.845 E6.52329
G1 X104.249 Y80.909 E6.55313
G1 X76.251 Y80.909 E7.62868
G1 X75.522 Y80.845 E7.65679
G1 X75.017 Y80.756 E7.67649
G1 X74.455 Y80.617 E7.69873
G1 X73.729 Y80.304 E7.7291
G1 X72.82 Y79.761 E7.76978
G1 X72.313 Y79.317 E7.79567
G1 X71.655 Y78.583 E7.83354
G1 X71.337 Y78.078 E7.85646
G1 X70.9 Y77.178 E7.8949
G1 X70.704 Y76.452 E7.92379
G1 X70.614 Y75.94 E7.94376
G1 X70.551 Y75.218 E7.9716
G1 X70.55 Y74.374 E8.00402
G1 X70.55 Y47.21 E9.04754
G1 X70.613 Y46.484 E9.07553
G1 X70.655 Y46.243 E9.08493
G1 X70.583 Y45.736 E9.1046
G1 X70.55 Y45.21 E9.12485
G1 X70.55 Y17.21 E10.20048
G1 X70.614 Y16.481 E10.22859
G1 X70.703 Y15.976 E10.24829
M204 S3000
M205 X10 Y10
G0 F1800 X71.254 Y16.073
M204 S1800
M205 X8 Y8
G1 F2400 X71.387 Y15.551 E10.26899
G1 X71.646 Y14.957 E10.29388
G1 X72.17 Y14.083 E10.33303
G1 X72.532 Y13.674 E10.35401
G1 X73.237 Y13.043 E10.39036
G1 X74.009 Y12.595 E10.42464
G1 X74.502 Y12.376 E10.44537
G1 X75.07 Y12.224 E10.46795
G1 X75.584 Y12.13 E10.48803
G1 X76.239 Y12.071 E10.51329
G1 X103.937 Y12.069 E11.57732
G1 X104.581 Y12.088 E11.60207
G1 X105.079 Y12.129 E11.62127
G1 X105.701 Y12.08 E11.64524
G1 X133.437 Y12.069 E12.71073
G1 X134.081 Y12.088 E12.73548
G1 X134.618 Y12.145 E12.75622
G1 X135.54 Y12.407 E12.79305
G1 X136.04 Y12.607 E12.81373
G1 X136.686 Y12.997 E12.84272
G1 X137.113 Y13.326 E12.86343
G1 X137.762 Y14.023 E12.90001
G1 X138.088 Y14.452 E12.92071
G1 X138.388 Y15.018 E12.94532
G1 X138.727 Y15.922 E12.98241
G1 X138.86 Y16.744 E13.0144
G1 X138.89 Y17.208 E13.03226
G1 X138.89 Y45.208 E14.10789
G1 X138.834 Y45.844 E14.13242
G1 X138.776 Y46.173 E14.14525
G1 X138.861 Y46.752 E14.16773
G1 X138.89 Y47.208 E14.18529
G1 X138.89 Y75.208 E15.26092
G1 X138.835 Y75.84 E15.28529
G1 X138.746 Y76.345 E15.30499
G1 X138.613 Y76.867 E15.32568
G1 X138.354 Y77.461 E15.35058
G1 X137.83 Y78.335 E15.38972
G1 X137.468 Y78.744 E15.41071
G1 X136.763 Y79.375 E15.44705
G1 X135.983 Y79.828 E15.4817
G1 X135.49 Y80.046 E15.50241
G1 X134.896 Y80.203 E15.52601
G1 X134.384 Y80.293 E15.54598
G1 X133.758 Y80.348 E15.57012
G1 X132.914 Y80.349 E15.60255
G1 X105.751 Y80.349 E16.64603
G1 X105.114 Y80.293 E16.67059
G1 X104.249 Y80.349 E16.70389
G1 X76.251 Y80.349 E17.77945
G1 X75.619 Y80.294 E17.80382
G1 X75.114 Y80.205 E17.82352
G1 X74.592 Y80.072 E17.84421
G1 X73.998 Y79.813 E17.8691
G1 X73.124 Y79.289 E17.90825
G1 X72.715 Y78.927 E17.92923
G1 X72.084 Y78.222 E17.96558
G1 X71.631 Y77.442 E18.00023
G1 X71.413 Y76.949 E18.02094
G1 X71.256 Y76.355 E18.04454
G1 X71.166 Y75.843 E18.06451
G1 X71.111 Y75.217 E18.08865
G1 X71.11 Y74.373 E18.12107
G1 X71.11 Y47.21 E19.16455
G1 X71.165 Y46.581 E19.18881
G1 X71.224 Y46.245 E19.20191
G1 X71.139 Y45.666 E19.22439
G1 X71.11 Y45.21 E19.24195
G1 X71.11 Y17.21 E20.31758
G1 X71.165 Y16.578 E20.34195
G1 X71.254 Y16.073 E20.36165
M204 S3000
M205 X10 Y10
G0 F1800 X71.806 Y16.17
M204 S1800
M205 X8 Y8
G1 F2400 X71.931 Y15.69 E20.3807
G1 X72.137 Y15.226 E20.4002
G1 X72.641 Y14.39 E20.4377
G1 X73.215 Y13.791 E20.46958
G1 X73.597 Y13.475 E20.48862
G1 X74.273 Y13.089 E20.51852
G1 X74.728 Y12.891 E20.53759
G1 X75.685 Y12.681 E20.57523
G1 X76.239 Y12.631 E20.59659
G1 X103.937 Y12.629 E21.66063
G1 X104.563 Y12.648 E21.68468
G1 X105.123 Y12.688 E21.70625
G1 X105.745 Y12.639 E21.73022
G1 X133.437 Y12.629 E22.79402
G1 X134.063 Y12.648 E22.81808
G1 X134.556 Y12.703 E22.83714
G1 X135.371 Y12.941 E22.86975
G1 X135.83 Y13.128 E22.88879
G1 X136.378 Y13.465 E22.91351
G1 X136.769 Y13.77 E22.93256
G1 X137.342 Y14.394 E22.9651
G1 X137.64 Y14.791 E22.98417
G1 X137.872 Y15.236 E23.00345
G1 X138.194 Y16.1 E23.03887
G1 X138.305 Y16.815 E23.06667
G1 X138.33 Y45.208 E24.1574
G1 X138.283 Y45.746 E24.17814
G1 X138.208 Y46.169 E24.19465
G1 X138.306 Y46.822 E24.22001
G1 X138.33 Y75.208 E25.31047
G1 X138.283 Y75.743 E25.33111
G1 X138.194 Y76.248 E25.3508
G1 X138.069 Y76.728 E25.36986
G1 X137.863 Y77.192 E25.38936
G1 X137.359 Y78.028 E25.42686
G1 X136.785 Y78.627 E25.45873
G1 X136.403 Y78.943 E25.47778
G1 X135.719 Y79.334 E25.50804
G1 X135.264 Y79.532 E25.5271
G1 X134.287 Y79.741 E25.56549
G1 X133.758 Y79.788 E25.58589
G1 X132.914 Y79.789 E25.61831
G1 X105.751 Y79.789 E26.66179
G1 X105.212 Y79.741 E26.68258
G1 X105.015 Y79.717 E26.6902
G1 X104.249 Y79.789 E26.71976
G1 X76.251 Y79.789 E27.79531
G1 X75.716 Y79.742 E27.81594
G1 X75.211 Y79.653 E27.83564
G1 X74.731 Y79.528 E27.8547
G1 X74.267 Y79.322 E27.8742
G1 X73.431 Y78.818 E27.9117
G1 X72.832 Y78.244 E27.94357
G1 X72.516 Y77.862 E27.96262
G1 X72.125 Y77.178 E27.99288
G1 X71.927 Y76.723 E28.01194
G1 X71.718 Y75.746 E28.05033
G1 X71.671 Y75.217 E28.07073
G1 X71.67 Y74.373 E28.10315
G1 X71.67 Y47.21 E29.14663
G1 X71.716 Y46.677 E29.16718
G1 X71.791 Y46.248 E29.18391
G1 X71.694 Y45.596 E29.20923
G1 X71.67 Y17.21 E30.29969
G1 X71.717 Y16.675 E30.32033
G1 X71.806 Y16.17 E30.34002
M204 S3000
M205 X10 Y10
G0 F1800 X72.357 Y16.268
M204 S1800
M205 X8 Y8
G1 F2400 X72.474 Y15.835 E30.35726
G1 X72.86 Y15.073 E30.39007
G1 X73.109 Y14.7 E30.4073
G1 X73.605 Y14.193 E30.43454
G1 X74.174 Y13.776 E30.46164
G1 X74.95 Y13.407 E30.49465
G1 X75.786 Y13.232 E30.52747
G1 X76.239 Y13.191 E30.54494
G1 X103.937 Y13.189 E31.60897
G1 X104.545 Y13.207 E31.63234
G1 X105.016 Y13.269 E31.65059
G1 X105.789 Y13.197 E31.68041
G1 X133.437 Y13.189 E32.74252
G1 X134.045 Y13.207 E32.76589
G1 X134.725 Y13.324 E32.79239
G1 X135.202 Y13.475 E32.81161
G1 X135.827 Y13.772 E32.8382
G1 X136.07 Y13.932 E32.84937
G1 X136.572 Y14.368 E32.87492
G1 X136.923 Y14.765 E32.89527
G1 X137.189 Y15.126 E32.9125
G1 X137.522 Y15.846 E32.94297
G1 X137.7 Y16.506 E32.96923
G1 X137.77 Y17.208 E32.99633
G1 X137.77 Y45.208 E34.07197
G1 X137.641 Y46.155 E34.10868
G1 X137.75 Y46.892 E34.1373
G1 X137.77 Y75.208 E35.22508
G1 X137.643 Y76.15 E35.26159
G1 X137.526 Y76.583 E35.27882
G1 X137.14 Y77.345 E35.31163
G1 X136.891 Y77.718 E35.32886
G1 X136.395 Y78.225 E35.35611
G1 X135.827 Y78.641 E35.38316
G1 X135.042 Y79.016 E35.41658
G1 X134.19 Y79.19 E35.44998
G1 X132.913 Y79.229 E35.49906
G1 X105.751 Y79.229 E36.5425
G1 X105.047 Y79.143 E36.56975
G1 X104.249 Y79.229 E36.60058
G1 X76.251 Y79.229 E37.67614
G1 X75.309 Y79.102 E37.71265
G1 X74.876 Y78.985 E37.72988
G1 X74.114 Y78.599 E37.7627
G1 X73.741 Y78.35 E37.77992
G1 X73.234 Y77.854 E37.80717
G1 X72.818 Y77.286 E37.83422
G1 X72.443 Y76.501 E37.86764
G1 X72.269 Y75.649 E37.90104
G1 X72.23 Y74.372 E37.95012
G1 X72.23 Y47.21 E38.99356
G1 X72.357 Y46.267 E39.03012
G1 X72.375 Y46.199 E39.03282
G1 X72.25 Y45.526 E39.05911
G1 X72.23 Y17.21 E40.14689
G1 X72.357 Y16.268 E40.1834
M204 S3000
M205 X10 Y10
G0 F1800 X72.909 Y16.365
M204 S1800
M205 X8 Y8
G1 F2400 X73.016 Y15.984 E40.1986
G1 X73.351 Y15.342 E40.22642
G1 X73.703 Y14.878 E40.2488
G1 X73.995 Y14.594 E40.26444
G1 X74.438 Y14.27 E40.28553
G1 X75.167 Y13.926 E40.31649
G1 X75.886 Y13.783 E40.34466
G1 X76.239 Y13.751 E40.35827
G1 X103.937 Y13.749 E41.4223
G1 X104.527 Y13.767 E41.44498
G1 X104.982 Y13.836 E41.46266
G1 X105.833 Y13.755 E41.4955
G1 X133.437 Y13.749 E42.55592
G1 X134.027 Y13.767 E42.57859
G1 X134.556 Y13.857 E42.59921
G1 X135.033 Y14.008 E42.61843
G1 X135.519 Y14.24 E42.63912
G1 X136.152 Y14.739 E42.67008
G1 X136.503 Y15.136 E42.69044
G1 X136.841 Y15.671 E42.71475
G1 X137.007 Y16.064 E42.73114
G1 X137.145 Y16.577 E42.75154
G1 X137.21 Y17.208 E42.77591
G1 X137.21 Y45.208 E43.85154
G1 X137.09 Y46.058 E43.88452
G1 X137.047 Y46.209 E43.89055
G1 X137.147 Y46.582 E43.90539
G1 X137.21 Y47.208 E43.92956
G1 X137.21 Y75.208 E45.00519
G1 X137.091 Y76.053 E45.03797
G1 X136.984 Y76.434 E45.05317
G1 X136.649 Y77.076 E45.08099
G1 X136.297 Y77.54 E45.10337
G1 X136.005 Y77.824 E45.11901
G1 X135.563 Y78.147 E45.14004
G1 X134.825 Y78.497 E45.17142
G1 X134.093 Y78.638 E45.20006
G1 X132.912 Y78.669 E45.24544
G1 X105.751 Y78.669 E46.28884
G1 X105.014 Y78.569 E46.31742
G1 X104.493 Y78.654 E46.3377
G1 X76.251 Y78.669 E47.42262
G1 X75.406 Y78.55 E47.45541
G1 X75.025 Y78.443 E47.47061
G1 X74.383 Y78.108 E47.49843
G1 X73.919 Y77.756 E47.5208
G1 X73.635 Y77.464 E47.53645
G1 X73.312 Y77.022 E47.55748
G1 X72.962 Y76.284 E47.58886
G1 X72.821 Y75.552 E47.61749
G1 X72.79 Y74.371 E47.66288
G1 X72.79 Y47.21 E48.70628
G1 X72.909 Y46.364 E48.7391
G1 X72.952 Y46.209 E48.74528
G1 X72.853 Y45.836 E48.7601
G1 X72.79 Y45.21 E48.78427
G1 X72.79 Y17.21 E49.85991
G1 X72.909 Y16.365 E49.89269
M204 S3000
M205 X10 Y10
G0 F1800 X73.46 Y16.462
M204 S1800
M205 X8 Y8
G1 F2400 X73.611 Y16.033 E49.91016
G1 X73.842 Y15.611 E49.92864
G1 X74.094 Y15.279 E49.94465
G1 X74.386 Y14.995 E49.9603
G1 X74.702 Y14.764 E49.97534
G1 X75.065 Y14.57 E49.99115
G1 X75.473 Y14.428 E50.00774
G1 X75.987 Y14.334 E50.02782
G1 X103.937 Y14.309 E51.10153
G1 X104.509 Y14.327 E51.12351
G1 X104.996 Y14.425 E51.1426
G1 X105.255 Y14.362 E51.15284
G1 X105.877 Y14.313 E51.1768
G1 X133.437 Y14.309 E52.23553
G1 X134.009 Y14.327 E52.25752
G1 X134.387 Y14.391 E52.27225
G1 X134.864 Y14.542 E52.29147
G1 X135.454 Y14.868 E52.31736
G1 X135.733 Y15.11 E52.33155
G1 X136.084 Y15.507 E52.35191
G1 X136.325 Y15.889 E52.36926
G1 X136.491 Y16.282 E52.38565
G1 X136.59 Y16.648 E52.40021
G1 X136.65 Y17.208 E52.42185
G1 X136.65 Y45.208 E53.49748
G1 X136.538 Y45.96 E53.52669
G1 X136.461 Y46.212 E53.53681
G1 X136.591 Y46.653 E53.55447
G1 X136.65 Y47.208 E53.57591
G1 X136.65 Y75.208 E54.65155
G1 X136.54 Y75.956 E54.68059
G1 X136.389 Y76.385 E54.69806
G1 X136.158 Y76.807 E54.71654
G1 X135.906 Y77.139 E54.73255
G1 X135.614 Y77.423 E54.7482
G1 X135.298 Y77.653 E54.76322
G1 X134.926 Y77.852 E54.77942
G1 X134.508 Y77.997 E54.79642
G1 X133.996 Y78.087 E54.81639
G1 X132.912 Y78.109 E54.85804
G1 X105.751 Y78.109 E55.90144
G1 X105.003 Y77.998 E55.93049
G1 X104.424 Y78.098 E55.95306
G1 X76.251 Y78.109 E57.03534
G1 X75.503 Y77.999 E57.06439
G1 X75.074 Y77.848 E57.08186
G1 X74.652 Y77.617 E57.10034
G1 X74.32 Y77.365 E57.11635
G1 X74.036 Y77.073 E57.132
G1 X73.806 Y76.757 E57.14701
G1 X73.607 Y76.385 E57.16322
G1 X73.462 Y75.967 E57.18022
G1 X73.372 Y75.455 E57.20019
G1 X73.35 Y74.371 E57.24184
G1 X73.35 Y47.21 E58.28524
G1 X73.46 Y46.461 E58.31432
G1 X73.537 Y46.206 E58.32455
G1 X73.409 Y45.765 E58.34219
G1 X73.35 Y45.21 E58.36364
G1 X73.35 Y17.21 E59.43927
G1 X73.46 Y16.462 E59.46831
M204 S3000
M205 X10 Y10
G0 F1800 X74.012 Y16.559
M204 S1800
M205 X8 Y8
G1 F2400 X74.102 Y16.302 E59.47877
G1 X74.484 Y15.681 E59.50678
G1 X74.966 Y15.258 E59.53142
G1 X75.574 Y14.979 E59.55711
G1 X76.088 Y14.885 E59.57719
G1 X103.937 Y14.869 E60.64702
G1 X104.491 Y14.886 E60.66831
G1 X104.981 Y15.008 E60.68771
G1 X105.299 Y14.921 E60.70038
G1 X105.921 Y14.872 E60.72434
G1 X133.464 Y14.869 E61.78242
G1 X133.991 Y14.886 E61.80268
G1 X134.695 Y15.076 E61.83069
G1 X135.146 Y15.335 E61.85067
G1 X135.664 Y15.878 E61.8795
G1 X135.809 Y16.107 E61.88991
G1 X136.034 Y16.72 E61.91499
G1 X136.09 Y17.208 E61.93386
G1 X136.09 Y45.208 E63.0095
G1 X135.987 Y45.862 E63.03493
G1 X135.849 Y46.198 E63.04888
G1 X136.035 Y46.723 E63.07028
G1 X136.09 Y47.208 E63.08903
G1 X136.09 Y75.208 E64.16466
G1 X135.988 Y75.859 E64.18998
G1 X135.898 Y76.116 E64.20044
G1 X135.516 Y76.737 E64.22845
G1 X135.034 Y77.16 E64.25308
G1 X134.662 Y77.359 E64.26929
G1 X134.411 Y77.445 E64.27948
G1 X133.899 Y77.535 E64.29945
G1 X132.911 Y77.549 E64.33741
G1 X105.752 Y77.549 E65.38073
G1 X105.098 Y77.446 E65.40617
G1 X104.957 Y77.435 E65.4116
G1 X104.354 Y77.542 E65.43513
G1 X76.251 Y77.549 E66.51472
G1 X75.6 Y77.447 E66.54003
G1 X75.343 Y77.357 E66.55049
G1 X74.722 Y76.975 E66.5785
G1 X74.299 Y76.493 E66.60313
G1 X74.1 Y76.121 E66.61934
G1 X74.014 Y75.87 E66.62953
G1 X73.924 Y75.358 E66.6495
G1 X73.91 Y74.37 E66.68746
G1 X73.91 Y47.211 E67.73079
G1 X74.012 Y46.558 E67.75618
G1 X74.15 Y46.219 E67.77024
G1 X73.965 Y45.695 E67.79159
G1 X73.91 Y45.21 E67.81034
G1 X73.91 Y17.21 E68.88597
G1 X74.012 Y16.559 E68.91128
M204 S3000
M205 X10 Y10
G0 F1800 X74.563 Y16.656
M204 S1800
M205 X8 Y8
G1 F2400 X74.824 Y16.149 E68.93319
G1 X75.23 Y15.752 E68.955
G1 X75.675 Y15.53 E68.97411
G1 X76.189 Y15.436 E68.99418
G1 X103.937 Y15.429 E70.06013
G1 X104.473 Y15.446 E70.08073
G1 X105.008 Y15.604 E70.10216
G1 X105.343 Y15.479 E70.1159
G1 X105.965 Y15.43 E70.13987
G1 X133.446 Y15.429 E71.19556
G1 X133.973 Y15.446 E71.21582
G1 X134.526 Y15.61 E71.23798
G1 X134.894 Y15.852 E71.2549
G1 X135.245 Y16.249 E71.27525
G1 X135.459 Y16.718 E71.29506
G1 X135.53 Y17.208 E71.31408
G1 X135.53 Y45.208 E72.38971
G1 X135.436 Y45.764 E72.41137
G1 X135.199 Y46.195 E72.43027
G1 X135.303 Y46.343 E72.43722
G1 X135.48 Y46.793 E72.45579
G1 X135.53 Y47.208 E72.47185
G1 X135.53 Y75.208 E73.54748
G1 X135.437 Y75.762 E73.56906
G1 X135.176 Y76.269 E73.59097
G1 X134.77 Y76.666 E73.61278
G1 X134.314 Y76.894 E73.63237
G1 X133.802 Y76.984 E73.65234
G1 X132.91 Y76.989 E73.6866
G1 X105.751 Y76.989 E74.72993
G1 X105.196 Y76.895 E74.75155
G1 X104.996 Y76.811 E74.75989
G1 X104.666 Y76.939 E74.77348
G1 X104.249 Y76.989 E74.78962
G1 X76.251 Y76.989 E75.86517
G1 X75.697 Y76.896 E75.88675
G1 X75.19 Y76.635 E75.90866
G1 X74.793 Y76.229 E75.93047
G1 X74.565 Y75.773 E75.95006
G1 X74.475 Y75.261 E75.97003
G1 X74.47 Y74.369 E76.0043
G1 X74.47 Y47.21 E77.04762
G1 X74.563 Y46.655 E77.06924
G1 X74.799 Y46.227 E77.08802
G1 X74.695 Y46.074 E77.09512
G1 X74.52 Y45.625 E77.11363
G1 X74.47 Y45.21 E77.12969
G1 X74.47 Y17.21 E78.20532
G1 X74.563 Y16.656 E78.2269
M204 S3000
M205 X10 Y10
G1 F2400 E72.2269
;MESH:raspberry-cluster (3).stl
G0 F1800 X75.409 Y17.267
G0 X76.003 Y46.247
G0 X75.498 Y46.225
M204 S1800
M205 X8 Y8
;TYPE:WALL-OUTER
G1 F2400 E78.2269
G1 F900 X75.202 Y45.83 E78.24587
G1 X75.071 Y45.516 E78.25894
G1 X75.03 Y45.19 E78.27156
G1 X75.03 Y17.235 E79.34546
G1 X75.107 Y16.797 E79.36255
G1 X75.294 Y16.456 E79.37749
G1 X75.53 Y16.226 E79.39015
G1 X75.821 Y16.071 E79.40281
G1 X76.26 Y15.991 E79.41995
G1 X103.928 Y15.989 E80.48283
G1 X104.417 Y16.005 E80.50163
G1 X104.823 Y16.133 E80.51798
