;FLAVOR:Marlin
;TIME:989
;Filament used: 0.420742m
;Layer height: 0.1
;MINX:85.865
;MINY:14.204
;MINZ:0.15
;MAXX:124.146
;MAXY:60.795
;MAXZ:2.025
;Generated with Cura_SteamEngine 4.5.0
M140 S60
M105
M190 S60
M104 S200
M105
M109 S200
M82 ;absolute extrusion mode
G21 ;metric values
G90 ;absolute positioning
M82 ;set extruder to absolute mode
M107 ;start with the fan off
G28 X0 Y0 ;move X/Y to min endstops
G28 Z0 ;move Z to min endstops
G1 Z15.0 F100 ;move the platform down 15mm
G92 E0 ;zero the extruded length
G1 F200 E3 ;extrude 3mm of feed stock
G92 E0 ;zero the extruded length again
G1 F100
G0 Y20 F100
M117 Printing...
G5
G92 E0
G92 E0
G1 F2400 E-6
;LAYER_COUNT:19
;LAYER:0
M106 S255
M204 S3000
M205 X10 Y10
G1 F600 Z0.225
G0 F1800 X86.326 Y31.339 Z0.225
M204 S1800
M205 X8 Y8
;TYPE:SKIRT
G1 F600 Z0.15
G1 F2400 E0
G1 X86.706 Y30.365 E0.04016
G1 X87.173 Y29.466 E0.07908
G1 X87.489 Y28.908 E0.10372
G1 X87.689 Y28.591 E0.11811
G1 X87.924 Y27.868 E0.14732
G1 X88.114 Y27.258 E0.17186
G1 X88.265 Y26.81 E0.19002
G1 X88.461 Y25.99 E0.22241
G1 X88.682 Y25.276 E0.25112
G1 X89.113 Y24.218 E0.29501
G1 X89.413 Y23.628 E0.32044
G1 X90.225 Y22.392 E0.37725
G1 X90.783 Y21.701 E0.41137
G1 X92.001 Y20.525 E0.47641
G1 X92.837 Y19.863 E0.51737
G1 X93.336 Y19.538 E0.54025
G1 X93.833 Y19.263 E0.56207
G1 X94.338 Y18.959 E0.58471
G1 X94.77 Y18.689 E0.60428
G1 X95.324 Y18.304 E0.6302
G1 X96.338 Y17.697 E0.6756
G1 X97.2 Y17.248 E0.71294
G1 X97.681 Y16.915 E0.73541
G1 X98.463 Y16.42 E0.77096
G1 X99.562 Y15.691 E0.82163
G1 X100.401 Y15.227 E0.85846
G1 X101.324 Y14.833 E0.89701
G1 X102.174 Y14.555 E0.93137
G1 X102.82 Y14.411 E0.95679
G1 X103.476 Y14.318 E0.98224
G1 X104.045 Y14.244 E1.00429
G1 X104.545 Y14.21 E1.02354
G1 X105.266 Y14.204 E1.05124
G1 X105.918 Y14.25 E1.07635
G1 X107.029 Y14.415 E1.11949
G1 X107.823 Y14.613 E1.15093
G1 X108.785 Y14.956 E1.19016
G1 X109.27 Y15.164 E1.21044
G1 X109.774 Y15.419 E1.23214
G1 X110.432 Y15.792 E1.26119
G1 X111.678 Y16.685 E1.32008
G1 X111.862 Y16.831 E1.3291
G1 X112.476 Y17.152 E1.35572
G1 X113.503 Y17.697 E1.40038
G1 X114.245 Y18.134 E1.43346
G1 X114.843 Y18.51 E1.4606
G1 X115.584 Y18.963 E1.49396
G1 X115.907 Y19.194 E1.50922
G1 X116.655 Y19.619 E1.54227
G1 X117.45 Y20.17 E1.57943
G1 X118.008 Y20.632 E1.60726
G1 X118.915 Y21.527 E1.65621
G1 X119.395 Y22.093 E1.68472
G1 X119.788 Y22.649 E1.71087
G1 X120.324 Y23.505 E1.74967
G1 X120.567 Y23.961 E1.76952
G1 X120.83 Y24.538 E1.79388
G1 X121.213 Y25.555 E1.83563
G1 X121.521 Y26.676 E1.88029
G1 X121.886 Y27.899 E1.92932
G1 X122.076 Y28.466 E1.95229
G1 X122.225 Y28.814 E1.96683
G1 X122.682 Y29.539 E1.99975
G1 X122.97 Y30.081 E2.02333
G1 X123.203 Y30.609 E2.0455
G1 X123.602 Y31.466 E2.08182
G1 X123.809 Y32.007 E2.10407
G1 X123.938 Y32.557 E2.12577
G1 X124.06 Y33.298 E2.15462
G1 X124.137 Y34.072 E2.1845
G1 X124.146 Y34.593 E2.20452
G1 X124.105 Y35.515 E2.23997
G1 X124.039 Y36.09 E2.26221
G1 X123.907 Y36.616 E2.28304
G1 X123.745 Y37.119 E2.30334
G1 X123.389 Y37.994 E2.33963
G1 X122.913 Y38.879 E2.37823
G1 X122.643 Y39.409 E2.40108
G1 X122.359 Y39.886 E2.42241
G1 X121.773 Y40.736 E2.46207
G1 X121.238 Y41.368 E2.49388
G1 X121.043 Y41.557 E2.50431
G1 X120.929 Y42.296 E2.53304
G1 X120.746 Y43.05 E2.56284
G1 X120.387 Y44.163 E2.60777
G1 X120.125 Y44.775 E2.63334
G1 X119.81 Y45.374 E2.65934
G1 X120.096 Y45.688 E2.67566
G1 X120.481 Y46.268 E2.7024
G1 X120.851 Y47.039 E2.73525
G1 X121.154 Y47.498 E2.75638
G1 X121.44 Y48.002 E2.77864
G1 X121.726 Y48.798 E2.81113
G1 X121.837 Y49.152 E2.82539
G1 X122.093 Y49.693 E2.84838
G1 X122.36 Y50.491 E2.8807
G1 X122.457 Y51.221 E2.90899
G1 X122.659 Y52.039 E2.94136
G1 X122.692 Y52.709 E2.96713
G1 X122.667 Y53.533 E2.9988
G1 X122.618 Y54.329 E3.02944
G1 X122.501 Y55.079 E3.0586
G1 X122.344 Y55.706 E3.08343
G1 X122.165 Y56.257 E3.10568
G1 X121.839 Y56.9 E3.13338
G1 X121.421 Y57.499 E3.16144
G1 X121.021 Y57.918 E3.18369
G1 X120.502 Y58.321 E3.20893
G1 X119.9 Y58.718 E3.23663
G1 X119.396 Y59.003 E3.25888
G1 X118.857 Y59.216 E3.28114
G1 X118.532 Y59.296 E3.294
G1 X118.105 Y59.518 E3.31249
G1 X117.235 Y59.811 E3.34775
G1 X116.724 Y59.932 E3.36793
G1 X115.856 Y60.157 E3.40237
G1 X115.036 Y60.344 E3.43468
G1 X114.186 Y60.582 E3.46859
G1 X113.432 Y60.65 E3.49767
G1 X112.691 Y60.65 E3.52614
G1 X111.7 Y60.795 E3.56461
G1 X110.891 Y60.78 E3.5957
G1 X110.046 Y60.599 E3.62889
G1 X109.798 Y60.518 E3.63892
G1 X108.944 Y60.39 E3.67209
G1 X108.431 Y60.263 E3.69239
G1 X107.513 Y60.095 E3.72824
G1 X106.737 Y59.827 E3.75978
G1 X105.729 Y59.272 E3.80399
G1 X105.191 Y59.04 E3.82649
G1 X104.935 Y58.908 E3.83756
G1 X104.135 Y59.301 E3.8718
G1 X103.763 Y59.541 E3.8888
G1 X103.157 Y59.833 E3.91465
G1 X102.186 Y60.165 E3.95407
G1 X101.496 Y60.261 E3.98083
G1 X101.035 Y60.41 E3.99944
G1 X100.187 Y60.532 E4.03235
G1 X99.782 Y60.548 E4.04792
G1 X98.869 Y60.743 E4.08379
G1 X98.191 Y60.766 E4.10985
G1 X96.771 Y60.698 E4.16446
G1 X96.055 Y60.645 E4.19204
G1 X95.482 Y60.562 E4.21428
G1 X94.807 Y60.366 E4.24128
G1 X94.245 Y60.255 E4.26329
G1 X93.686 Y60.104 E4.28554
G1 X93.437 Y60.007 E4.2958
G1 X92.472 Y59.841 E4.33342
G1 X91.667 Y59.528 E4.3666
G1 X91.215 Y59.32 E4.38571
G1 X90.658 Y59.16 E4.40797
G1 X90.06 Y58.888 E4.43321
G1 X89.421 Y58.49 E4.46213
G1 X88.982 Y58.111 E4.48441
G1 X88.299 Y57.313 E4.52476
G1 X87.963 Y56.841 E4.54702
G1 X87.696 Y56.327 E4.56927
G1 X87.502 Y55.781 E4.59153
G1 X87.368 Y55.077 E4.61906
G1 X87.296 Y54.374 E4.6462
G1 X87.277 Y53.795 E4.66846
G1 X87.213 Y53.003 E4.69898
G1 X87.192 Y52.424 E4.72124
G1 X87.252 Y51.848 E4.74349
G1 X87.724 Y50.02 E4.81601
G1 X87.906 Y49.47 E4.83827
G1 X88.049 Y48.891 E4.86118
G1 X88.344 Y48.105 E4.89343
G1 X88.598 Y47.584 E4.9157
G1 X88.92 Y47.103 E4.93793
G1 X89.013 Y46.98 E4.94386
G1 X89.26 Y46.455 E4.96615
G1 X89.67 Y45.85 E4.99422
G1 X90.024 Y45.415 E5.01577
G1 X89.721 Y44.837 E5.04084
G1 X89.34 Y43.911 E5.0793
G1 X89.119 Y43.277 E5.1051
G1 X88.971 Y42.726 E5.12701
G1 X88.852 Y42.124 E5.15059
G1 X88.785 Y41.642 E5.16928
G1 X88.208 Y41.015 E5.20201
G1 X87.609 Y40.223 E5.24016
G1 X87.285 Y39.689 E5.26416
G1 X86.735 Y38.61 E5.31068
G1 X86.417 Y37.866 E5.34176
G1 X86.254 Y37.373 E5.36171
G1 X86.099 Y36.789 E5.38492
G1 X85.969 Y36.012 E5.41518
G1 X85.865 Y34.559 E5.47115
G1 X85.873 Y33.864 E5.49785
G1 X85.944 Y33.112 E5.52686
G1 X86.01 Y32.587 E5.54719
G1 X86.148 Y31.938 E5.57268
G1 X86.326 Y31.339 E5.59668
M204 S3000
M205 X10 Y10
G0 F1800 X86.863 Y31.498
M204 S1800
M205 X8 Y8
G1 F2400 X87.223 Y30.58 E5.63456
G1 X87.663 Y29.737 E5.67109
G1 X87.976 Y29.184 E5.6955
G1 X88.195 Y28.842 E5.71111
G1 X88.448 Y28.067 E5.74242
G1 X88.648 Y27.425 E5.76826
G1 X88.806 Y26.957 E5.78723
G1 X88.919 Y26.446 E5.80734
G1 X89.217 Y25.442 E5.84757
G1 X89.627 Y24.441 E5.88912
G1 X89.906 Y23.893 E5.91274
G1 X90.689 Y22.706 E5.96737
G1 X91.208 Y22.065 E5.99906
G1 X92.384 Y20.933 E6.06176
G1 X93.175 Y20.309 E6.10046
G1 X93.608 Y20.028 E6.12029
G1 X94.097 Y19.757 E6.14177
G1 X94.652 Y19.424 E6.16663
G1 X95.318 Y18.98 E6.19738
G1 X96.625 Y18.178 E6.25629
G1 X97.463 Y17.742 E6.29258
G1 X97.98 Y17.388 E6.31665
G1 X98.808 Y16.864 E6.35429
G1 X99.872 Y16.158 E6.40335
G1 X100.66 Y15.724 E6.43791
G1 X101.535 Y15.352 E6.47443
G1 X102.339 Y15.09 E6.50692
G1 X102.899 Y14.965 E6.52896
G1 X103.555 Y14.872 E6.55441
G1 X104.116 Y14.8 E6.57614
G1 X105.271 Y14.764 E6.62053
G1 X105.836 Y14.803 E6.64229
G1 X106.947 Y14.968 E6.68543
G1 X107.634 Y15.14 E6.71264
G1 X108.596 Y15.483 E6.75187
G1 X109.521 Y15.919 E6.79116
G1 X110.153 Y16.277 E6.81906
G1 X111.342 Y17.134 E6.87536
G1 X111.547 Y17.298 E6.88545
G1 X112.217 Y17.648 E6.91449
G1 X113.24 Y18.191 E6.95898
G1 X113.957 Y18.615 E6.99098
G1 X114.56 Y18.993 E7.01832
G1 X115.259 Y19.418 E7.04975
G1 X115.619 Y19.676 E7.06676
G1 X116.336 Y20.079 E7.09836
G1 X117.131 Y20.63 E7.13552
G1 X117.615 Y21.031 E7.15966
G1 X118.522 Y21.926 E7.20861
G1 X118.937 Y22.416 E7.23328
G1 X119.33 Y22.972 E7.25943
G1 X119.847 Y23.798 E7.29687
G1 X120.32 Y24.77 E7.3384
G1 X120.687 Y25.746 E7.37845
G1 X120.991 Y26.862 E7.42289
G1 X121.352 Y28.067 E7.47121
G1 X121.537 Y28.619 E7.49357
G1 X121.608 Y28.871 E7.50363
G1 X122.208 Y29.837 E7.54732
G1 X122.458 Y30.307 E7.56777
G1 X122.712 Y30.882 E7.59191
G1 X123.094 Y31.703 E7.6267
G1 X123.285 Y32.207 E7.64741
G1 X123.508 Y33.389 E7.69361
G1 X123.578 Y34.116 E7.72167
G1 X123.545 Y35.49 E7.77447
G1 X123.482 Y36.025 E7.79516
G1 X123.212 Y36.947 E7.83207
G1 X122.874 Y37.773 E7.86635
G1 X122.42 Y38.613 E7.90304
G1 X122.144 Y39.155 E7.9264
G1 X121.312 Y40.418 E7.9845
G1 X120.848 Y40.966 E8.01208
G1 X120.505 Y41.299 E8.03045
G1 X120.384 Y42.164 E8.064
G1 X120.201 Y42.918 E8.09381
G1 X119.856 Y43.984 E8.13685
G1 X119.629 Y44.514 E8.159
G1 X119.3 Y45.14 E8.18617
G1 X119.106 Y45.461 E8.20058
G1 X119.679 Y46.065 E8.23256
G1 X119.99 Y46.538 E8.2543
G1 X120.362 Y47.313 E8.28733
G1 X120.687 Y47.807 E8.31004
G1 X120.95 Y48.278 E8.33077
G1 X121.183 Y48.933 E8.35747
G1 X121.272 Y49.289 E8.37157
G1 X121.571 Y49.895 E8.39753
G1 X121.823 Y50.656 E8.42833
G1 X121.91 Y51.34 E8.45481
G1 X122.014 Y51.655 E8.46756
G1 X122.112 Y52.186 E8.4883
G1 X122.132 Y52.692 E8.50775
G1 X122.107 Y53.516 E8.53942
G1 X122.059 Y54.293 E8.56933
G1 X121.958 Y54.943 E8.5946
G1 X121.801 Y55.57 E8.61943
G1 X121.632 Y56.082 E8.64014
G1 X121.363 Y56.604 E8.6627
G1 X120.966 Y57.169 E8.68923
G1 X120.588 Y57.554 E8.70995
G1 X119.592 Y58.251 E8.75665
G1 X119.121 Y58.513 E8.77736
G1 X118.616 Y58.704 E8.7981
G1 X118.327 Y58.773 E8.80951
G1 X117.847 Y59.02 E8.83025
G1 X117.073 Y59.275 E8.86156
G1 X116.254 Y59.443 E8.89367
G1 X115.732 Y59.611 E8.91474
G1 X114.881 Y59.805 E8.94827
G1 X114.049 Y60.037 E8.98145
G1 X113.432 Y60.09 E9.00524
G1 X112.668 Y60.09 E9.03459
G1 X111.683 Y60.235 E9.07284
G1 X110.914 Y60.219 E9.10238
G1 X110.219 Y60.066 E9.12972
G1 X109.924 Y59.97 E9.14164
G1 X109.041 Y59.838 E9.17594
G1 X108.545 Y59.713 E9.19559
G1 X107.67 Y59.558 E9.22972
G1 X106.933 Y59.3 E9.25972
G1 X106.489 Y59.056 E9.27918
G1 X105.983 Y58.771 E9.30149
G1 X105.413 Y58.525 E9.32534
G1 X104.935 Y58.276 E9.34605
G1 X104.392 Y58.567 E9.36971
G1 X103.901 Y58.79 E9.39043
G1 X103.448 Y59.076 E9.41101
G1 X102.955 Y59.311 E9.43199
G1 X102.022 Y59.628 E9.46984
G1 X101.401 Y59.712 E9.49392
G1 X100.864 Y59.876 E9.51549
G1 X100.164 Y59.972 E9.54263
G1 X99.702 Y59.99 E9.56039
G1 X98.768 Y60.191 E9.59709
G1 X98.217 Y60.207 E9.61827
G1 X96.812 Y60.139 E9.67231
G1 X96.096 Y60.086 E9.69989
G1 X95.563 Y60.007 E9.72059
G1 X94.947 Y59.822 E9.74529
G1 X94.353 Y59.705 E9.76855
G1 X93.594 Y59.467 E9.79911
G1 X92.584 Y59.29 E9.8385
G1 X91.923 Y59.03 E9.86578
G1 X91.482 Y58.804 E9.88482
G1 X90.814 Y58.621 E9.91143
G1 X90.33 Y58.398 E9.9319
G1 X89.727 Y58.019 E9.95926
G1 X89.324 Y57.66 E9.97999
G1 X88.732 Y56.958 E10.01527
G1 X88.422 Y56.517 E10.03598
G1 X88.18 Y56.035 E10.0567
G1 X88.012 Y55.522 E10.07743
G1 X87.925 Y55.02 E10.09701
G1 X87.853 Y54.317 E10.12415
G1 X87.838 Y53.778 E10.14487
G1 X87.77 Y52.945 E10.17697
G1 X87.754 Y52.406 E10.19769
G1 X87.817 Y51.87 E10.21842
G1 X88.087 Y50.855 E10.25877
G1 X88.266 Y50.159 E10.28638
G1 X88.439 Y49.649 E10.30706
G1 X88.597 Y49.013 E10.33224
G1 X88.863 Y48.315 E10.36093
G1 X89.102 Y47.831 E10.38167
G1 X89.482 Y47.318 E10.4062
G1 X89.767 Y46.695 E10.43251
G1 X90.104 Y46.203 E10.45542
G1 X90.705 Y45.464 E10.49202
G1 X90.449 Y45.034 E10.51124
G1 X90.22 Y44.583 E10.53067
G1 X89.862 Y43.709 E10.56695
G1 X89.649 Y43.095 E10.59192
G1 X89.401 Y42.016 E10.63445
G1 X89.321 Y41.386 E10.65885
G1 X88.624 Y40.64 E10.69807
G1 X88.065 Y39.898 E10.73375
G1 X87.784 Y39.435 E10.75456
G1 X87.234 Y38.356 E10.80108
G1 X86.937 Y37.656 E10.8303
G1 X86.64 Y36.646 E10.87074
G1 X86.527 Y35.972 E10.89699
G1 X86.423 Y34.519 E10.95295
G1 X86.43 Y33.917 E10.97608
G1 X86.501 Y33.165 E11.0051
G1 X86.565 Y32.66 E11.02465
G1 X86.685 Y32.097 E11.04677
G1 X86.863 Y31.498 E11.07077
M204 S3000
M205 X10 Y10
G0 F1800 X87.4 Y31.658
M204 S1800
M205 X8 Y8
G1 F2400 X87.74 Y30.795 E11.1064
G1 X88.153 Y30.009 E11.14051
G1 X88.464 Y29.46 E11.16475
G1 X88.697 Y29.101 E11.18119
G1 X88.99 Y28.21 E11.21722
G1 X89.183 Y27.591 E11.24213
G1 X89.347 Y27.107 E11.26176
G1 X89.466 Y26.567 E11.28301
G1 X89.752 Y25.607 E11.32149
G1 X90.141 Y24.663 E11.36071
G1 X90.4 Y24.158 E11.38251
G1 X91.152 Y23.021 E11.43488
G1 X91.633 Y22.43 E11.46415
G1 X92.767 Y21.342 E11.52452
G1 X93.513 Y20.756 E11.56096
G1 X94.9 Y19.928 E11.62302
G1 X95.403 Y19.614 E11.6458
G1 X95.899 Y19.265 E11.6691
G1 X96.913 Y18.658 E11.7145
G1 X97.738 Y18.231 E11.75018
G1 X98.28 Y17.861 E11.77539
G1 X99.07 Y17.361 E11.81131
G1 X100.181 Y16.624 E11.86252
G1 X100.919 Y16.22 E11.89484
G1 X101.745 Y15.871 E11.92929
G1 X102.504 Y15.625 E11.95994
G1 X103.634 Y15.426 E12.00402
G1 X104.188 Y15.355 E12.02548
G1 X105.275 Y15.324 E12.06725
G1 X106.864 Y15.522 E12.12876
G1 X107.446 Y15.668 E12.15182
G1 X108.408 Y16.011 E12.19105
G1 X109.268 Y16.419 E12.22762
G1 X109.873 Y16.762 E12.25433
G1 X111.007 Y17.582 E12.30809
G1 X111.24 Y17.77 E12.31959
G1 X111.957 Y18.145 E12.35068
G1 X112.978 Y18.686 E12.39507
G1 X113.67 Y19.095 E12.42594
G1 X114.277 Y19.476 E12.45348
G1 X114.933 Y19.874 E12.48295
G1 X115.324 Y20.153 E12.5014
G1 X116.017 Y20.54 E12.5319
G1 X116.812 Y21.091 E12.56905
G1 X117.221 Y21.43 E12.58946
G1 X118.128 Y22.325 E12.63841
G1 X118.48 Y22.739 E12.65929
G1 X118.873 Y23.295 E12.68544
G1 X119.369 Y24.091 E12.72147
G1 X119.811 Y25.003 E12.76041
G1 X120.16 Y25.937 E12.79871
G1 X120.453 Y27.014 E12.84159
G1 X120.818 Y28.234 E12.89051
G1 X120.998 Y28.771 E12.91226
G1 X121.092 Y29.098 E12.92533
G1 X121.734 Y30.135 E12.97219
G1 X122.212 Y31.135 E13.01476
G1 X122.586 Y31.939 E13.04883
G1 X122.759 Y32.404 E13.06789
G1 X122.955 Y33.48 E13.1099
G1 X123.02 Y34.161 E13.13618
G1 X122.986 Y35.465 E13.18629
G1 X122.924 Y35.957 E13.20534
G1 X122.679 Y36.775 E13.23815
G1 X122.36 Y37.552 E13.27041
G1 X121.928 Y38.346 E13.30514
G1 X121.645 Y38.9 E13.32904
G1 X120.851 Y40.1 E13.38431
G1 X120.459 Y40.564 E13.40765
G1 X119.968 Y41.04 E13.43392
G1 X119.912 Y41.607 E13.4558
G1 X119.657 Y42.785 E13.50211
G1 X119.325 Y43.805 E13.54331
G1 X118.804 Y44.88 E13.5892
G1 X118.433 Y45.457 E13.61556
G1 X118.622 Y45.772 E13.62967
G1 X119.261 Y46.439 E13.66515
G1 X119.67 Y47.117 E13.69557
G1 X119.878 Y47.597 E13.71567
G1 X120.22 Y48.116 E13.73954
G1 X120.459 Y48.55 E13.75858
G1 X120.639 Y49.069 E13.77968
G1 X120.746 Y49.496 E13.79659
G1 X121.049 Y50.097 E13.82245
G1 X121.285 Y50.818 E13.85159
G1 X121.35 Y51.358 E13.87248
G1 X121.563 Y52.326 E13.91056
G1 X121.548 Y53.499 E13.95562
G1 X121.501 Y54.257 E13.9848
G1 X121.415 Y54.807 E14.00618
G1 X121.258 Y55.434 E14.03101
G1 X121.099 Y55.904 E14.05007
G1 X120.808 Y56.438 E14.07344
G1 X120.513 Y56.837 E14.0925
G1 X120.158 Y57.184 E14.11157
G1 X119.284 Y57.783 E14.15227
G1 X118.849 Y58.022 E14.17134
G1 X118.138 Y58.242 E14.19993
G1 X117.592 Y58.519 E14.22345
G1 X116.911 Y58.739 E14.25094
G1 X116.086 Y58.904 E14.28326
G1 X115.607 Y59.065 E14.30268
G1 X114.731 Y59.265 E14.33719
G1 X113.915 Y59.492 E14.36973
G1 X112.668 Y59.53 E14.41766
G1 X111.666 Y59.676 E14.45656
G1 X110.94 Y59.658 E14.48445
G1 X110.392 Y59.534 E14.50604
G1 X110.046 Y59.422 E14.52001
G1 X109.138 Y59.287 E14.55527
G1 X108.751 Y59.173 E14.57077
G1 X107.828 Y59.021 E14.60671
G1 X107.133 Y58.775 E14.63503
G1 X106.432 Y58.353 E14.66646
G1 X105.634 Y58.011 E14.69981
G1 X105.196 Y57.779 E14.71885
G1 X104.941 Y57.588 E14.73109
G1 X104.123 Y58.076 E14.76768
G1 X103.596 Y58.298 E14.78965
G1 X103.136 Y58.609 E14.81098
G1 X102.336 Y58.949 E14.84438
G1 X101.861 Y59.09 E14.86341
G1 X101.254 Y59.158 E14.88687
G1 X100.695 Y59.34 E14.90946
G1 X100.142 Y59.413 E14.93089
G1 X99.618 Y59.434 E14.95103
G1 X98.67 Y59.638 E14.98828
G1 X97.707 Y59.623 E15.02528
G1 X97.181 Y59.587 E15.04554
G1 X96.138 Y59.528 E15.08567
G1 X95.412 Y59.385 E15.11409
G1 X95.086 Y59.279 E15.12726
G1 X94.462 Y59.156 E15.15169
G1 X93.819 Y58.954 E15.17758
G1 X93.184 Y58.844 E15.20234
G1 X92.699 Y58.741 E15.22139
G1 X92.178 Y58.531 E15.24297
G1 X91.671 Y58.271 E15.26486
G1 X90.974 Y58.082 E15.2926
G1 X90.449 Y57.824 E15.31507
G1 X90.036 Y57.55 E15.33411
G1 X89.558 Y57.082 E15.35981
