;FLAVOR:Marlin
;TIME:10395
;Filament used: 10.0339m
;Layer height: 0.3
;MINX:35.805
;MINY:9.865
;MINZ:0.15
;MAXX:174.195
;MAXY:148.246
;MAXZ:2.325
;Generated with Cura_SteamEngine 4.5.0
M140 S60
M105
M190 S60
M104 S200
M105
M109 S200
M82 ;absolute extrusion mode
G21 ;metric values
G90 ;absolute positioning
M82 ;set extruder to absolute mode
M107 ;start with the fan off
G28 X0 Y0 ;move X/Y to min endstops
G28 Z0 ;move Z to min endstops
G1 Z15.0 F100 ;move the platform down 15mm
G92 E0 ;zero the extruded length
G1 F200 E3 ;extrude 3mm of feed stock
G92 E0 ;zero the extruded length again
G1 F100
G0 Y20 F100
M117 Printing...
G5
G92 E0
G92 E0
G1 F2400 E-6
;LAYER_COUNT:8
;LAYER:0
M106 S255
M204 S3000
M205 X10 Y10
G1 F600 Z0.225
G0 F1800 X51.381 Y35.313 Z0.225
M204 S1800
M205 X8 Y8
;TYPE:SKIRT
G1 F600 Z0.15
G1 F2400 E0
G1 X55.925 Y30.269 E0.2608
G1 X60.799 Y25.824 E0.51421
G1 X66.222 Y21.753 E0.7747
G1 X72.024 Y18.229 E1.03548
G1 X78.145 Y15.291 E1.29631
G1 X84.524 Y12.965 E1.55714
G1 X91.098 Y11.276 E1.81789
G1 X97.812 Y10.24 E2.07886
G1 X104.589 Y9.867 E2.3396
G1 X105.001 Y9.865 E2.35542
G1 X111.371 Y10.158 E2.60039
G1 X118.096 Y11.115 E2.86133
G1 X124.69 Y12.726 E3.1221
G1 X131.278 Y15.04 E3.39034
G1 X137.437 Y17.929 E3.65167
G1 X143.27 Y21.401 E3.91244
G1 X148.738 Y25.432 E4.17341
G1 X153.639 Y29.846 E4.42678
G1 X158.219 Y34.841 E4.68712
G1 X162.412 Y40.426 E4.95541
G1 X165.928 Y46.251 E5.21678
G1 X168.848 Y52.381 E5.47762
G1 X171.155 Y58.768 E5.73849
G1 X172.825 Y65.348 E5.99928
G1 X173.842 Y72.063 E6.26018
G1 X174.195 Y78.844 E6.52103
G1 X173.892 Y85.435 E6.7745
G1 X172.907 Y92.338 E7.04236
G1 X171.275 Y98.94 E7.30362
G1 X169.006 Y105.339 E7.56443
G1 X166.122 Y111.487 E7.82531
G1 X162.65 Y117.321 E8.08611
G1 X158.619 Y122.789 E8.34707
G1 X154.205 Y127.69 E8.60045
G1 X149.067 Y132.4 E8.86821
G1 X143.768 Y136.356 E9.12225
G1 X137.976 Y139.873 E9.38256
G1 X131.681 Y142.894 E9.65079
G1 X125.283 Y145.206 E9.91212
G1 X118.89 Y146.829 E10.1655
G1 X111.998 Y147.891 E10.43339
G1 X105.206 Y148.246 E10.69466
G1 X98.424 Y147.933 E10.95547
G1 X91.702 Y146.957 E11.21641
G1 X85.111 Y145.326 E11.47724
G1 X78.71 Y143.056 E11.73815
G1 X72.564 Y140.173 E11.99893
G1 X66.895 Y136.8 E12.25234
G1 X61.271 Y132.677 E12.52023
G1 X56.359 Y128.254 E12.77415
G1 X51.78 Y123.26 E13.03444
G1 X47.587 Y117.674 E13.30275
G1 X44.072 Y111.851 E13.56404
G1 X41.151 Y105.719 E13.82497
G1 X38.845 Y99.334 E14.08575
G1 X37.175 Y92.754 E14.34654
G1 X36.158 Y86.037 E14.60752
G1 X35.805 Y79.258 E14.86829
G1 X36.108 Y72.667 E15.12175
G1 X37.093 Y65.764 E15.38962
G1 X38.725 Y59.162 E15.65088
G1 X40.994 Y52.763 E15.91169
G1 X43.878 Y46.615 E16.17257
G1 X47.35 Y40.781 E16.43337
G1 X51.381 Y35.313 E16.69433
M204 S3000
M205 X10 Y10
G0 F1800 X51.83 Y35.647
M204 S1800
M205 X8 Y8
G1 F2400 X56.34 Y30.645 E16.95306
G1 X61.175 Y26.239 E17.20435
G1 X66.557 Y22.202 E17.4628
G1 X72.314 Y18.708 E17.7215
G1 X78.386 Y15.797 E17.98018
G1 X84.714 Y13.492 E18.2389
G1 X91.236 Y11.819 E18.49756
G1 X97.896 Y10.794 E18.75642
G1 X104.618 Y10.426 E19.01503
G1 X104.975 Y10.425 E19.02875
G1 X111.345 Y10.718 E19.27371
G1 X118.015 Y11.669 E19.53254
G1 X124.556 Y13.27 E19.79123
G1 X131.091 Y15.568 E20.05734
G1 X137.197 Y18.435 E20.31648
G1 X142.982 Y21.882 E20.57517
G1 X148.404 Y25.881 E20.83398
G1 X153.263 Y30.261 E21.08529
G1 X157.805 Y35.219 E21.34359
G1 X161.963 Y40.761 E21.60975
G1 X165.447 Y46.539 E21.86894
G1 X168.342 Y52.62 E22.12767
G1 X170.628 Y58.956 E22.38643
G1 X172.282 Y65.484 E22.64513
G1 X173.288 Y72.145 E22.90391
G1 X173.636 Y78.871 E23.16264
G1 X173.333 Y85.407 E23.414
G1 X172.353 Y92.257 E23.67982
G1 X170.732 Y98.804 E23.93892
G1 X168.479 Y105.15 E24.19761
G1 X165.616 Y111.248 E24.4564
G1 X162.169 Y117.033 E24.7151
G1 X158.17 Y122.455 E24.97391
G1 X153.79 Y127.314 E25.22521
G1 X148.689 Y131.986 E25.49094
G1 X143.434 Y135.907 E25.74282
G1 X137.686 Y139.394 E26.00109
G1 X131.44 Y142.388 E26.26717
G1 X125.095 Y144.679 E26.52632
G1 X118.754 Y146.286 E26.77761
G1 X111.914 Y147.337 E27.04346
G1 X105.179 Y147.687 E27.30253
G1 X98.451 Y147.374 E27.56127
G1 X91.784 Y146.403 E27.82009
G1 X85.247 Y144.783 E28.07881
G1 X78.898 Y142.529 E28.33762
G1 X72.803 Y139.667 E28.59629
G1 X67.183 Y136.319 E28.8476
G1 X61.603 Y132.226 E29.11344
G1 X56.735 Y127.839 E29.36518
G1 X52.194 Y122.882 E29.62343
G1 X48.036 Y117.339 E29.88962
G1 X44.553 Y111.563 E30.14872
G1 X41.657 Y105.48 E30.40754
G1 X39.372 Y99.145 E30.66624
G1 X37.718 Y92.618 E30.92491
G1 X36.712 Y85.955 E31.18377
G1 X36.364 Y79.231 E31.44242
G1 X36.667 Y72.695 E31.69378
G1 X37.647 Y65.845 E31.9596
G1 X39.268 Y59.298 E32.2187
G1 X41.521 Y52.952 E32.47739
G1 X44.384 Y46.854 E32.73618
G1 X47.831 Y41.069 E32.99488
G1 X51.83 Y35.647 E33.25369
M204 S3000
M205 X10 Y10
G0 F1800 X52.28 Y35.98
M204 S1800
M205 X8 Y8
G1 F2400 X56.755 Y31.021 E33.51029
G1 X61.552 Y26.654 E33.7595
G1 X66.892 Y22.651 E34.01587
G1 X72.603 Y19.188 E34.27245
G1 X78.627 Y16.302 E34.52905
G1 X84.904 Y14.018 E34.78565
G1 X91.374 Y12.362 E35.04221
G1 X97.98 Y11.348 E35.29895
G1 X104.648 Y10.985 E35.55549
G1 X104.95 Y10.984 E35.56709
G1 X111.32 Y11.277 E35.81205
G1 X117.935 Y12.223 E36.06876
G1 X124.421 Y13.813 E36.3253
G1 X130.904 Y16.096 E36.58934
G1 X136.958 Y18.942 E36.84632
G1 X142.694 Y22.362 E37.10286
G1 X148.071 Y26.331 E37.3596
G1 X152.886 Y30.676 E37.60875
G1 X157.391 Y35.596 E37.86502
G1 X161.514 Y41.096 E38.12908
G1 X164.967 Y46.827 E38.38611
G1 X167.835 Y52.86 E38.64273
G1 X170.101 Y59.145 E38.89938
G1 X171.739 Y65.62 E39.15596
G1 X172.734 Y72.227 E39.41263
G1 X173.076 Y78.899 E39.66927
G1 X172.773 Y85.38 E39.91852
G1 X171.799 Y92.176 E40.18225
G1 X170.189 Y98.668 E40.4392
G1 X167.952 Y104.962 E40.69581
G1 X165.109 Y111.008 E40.95246
G1 X161.689 Y116.745 E41.20904
G1 X157.72 Y122.122 E41.46578
G1 X153.375 Y126.937 E41.71493
G1 X148.312 Y131.572 E41.97862
G1 X143.101 Y135.457 E42.22831
G1 X137.397 Y138.914 E42.48454
G1 X131.199 Y141.883 E42.74854
G1 X124.906 Y144.152 E43.00553
G1 X118.618 Y145.743 E43.2547
G1 X111.831 Y146.783 E43.51846
G1 X105.151 Y147.127 E43.77542
G1 X98.479 Y146.814 E44.03201
G1 X91.866 Y145.849 E44.28874
G1 X85.383 Y144.24 E44.54534
G1 X79.087 Y142.002 E44.80203
G1 X73.043 Y139.16 E45.0586
G1 X67.471 Y135.839 E45.30779
G1 X61.935 Y131.775 E45.57161
G1 X57.112 Y127.424 E45.82114
G1 X52.608 Y122.505 E46.07735
G1 X48.485 Y117.004 E46.34145
G1 X45.033 Y111.275 E46.59839
G1 X42.164 Y105.24 E46.85509
G1 X39.899 Y98.957 E47.11166
G1 X38.261 Y92.482 E47.36824
G1 X37.266 Y85.873 E47.62499
G1 X36.924 Y79.203 E47.88156
G1 X37.227 Y72.722 E48.1308
G1 X38.201 Y65.926 E48.39454
G1 X39.811 Y59.434 E48.65148
G1 X42.048 Y53.14 E48.90809
G1 X44.891 Y47.094 E49.16475
G1 X48.311 Y41.357 E49.42132
G1 X52.28 Y35.98 E49.67806
M204 S3000
M205 X10 Y10
G0 F1800 X52.73 Y36.314
M204 S1800
M205 X8 Y8
G1 F2400 X57.17 Y31.398 E49.93254
G1 X61.928 Y27.069 E50.17965
G1 X67.227 Y23.099 E50.434
G1 X72.892 Y19.667 E50.68845
G1 X78.867 Y16.808 E50.94291
G1 X85.095 Y14.545 E51.19746
G1 X91.511 Y12.904 E51.45187
G1 X98.063 Y11.901 E51.7065
G1 X104.677 Y11.544 E51.96095
G1 X111.294 Y11.837 E52.21539
G1 X117.854 Y12.777 E52.46997
G1 X124.287 Y14.357 E52.72444
G1 X130.717 Y16.624 E52.98636
G1 X136.718 Y19.448 E53.24114
G1 X142.406 Y22.842 E53.49559
G1 X147.737 Y26.781 E53.75022
G1 X152.51 Y31.091 E53.99727
G1 X156.977 Y35.973 E54.25148
G1 X161.066 Y41.431 E54.51346
G1 X164.487 Y47.115 E54.76831
G1 X167.329 Y53.099 E55.0228
G1 X169.574 Y59.334 E55.27737
G1 X171.195 Y65.757 E55.53185
G1 X172.18 Y72.309 E55.78638
G1 X172.517 Y78.926 E56.0409
G1 X172.214 Y85.352 E56.28803
G1 X171.245 Y92.096 E56.54977
G1 X169.645 Y98.531 E56.8045
G1 X167.425 Y104.773 E57.059
G1 X164.603 Y110.769 E57.31358
G1 X161.209 Y116.457 E57.56803
G1 X157.27 Y121.788 E57.82266
G1 X152.96 Y126.561 E58.06971
G1 X147.935 Y131.158 E58.33134
G1 X142.767 Y135.007 E58.57888
G1 X137.108 Y138.435 E58.83305
G1 X130.959 Y141.377 E59.09491
G1 X124.717 Y143.625 E59.34978
G1 X118.481 Y145.199 E59.59685
G1 X111.747 Y146.23 E59.85855
G1 X105.124 Y146.568 E60.11331
G1 X98.506 Y146.255 E60.36783
G1 X91.948 Y145.295 E60.62244
G1 X85.52 Y143.696 E60.8769
G1 X79.276 Y141.475 E61.13149
G1 X73.282 Y138.654 E61.38598
G1 X67.759 Y135.359 E61.63304
G1 X62.268 Y131.324 E61.8948
G1 X57.488 Y127.009 E62.14218
G1 X53.022 Y122.128 E62.39633
G1 X48.933 Y116.669 E62.65835
G1 X45.513 Y110.987 E62.91311
G1 X42.67 Y105.001 E63.16769
G1 X40.426 Y98.768 E63.42218
G1 X38.805 Y92.345 E63.67665
G1 X37.82 Y85.791 E63.93126
G1 X37.483 Y79.176 E64.18571
G1 X37.786 Y72.75 E64.43284
G1 X38.755 Y66.006 E64.69457
G1 X40.355 Y59.571 E64.9493
G1 X42.575 Y53.329 E65.20381
G1 X45.397 Y47.333 E65.45838
G1 X48.791 Y41.645 E65.71283
G1 X52.73 Y36.314 E65.96746
M204 S3000
M205 X10 Y10
G0 F1800 X53.18 Y36.647
M204 S1800
M205 X8 Y8
G1 F2400 X57.585 Y31.774 E66.21981
G1 X62.304 Y27.484 E66.4648
G1 X67.562 Y23.548 E66.71712
G1 X73.182 Y20.147 E66.96947
G1 X79.108 Y17.313 E67.22181
G1 X85.285 Y15.072 E67.47424
G1 X91.649 Y13.447 E67.72656
G1 X98.147 Y12.455 E67.97907
G1 X104.706 Y12.104 E68.2314
G1 X111.268 Y12.396 E68.48373
G1 X117.774 Y13.331 E68.73623
G1 X124.152 Y14.9 E68.98855
G1 X130.53 Y17.152 E69.24839
G1 X136.479 Y19.954 E69.501
G1 X142.119 Y23.323 E69.75338
G1 X147.404 Y27.231 E70.00588
G1 X152.134 Y31.506 E70.2508
G1 X156.563 Y36.35 E70.50294
G1 X160.617 Y41.766 E70.76283
G1 X164.006 Y47.403 E71.0155
G1 X166.823 Y53.338 E71.26788
G1 X169.046 Y59.523 E71.52036
G1 X170.652 Y65.893 E71.77272
G1 X171.626 Y72.391 E72.02513
G1 X171.958 Y78.954 E72.27758
G1 X171.655 Y85.325 E72.5226
G1 X170.691 Y92.015 E72.78225
G1 X169.102 Y98.395 E73.03483
G1 X166.897 Y104.584 E73.28722
G1 X164.097 Y110.53 E73.5397
G1 X160.728 Y116.17 E73.79207
G1 X156.82 Y121.455 E74.04458
G1 X152.545 Y126.185 E74.2895
G1 X147.557 Y130.744 E74.54909
G1 X142.434 Y134.557 E74.79442
G1 X136.818 Y137.955 E75.04658
G1 X130.718 Y140.872 E75.30633
G1 X124.528 Y143.097 E75.55902
G1 X118.345 Y144.656 E75.80397
G1 X111.663 Y145.676 E76.06364
G1 X105.096 Y146.009 E76.31624
G1 X98.534 Y145.696 E76.56861
G1 X92.03 Y144.741 E76.82114
G1 X85.656 Y143.153 E77.07349
G1 X79.465 Y140.947 E77.32596
G1 X73.521 Y138.148 E77.57835
G1 X68.047 Y134.878 E77.8233
G1 X62.6 Y130.874 E78.083
G1 X57.864 Y126.594 E78.32823
G1 X53.436 Y121.751 E78.58031
G1 X49.382 Y116.334 E78.84023
G1 X45.994 Y110.7 E79.09279
G1 X43.176 Y104.762 E79.34528
G1 X40.954 Y98.579 E79.59768
G1 X39.348 Y92.209 E79.85004
G1 X38.374 Y85.709 E80.10253
G1 X38.042 Y79.148 E80.35489
G1 X38.345 Y72.777 E80.59992
G1 X39.309 Y66.087 E80.85957
G1 X40.898 Y59.707 E81.11215
G1 X43.103 Y53.518 E81.36454
G1 X45.903 Y47.572 E81.61702
G1 X49.272 Y41.932 E81.86939
G1 X53.18 Y36.647 E82.12189
M204 S3000
M205 X10 Y10
G0 F1800 X53.63 Y36.981
M204 S1800
M205 X8 Y8
G1 F2400 X58 Y32.15 E82.37214
G1 X62.68 Y27.899 E82.61502
G1 X67.897 Y23.997 E82.86529
G1 X73.471 Y20.626 E83.11553
G1 X79.349 Y17.819 E83.36576
G1 X85.475 Y15.598 E83.61609
G1 X91.787 Y13.99 E83.86631
G1 X98.231 Y13.009 E84.11671
G1 X104.735 Y12.663 E84.36692
G1 X111.242 Y12.955 E84.61714
G1 X117.693 Y13.886 E84.86752
G1 X124.017 Y15.444 E85.11773
G1 X130.343 Y17.679 E85.37547
G1 X136.24 Y20.46 E85.62593
G1 X141.831 Y23.803 E85.87618
G1 X147.07 Y27.681 E86.12657
G1 X151.758 Y31.921 E86.3694
G1 X156.15 Y36.728 E86.61953
G1 X160.168 Y42.101 E86.87727
G1 X163.526 Y47.69 E87.12774
G1 X166.317 Y53.578 E87.37806
G1 X168.519 Y59.711 E87.62839
G1 X170.109 Y66.029 E87.87866
G1 X171.072 Y72.474 E88.129
G1 X171.398 Y78.981 E88.37928
G1 X171.095 Y85.298 E88.62223
G1 X170.136 Y91.935 E88.87984
G1 X168.559 Y98.259 E89.13022
G1 X166.37 Y104.396 E89.38053
G1 X163.591 Y110.29 E89.63085
G1 X160.248 Y115.882 E89.88113
G1 X156.37 Y121.121 E90.13153
G1 X152.13 Y125.809 E90.37435
G1 X147.18 Y130.331 E90.63191
G1 X142.1 Y134.107 E90.87507
G1 X136.529 Y137.476 E91.12517
G1 X130.477 Y140.366 E91.38281
G1 X124.34 Y142.57 E91.63331
G1 X118.209 Y144.113 E91.87618
G1 X111.579 Y145.122 E92.1338
G1 X105.069 Y145.449 E92.3842
G1 X98.561 Y145.136 E92.6345
G1 X92.113 Y144.187 E92.88487
G1 X85.792 Y142.61 E93.13514
G1 X79.653 Y140.42 E93.38553
G1 X73.761 Y137.642 E93.63577
G1 X68.334 Y134.398 E93.87866
G1 X62.932 Y130.423 E94.1363
G1 X58.24 Y126.179 E94.37934
G1 X53.849 Y121.373 E94.62942
G1 X49.831 Y115.999 E94.88719
G1 X46.474 Y110.412 E95.13758
G1 X43.682 Y104.522 E95.38798
G1 X41.481 Y98.391 E95.63823
G1 X39.891 Y92.073 E95.8885
G1 X38.928 Y85.626 E96.13891
G1 X38.602 Y79.121 E96.38912
G1 X38.905 Y72.804 E96.63207
G1 X39.864 Y66.167 E96.88968
G1 X41.441 Y59.843 E97.14006
G1 X43.63 Y53.706 E97.39036
G1 X46.409 Y47.812 E97.64069
G1 X49.752 Y42.22 E97.89097
G1 X53.63 Y36.981 E98.14137
M204 S3000
M205 X10 Y10
G0 F1800 X54.079 Y37.315
M204 S1800
M205 X8 Y8
G1 F2400 X58.415 Y32.526 E98.38954
G1 X63.056 Y28.314 E98.63031
G1 X68.232 Y24.446 E98.87853
G1 X73.76 Y21.106 E99.12664
G1 X79.59 Y18.325 E99.37478
G1 X85.666 Y16.125 E99.62302
G1 X91.924 Y14.533 E99.87108
G1 X98.314 Y13.562 E100.11938
G1 X104.764 Y13.222 E100.3675
G1 X111.217 Y13.515 E100.61565
G1 X117.613 Y14.44 E100.86391
G1 X123.883 Y15.988 E101.11201
G1 X130.156 Y18.207 E101.36762
G1 X136 Y20.967 E101.6159
G1 X141.543 Y24.283 E101.86403
G1 X146.736 Y28.13 E102.1123
G1 X151.382 Y32.336 E102.35305
G1 X155.736 Y37.105 E102.60112
G1 X159.719 Y42.436 E102.85676
G1 X163.046 Y47.978 E103.10508
G1 X165.81 Y53.817 E103.35325
G1 X167.992 Y59.9 E103.60151
G1 X169.566 Y66.165 E103.84966
G1 X170.518 Y72.556 E104.09788
G1 X170.839 Y79.009 E104.34608
G1 X170.536 Y85.27 E104.58689
G1 X169.582 Y91.854 E104.84245
G1 X168.016 Y98.123 E105.09068
G1 X165.843 Y104.207 E105.33886
G1 X163.084 Y110.051 E105.58712
G1 X159.768 Y115.594 E105.83525
G1 X155.921 Y120.787 E106.08352
G1 X151.715 Y125.433 E106.32427
G1 X146.803 Y129.917 E106.57977
G1 X141.766 Y133.658 E106.8208
G1 X136.24 Y136.996 E107.0688
G1 X130.236 Y139.86 E107.32435
G1 X124.151 Y142.043 E107.57269
G1 X118.073 Y143.57 E107.81344
G1 X111.496 Y144.569 E108.069
G1 X105.041 Y144.89 E108.31727
G1 X98.589 Y144.577 E108.56542
G1 X92.195 Y143.633 E108.81371
G1 X85.928 Y142.067 E109.06186
G1 X79.842 Y139.893 E109.31013
G1 X74 Y137.135 E109.55831
G1 X68.622 Y133.918 E109.79904
G1 X63.265 Y129.972 E110.05464
G1 X58.616 Y125.764 E110.29553
G1 X54.263 Y120.996 E110.54355
G1 X50.28 Y115.664 E110.79922
G1 X46.954 Y110.124 E111.04745
G1 X44.189 Y104.283 E111.2957
G1 X42.008 Y98.202 E111.54388
G1 X40.434 Y91.937 E111.79203
G1 X39.482 Y85.544 E112.04033
G1 X39.161 Y79.093 E112.28845
G1 X39.464 Y72.832 E112.52925
G1 X40.418 Y66.248 E112.78482
G1 X41.984 Y59.979 E113.03305
G1 X44.157 Y53.895 E113.28123
G1 X46.916 Y48.051 E113.52949
G1 X50.232 Y42.508 E113.77762
G1 X54.079 Y37.315 E114.02589
M204 S3000
M205 X10 Y10
G0 F1800 X54.529 Y37.648
M204 S1800
M205 X8 Y8
G1 F2400 X58.83 Y32.902 E114.27194
G1 X63.432 Y28.729 E114.51058
G1 X68.567 Y24.895 E114.75677
G1 X74.049 Y21.585 E115.00277
G1 X79.831 Y18.83 E115.24881
G1 X85.856 Y16.652 E115.49493
G1 X92.062 Y15.076 E115.7409
G1 X98.398 Y14.116 E115.98708
G1 X104.793 Y13.781 E116.23308
G1 X111.191 Y14.074 E116.47912
G1 X117.532 Y14.994 E116.72526
G1 X123.748 Y16.531 E116.97125
G1 X129.969 Y18.735 E117.22478
G1 X135.761 Y21.473 E117.47089
G1 X141.255 Y24.764 E117.71692
G1 X146.403 Y28.58 E117.96309
G1 X151.006 Y32.751 E118.20171
G1 X155.322 Y37.482 E118.44772
G1 X159.27 Y42.771 E118.70126
G1 X162.565 Y48.266 E118.9474
G1 X165.304 Y54.056 E119.19346
G1 X167.465 Y60.089 E119.43964
G1 X169.023 Y66.301 E119.68566
G1 X169.964 Y72.638 E119.93177
G1 X170.28 Y79.036 E120.17785
G1 X169.977 Y85.243 E120.41658
G1 X169.028 Y91.773 E120.67007
G1 X167.473 Y97.987 E120.91615
G1 X165.316 Y104.018 E121.1622
G1 X162.578 Y109.812 E121.40838
G1 X159.287 Y115.306 E121.6544
G1 X155.471 Y120.454 E121.90057
G1 X151.3 Y125.057 E122.1392
G1 X146.426 Y129.503 E122.39263
G1 X141.433 Y133.208 E122.63148
G1 X135.951 Y136.517 E122.87746
G1 X129.995 Y139.355 E123.13091
G1 X123.962 Y141.516 E123.37709
G1 X117.937 Y143.027 E123.61571
G1 X111.412 Y144.015 E123.86923
G1 X105.014 Y144.331 E124.11531
G1 X98.616 Y144.018 E124.36139
