;FLAVOR:Marlin
;TIME:2584
;Filament used: 1.12893m
;Layer height: 0.1
;MINX:66.355
;MINY:15.722
;MINZ:0.15
;MAXX:139.25
;MAXY:54.716
;MAXZ:5.525
;Generated with Cura_SteamEngine 4.5.0
M140 S60
M105
M190 S60
M104 S200
M105
M109 S200
M82 ;absolute extrusion mode
G21 ;metric values
G90 ;absolute positioning
M82 ;set extruder to absolute mode
M107 ;start with the fan off
G28 X0 Y0 ;move X/Y to min endstops
G28 Z0 ;move Z to min endstops
G1 Z15.0 F100 ;move the platform down 15mm
G92 E0 ;zero the extruded length
G1 F200 E3 ;extrude 3mm of feed stock
G92 E0 ;zero the extruded length again
G1 F100
G0 Y20 F100
M117 Printing...
G5
G92 E0
G92 E0
G1 F2400 E-6
;LAYER_COUNT:54
;LAYER:0
M106 S255
M204 S3000
M205 X10 Y10
G1 F600 Z0.225
G0 F1800 X67.045 Y25.828 Z0.225
M204 S1800
M205 X8 Y8
;TYPE:SKIRT
G1 F600 Z0.15
G1 F2400 E0
G1 X67.46 Y24.9 E0.03905
G1 X67.957 Y24.031 E0.07751
G1 X68.534 Y23.22 E0.11574
G1 X69.179 Y22.476 E0.15357
G1 X69.92 Y21.775 E0.19276
G1 X70.705 Y21.167 E0.2309
G1 X71.551 Y20.635 E0.26929
G1 X72.449 Y20.188 E0.30783
G1 X73.372 Y19.834 E0.3458
G1 X74.336 Y19.569 E0.38421
G1 X75.335 Y19.399 E0.42314
G1 X76.326 Y19.328 E0.4613
G1 X77.32 Y19.354 E0.4995
G1 X78.316 Y19.479 E0.53806
G1 X79.298 Y19.702 E0.57675
G1 X80.245 Y20.018 E0.6151
G1 X81.158 Y20.425 E0.6535
G1 X82.039 Y20.928 E0.69247
G1 X82.852 Y21.506 E0.73079
G1 X83.603 Y22.158 E0.769
G1 X84.295 Y22.89 E0.80769
G1 X84.55 Y23.2 E0.82311
G1 X85.179 Y22.476 E0.85996
G1 X85.92 Y21.775 E0.89914
G1 X86.705 Y21.167 E0.93729
G1 X87.553 Y20.633 E0.97578
G1 X88.462 Y20.182 E1.01476
G1 X89.372 Y19.834 E1.05219
G1 X90.336 Y19.569 E1.0906
G1 X91.335 Y19.399 E1.12953
G1 X92.326 Y19.328 E1.16769
G1 X92.733 Y19.327 E1.18333
G1 X93.32 Y19.354 E1.2059
G1 X94.316 Y19.479 E1.24446
G1 X95.298 Y19.702 E1.28315
G1 X96.245 Y20.018 E1.3215
G1 X97.158 Y20.425 E1.3599
G1 X98.027 Y20.92 E1.39832
G1 X98.857 Y21.51 E1.43744
G1 X99.608 Y22.162 E1.47565
G1 X100.303 Y22.899 E1.51456
G1 X100.908 Y23.681 E1.55254
G1 X101.441 Y24.531 E1.59108
G1 X101.887 Y25.426 E1.6295
G1 X102.244 Y26.359 E1.66787
G1 X102.506 Y27.32 E1.70614
G1 X102.674 Y28.31 E1.74471
G1 X102.744 Y29.308 E1.78315
G1 X102.716 Y30.305 E1.82146
G1 X102.59 Y31.305 E1.86018
G1 X102.369 Y32.273 E1.89832
G1 X102.05 Y33.227 E1.93697
G1 X101.646 Y34.132 E1.97504
G1 X101.152 Y34.999 E2.01337
G1 X100.562 Y35.829 E2.05249
G1 X99.91 Y36.58 E2.0907
G1 X99.453 Y37.022 E2.11512
G1 X99.907 Y37.461 E2.13938
G1 X100.295 Y37.89 E2.1616
G1 X100.899 Y38.668 E2.19944
G1 X101.442 Y39.53 E2.23858
G1 X101.89 Y40.43 E2.2772
G1 X102.244 Y41.362 E2.3155
G1 X102.505 Y42.315 E2.35345
G1 X102.675 Y43.314 E2.39238
G1 X102.744 Y44.304 E2.43051
G1 X102.716 Y45.316 E2.4694
G1 X102.593 Y46.291 E2.50715
G1 X102.37 Y47.27 E2.54572
G1 X102.05 Y48.227 E2.58449
G1 X101.639 Y49.145 E2.62313
G1 X101.143 Y50.013 E2.66153
G1 X100.56 Y50.832 E2.70015
G1 X99.916 Y51.573 E2.73786
G1 X99.18 Y52.269 E2.77678
G1 X98.395 Y52.877 E2.81492
G1 X97.549 Y53.409 E2.85331
G1 X96.646 Y53.859 E2.89207
G1 X95.717 Y54.214 E2.93027
G1 X94.757 Y54.477 E2.96851
G1 X93.754 Y54.647 E3.00759
G1 X92.774 Y54.716 E3.04533
G1 X91.78 Y54.69 E3.08353
G1 X90.77 Y54.563 E3.12264
G1 X89.799 Y54.341 E3.1609
G1 X88.855 Y54.026 E3.19913
G1 X87.929 Y53.612 E3.2381
G1 X87.071 Y53.123 E3.27603
G1 X86.241 Y52.532 E3.31518
G1 X85.49 Y51.88 E3.35338
G1 X84.804 Y51.153 E3.39178
G1 X84.55 Y50.844 E3.40715
G1 X83.91 Y51.58 E3.44461
G1 X83.182 Y52.267 E3.48307
G1 X82.4 Y52.874 E3.5211
G1 X81.549 Y53.409 E3.55971
G1 X80.646 Y53.859 E3.59847
G1 X79.713 Y54.216 E3.63684
G1 X78.752 Y54.478 E3.67511
G1 X77.758 Y54.647 E3.71384
G1 X76.764 Y54.716 E3.75212
G1 X75.78 Y54.69 E3.78993
G1 X74.77 Y54.563 E3.82904
G1 X73.785 Y54.337 E3.86786
G1 X72.852 Y54.025 E3.90565
G1 X71.929 Y53.612 E3.9445
G1 X71.071 Y53.123 E3.98244
G1 X70.254 Y52.543 E4.02093
G1 X69.491 Y51.881 E4.05973
G1 X68.804 Y51.153 E4.09818
G1 X68.238 Y50.424 E4.13364
G1 X67.685 Y49.558 E4.17311
G1 X67.206 Y48.603 E4.21415
G1 X66.855 Y47.683 E4.25198
G1 X66.592 Y46.718 E4.2904
G1 X66.424 Y45.72 E4.32928
G1 X66.355 Y44.731 E4.36737
G1 X66.383 Y43.742 E4.40538
G1 X66.507 Y42.756 E4.44355
G1 X66.734 Y41.761 E4.48276
G1 X67.054 Y40.807 E4.52141
G1 X67.458 Y39.905 E4.55938
G1 X67.957 Y39.031 E4.59804
G1 X68.534 Y38.22 E4.63628
G1 X69.186 Y37.469 E4.67448
G1 X69.647 Y37.022 E4.69915
G1 X69.191 Y36.581 E4.72352
G1 X68.804 Y36.153 E4.74569
G1 X68.197 Y35.371 E4.78372
G1 X67.659 Y34.515 E4.82255
G1 X67.207 Y33.606 E4.86155
G1 X66.855 Y32.683 E4.8995
G1 X66.592 Y31.718 E4.93792
G1 X66.424 Y30.72 E4.9768
G1 X66.355 Y29.731 E5.01489
G1 X66.383 Y28.742 E5.0529
G1 X66.509 Y27.742 E5.09162
G1 X66.735 Y26.757 E5.13044
G1 X67.045 Y25.828 E5.16806
M204 S3000
M205 X10 Y10
G0 F1800 X67.573 Y26.015
M204 S1800
M205 X8 Y8
G1 F2400 X67.967 Y25.139 E5.20496
G1 X68.438 Y24.319 E5.24129
G1 X68.983 Y23.554 E5.27737
G1 X69.595 Y22.851 E5.31318
G1 X70.297 Y22.19 E5.35022
G1 X71.039 Y21.616 E5.38625
G1 X71.839 Y21.115 E5.42252
G1 X72.688 Y20.694 E5.45892
G1 X73.562 Y20.361 E5.49485
G1 X74.473 Y20.112 E5.53113
G1 X75.418 Y19.953 E5.56794
G1 X76.354 Y19.888 E5.60399
G1 X77.294 Y19.914 E5.64011
G1 X78.235 Y20.033 E5.67655
G1 X79.162 Y20.245 E5.71308
G1 X80.057 Y20.545 E5.74934
G1 X80.919 Y20.932 E5.78564
G1 X81.751 Y21.409 E5.82248
G1 X82.518 Y21.955 E5.85865
G1 X83.228 Y22.574 E5.89483
G1 X83.88 Y23.265 E5.93133
G1 X84.45 Y24.003 E5.96715
G1 X84.55 Y24.151 E5.97401
G1 X84.983 Y23.554 E6.00234
G1 X85.595 Y22.851 E6.03815
G1 X86.297 Y22.19 E6.07519
G1 X87.039 Y21.616 E6.11123
G1 X87.842 Y21.113 E6.14763
G1 X88.7 Y20.689 E6.18439
G1 X89.562 Y20.361 E6.21982
G1 X90.473 Y20.112 E6.2561
G1 X91.418 Y19.953 E6.29292
G1 X92.354 Y19.888 E6.32896
G1 X92.707 Y19.887 E6.34252
G1 X93.294 Y19.914 E6.3651
G1 X94.235 Y20.033 E6.40153
G1 X95.162 Y20.245 E6.43806
G1 X96.057 Y20.545 E6.47433
G1 X96.919 Y20.932 E6.51062
G1 X97.739 Y21.401 E6.54691
G1 X98.523 Y21.96 E6.5839
G1 X99.233 Y22.577 E6.62004
G1 X99.887 Y23.274 E6.65675
G1 X100.459 Y24.015 E6.69271
G1 X100.961 Y24.818 E6.72909
G1 X101.381 Y25.666 E6.76545
G1 X101.717 Y26.549 E6.80174
G1 X101.963 Y27.456 E6.83784
G1 X102.121 Y28.393 E6.87435
G1 X102.185 Y29.335 E6.91062
G1 X102.157 Y30.279 E6.9469
G1 X102.036 Y31.223 E6.98346
G1 X101.826 Y32.137 E7.01948
G1 X101.523 Y33.039 E7.05604
G1 X101.14 Y33.893 E7.09199
G1 X100.671 Y34.711 E7.12821
G1 X100.112 Y35.495 E7.1652
G1 X99.495 Y36.205 E7.20134
G1 X98.807 Y36.852 E7.23762
G1 X98.599 Y37.022 E7.24794
G1 X99.233 Y37.577 E7.28031
G1 X99.88 Y38.265 E7.31659
G1 X100.45 Y39.003 E7.35241
G1 X100.962 Y39.819 E7.38942
G1 X101.384 Y40.669 E7.42587
G1 X101.717 Y41.55 E7.46205
G1 X101.963 Y42.453 E7.49801
G1 X102.121 Y43.395 E7.5347
G1 X102.185 Y44.333 E7.57082
G1 X102.157 Y45.288 E7.60752
G1 X102.039 Y46.21 E7.64323
G1 X101.827 Y47.134 E7.67965
G1 X101.523 Y48.039 E7.71632
G1 X101.133 Y48.906 E7.75284
G1 X100.662 Y49.725 E7.78914
G1 X100.11 Y50.498 E7.82563
G1 X99.501 Y51.197 E7.86124
G1 X98.803 Y51.854 E7.89806
G1 X98.061 Y52.428 E7.9341
G1 X97.261 Y52.929 E7.97036
G1 X96.406 Y53.353 E8.00703
G1 X95.528 Y53.687 E8.04311
G1 X94.619 Y53.935 E8.07931
G1 X93.673 Y54.093 E8.11615
G1 X92.746 Y54.156 E8.15185
G1 X91.806 Y54.13 E8.18797
G1 X90.851 Y54.009 E8.22495
G1 X89.935 Y53.798 E8.26106
G1 X89.043 Y53.499 E8.2972
G1 X88.168 Y53.105 E8.33406
G1 X87.359 Y52.642 E8.36987
G1 X86.574 Y52.083 E8.40689
G1 X85.865 Y51.464 E8.44305
G1 X85.219 Y50.777 E8.47928
G1 X84.688 Y50.09 E8.51263
G1 X84.552 Y49.889 E8.52196
G1 X84.11 Y50.498 E8.55086
G1 X83.495 Y51.205 E8.58686
G1 X82.807 Y51.852 E8.62314
G1 X82.065 Y52.425 E8.65915
G1 X81.261 Y52.929 E8.69561
G1 X80.406 Y53.353 E8.73227
G1 X79.523 Y53.689 E8.76856
G1 X78.616 Y53.935 E8.80467
G1 X77.675 Y54.093 E8.84132
G1 X76.736 Y54.157 E8.87748
G1 X75.806 Y54.13 E8.91322
G1 X74.851 Y54.009 E8.9502
G1 X73.922 Y53.794 E8.98683
G1 X73.04 Y53.498 E9.02257
G1 X72.168 Y53.105 E9.05931
G1 X71.359 Y52.642 E9.09512
G1 X70.587 Y52.093 E9.13151
G1 X69.866 Y51.465 E9.16824
G1 X69.219 Y50.777 E9.20452
G1 X68.688 Y50.09 E9.23788
G1 X68.161 Y49.263 E9.27555
G1 X67.713 Y48.365 E9.3141
G1 X67.382 Y47.494 E9.3499
G1 X67.135 Y46.581 E9.38623
G1 X66.978 Y45.638 E9.42295
G1 X66.914 Y44.703 E9.45896
G1 X66.942 Y43.769 E9.49485
G1 X67.061 Y42.837 E9.53095
G1 X67.277 Y41.897 E9.568
G1 X67.581 Y40.996 E9.60453
G1 X67.965 Y40.143 E9.64046
G1 X68.438 Y39.319 E9.67696
G1 X68.983 Y38.554 E9.71305
G1 X69.602 Y37.844 E9.74923
G1 X70.302 Y37.185 E9.78616
G1 X70.5 Y37.022 E9.79602
G1 X69.869 Y36.468 E9.82827
G1 X69.219 Y35.777 E9.86472
G1 X68.647 Y35.036 E9.90068
G1 X68.139 Y34.226 E9.93741
G1 X67.714 Y33.368 E9.97419
G1 X67.382 Y32.494 E10.0101
G1 X67.135 Y31.581 E10.04644
G1 X66.978 Y30.638 E10.08316
G1 X66.914 Y29.703 E10.11917
G1 X66.942 Y28.769 E10.15506
G1 X67.063 Y27.823 E10.1917
G1 X67.278 Y26.894 E10.22833
G1 X67.573 Y26.015 E10.26395
M204 S3000
M205 X10 Y10
G0 F1800 X68.1 Y26.203
M204 S1800
M205 X8 Y8
G1 F2400 X68.473 Y25.379 E10.29869
G1 X68.918 Y24.607 E10.33293
G1 X69.433 Y23.888 E10.3669
G1 X70.011 Y23.226 E10.40066
G1 X70.673 Y22.604 E10.43556
G1 X71.373 Y22.066 E10.46947
G1 X72.128 Y21.595 E10.50366
G1 X72.928 Y21.2 E10.53793
G1 X73.753 Y20.887 E10.57183
G1 X74.611 Y20.654 E10.60598
G1 X75.5 Y20.507 E10.6406
G1 X76.383 Y20.447 E10.6746
G1 X77.269 Y20.473 E10.70865
G1 X78.155 Y20.587 E10.74296
G1 X79.027 Y20.789 E10.77735
G1 X79.87 Y21.073 E10.81152
G1 X80.681 Y21.438 E10.84569
G1 X81.464 Y21.889 E10.8804
G1 X82.184 Y22.405 E10.91443
G1 X82.854 Y22.99 E10.9486
G1 X83.464 Y23.641 E10.98287
G1 X84.001 Y24.338 E11.01667
G1 X84.477 Y25.1 E11.05118
G1 X84.549 Y25.236 E11.05709
G1 X84.918 Y24.607 E11.08511
G1 X85.433 Y23.888 E11.11908
G1 X86.011 Y23.226 E11.15284
G1 X86.673 Y22.604 E11.18774
G1 X87.373 Y22.066 E11.22166
G1 X88.131 Y21.592 E11.256
G1 X88.937 Y21.196 E11.2905
G1 X89.753 Y20.887 E11.32402
G1 X90.611 Y20.654 E11.35817
G1 X91.5 Y20.507 E11.39279
G1 X92.383 Y20.447 E11.42678
G1 X93.269 Y20.473 E11.46084
G1 X94.155 Y20.587 E11.49515
G1 X95.027 Y20.789 E11.52954
G1 X95.87 Y21.073 E11.56371
G1 X96.681 Y21.438 E11.59787
G1 X97.452 Y21.882 E11.63205
G1 X98.19 Y22.41 E11.66691
G1 X98.857 Y22.993 E11.70094
G1 X99.472 Y23.65 E11.73552
G1 X100.01 Y24.349 E11.7694
G1 X100.48 Y25.105 E11.8036
G1 X100.875 Y25.906 E11.83791
G1 X101.19 Y26.738 E11.87208
G1 X101.42 Y27.592 E11.90606
G1 X101.567 Y28.476 E11.94048
G1 X101.625 Y29.362 E11.97459
G1 X101.598 Y30.253 E12.00884
G1 X101.482 Y31.142 E12.04328
G1 X101.283 Y32.001 E12.07715
G1 X100.995 Y32.851 E12.11163
G1 X100.633 Y33.654 E12.14546
G1 X100.19 Y34.424 E12.17959
G1 X99.662 Y35.162 E12.21445
G1 X99.079 Y35.829 E12.24848
G1 X98.431 Y36.436 E12.28259
G1 X97.731 Y36.976 E12.31655
G1 X97.662 Y37.022 E12.31974
G1 X98.19 Y37.41 E12.34491
G1 X98.857 Y37.993 E12.37894
G1 X99.464 Y38.641 E12.41305
G1 X100.001 Y39.338 E12.44685
G1 X100.482 Y40.107 E12.48169
G1 X100.878 Y40.909 E12.51605
G1 X101.189 Y41.738 E12.55007
G1 X101.42 Y42.591 E12.58402
G1 X101.566 Y43.476 E12.61847
G1 X101.626 Y44.362 E12.65259
G1 X101.597 Y45.261 E12.68714
G1 X101.485 Y46.129 E12.72076
G1 X101.283 Y46.999 E12.75507
G1 X100.995 Y47.851 E12.78962
G1 X100.626 Y48.666 E12.82399
G1 X100.182 Y49.437 E12.85817
G1 X99.661 Y50.164 E12.89253
G1 X99.086 Y50.822 E12.9261
G1 X98.427 Y51.44 E12.9608
G1 X97.727 Y51.978 E12.99472
G1 X96.972 Y52.449 E13.0289
G1 X96.166 Y52.847 E13.06343
G1 X95.339 Y53.159 E13.09739
G1 X94.481 Y53.392 E13.13154
G1 X93.592 Y53.539 E13.16616
G1 X92.717 Y53.597 E13.19985
G1 X91.831 Y53.571 E13.2339
G1 X90.932 Y53.455 E13.26872
G1 X90.071 Y53.255 E13.30268
G1 X89.23 Y52.971 E13.33677
G1 X88.407 Y52.599 E13.37147
G1 X87.646 Y52.161 E13.4052
G1 X86.908 Y51.633 E13.44006
G1 X86.241 Y51.049 E13.47412
G1 X85.634 Y50.402 E13.5082
G1 X85.137 Y49.757 E13.53948
G1 X84.642 Y48.976 E13.575
G1 X84.551 Y48.808 E13.58234
G1 X84.182 Y49.437 E13.61035
G1 X83.661 Y50.164 E13.64471
G1 X83.079 Y50.829 E13.67866
G1 X82.431 Y51.436 E13.71277
G1 X81.731 Y51.976 E13.74673
G1 X80.972 Y52.449 E13.78109
G1 X80.166 Y52.847 E13.81562
G1 X79.334 Y53.162 E13.8498
G1 X78.48 Y53.392 E13.88377
G1 X77.593 Y53.539 E13.91831
G1 X76.709 Y53.597 E13.95234
G1 X75.831 Y53.571 E13.98609
G1 X74.932 Y53.455 E14.02091
G1 X74.058 Y53.251 E14.05539
G1 X73.228 Y52.97 E14.08905
G1 X72.407 Y52.599 E14.12366
G1 X71.646 Y52.161 E14.15739
G1 X70.92 Y51.642 E14.19167
G1 X70.241 Y51.05 E14.22628
G1 X69.634 Y50.402 E14.26039
G1 X69.137 Y49.757 E14.29167
G1 X68.637 Y48.969 E14.32752
G1 X68.219 Y48.127 E14.36363
G1 X67.909 Y47.304 E14.39741
G1 X67.678 Y46.445 E14.43159
G1 X67.532 Y45.557 E14.46616
G1 X67.474 Y44.675 E14.50011
G1 X67.502 Y43.796 E14.5339
G1 X67.615 Y42.917 E14.56794
G1 X67.82 Y42.033 E14.6028
G1 X68.108 Y41.186 E14.63717
G1 X68.472 Y40.382 E14.67107
G1 X68.918 Y39.607 E14.70542
G1 X69.433 Y38.888 E14.7394
G1 X70.018 Y38.218 E14.77357
G1 X70.678 Y37.6 E14.8083
G1 X71.373 Y37.066 E14.84197
G1 X71.438 Y37.022 E14.84499
G1 X70.914 Y36.637 E14.86997
G1 X70.244 Y36.052 E14.90413
G1 X69.634 Y35.402 E14.93838
G1 X69.096 Y34.702 E14.97229
G1 X68.619 Y33.938 E15.00689
G1 X68.221 Y33.129 E15.04153
G1 X67.909 Y32.304 E15.07541
G1 X67.678 Y31.445 E15.10958
G1 X67.532 Y30.557 E15.14415
G1 X67.474 Y29.675 E15.17811
G1 X67.502 Y28.796 E15.21189
G1 X67.617 Y27.904 E15.24644
G1 X67.821 Y27.03 E15.28092
G1 X68.1 Y26.203 E15.31445
M204 S3000
M205 X10 Y10
G0 F1800 X68.628 Y26.391
M204 S1800
M205 X8 Y8
G1 F2400 X68.979 Y25.618 E15.34706
G1 X69.398 Y24.895 E15.37917
G1 X69.883 Y24.222 E15.41103
G1 X70.427 Y23.601 E15.44275
G1 X71.049 Y23.019 E15.47547
G1 X71.707 Y22.515 E15.50731
G1 X72.416 Y22.075 E15.53937
G1 X73.167 Y21.707 E15.57149
G1 X73.943 Y21.414 E15.60336
G1 X74.749 Y21.197 E15.63542
G1 X75.582 Y21.06 E15.66785
G1 X76.411 Y21.006 E15.69977
G1 X77.243 Y21.033 E15.73175
G1 X78.074 Y21.141 E15.76394
G1 X78.891 Y21.332 E15.79617
G1 X79.682 Y21.601 E15.82827
G1 X80.442 Y21.945 E15.86031
G1 X81.176 Y22.37 E15.8929
G1 X81.85 Y22.855 E15.92479
G1 X82.479 Y23.406 E15.95692
G1 X83.049 Y24.017 E15.98902
G1 X83.553 Y24.673 E16.0208
G1 X83.997 Y25.388 E16.05313
G1 X84.369 Y26.145 E16.08553
G1 X84.549 Y26.613 E16.10479
G1 X84.979 Y25.618 E16.14643
G1 X85.398 Y24.895 E16.17853
G1 X85.883 Y24.222 E16.2104
G1 X86.427 Y23.601 E16.24212
G1 X87.049 Y23.019 E16.27484
G1 X87.707 Y22.515 E16.30668
G1 X88.42 Y22.072 E16.33893
G1 X89.175 Y21.703 E16.37121
G1 X89.943 Y21.414 E16.40273
G1 X90.749 Y21.197 E16.4348
G1 X91.582 Y21.06 E16.46723
G1 X92.411 Y21.006 E16.49914
G1 X93.243 Y21.033 E16.53112
G1 X94.074 Y21.141 E16.56331
G1 X94.891 Y21.332 E16.59554
G1 X95.682 Y21.601 E16.62764
G1 X96.442 Y21.945 E16.65969
G1 X97.165 Y22.362 E16.69175
G1 X97.857 Y22.859 E16.72448
G1 X98.482 Y23.408 E16.75644
G1 X99.056 Y24.025 E16.78881
G1 X99.561 Y24.684 E16.8207
G1 X99.999 Y25.392 E16.85269
G1 X100.369 Y26.145 E16.88492
G1 X100.663 Y26.928 E16.91705
G1 X100.877 Y27.728 E16.94886
G1 X101.013 Y28.559 E16.98121
G1 X101.066 Y29.389 E17.01316
G1 X101.038 Y30.227 E17.04537
G1 X100.928 Y31.061 E17.07768
G1 X100.74 Y31.865 E17.1094
G1 X100.468 Y32.663 E17.14179
G1 X100.126 Y33.415 E17.17352
G1 X99.71 Y34.137 E17.20553
G1 X99.213 Y34.829 E17.23826
G1 X98.664 Y35.454 E17.27022
G1 X98.055 Y36.021 E17.30219
G1 X97.396 Y36.527 E17.3341
G1 X96.684 Y36.969 E17.3663
G1 X96.586 Y37.021 E17.37056
G1 X97.165 Y37.362 E17.39637
G1 X97.857 Y37.859 E17.4291
G1 X98.482 Y38.408 E17.46106
G1 X99.049 Y39.017 E17.49302
G1 X99.553 Y39.673 E17.5248
G1 X100.002 Y40.396 E17.5575
G1 X100.371 Y41.148 E17.58968
G1 X100.662 Y41.926 E17.62159
G1 X100.877 Y42.729 E17.65352
G1 X101.012 Y43.557 E17.68575
G1 X101.067 Y44.391 E17.71786
G1 X101.038 Y45.233 E17.75022
G1 X100.931 Y46.048 E17.7818
G1 X100.74 Y46.863 E17.81396
G1 X100.468 Y47.663 E17.84642
G1 X100.12 Y48.427 E17.87867
G1 X99.702 Y49.149 E17.91072
G1 X99.211 Y49.83 E17.94297
G1 X98.67 Y50.446 E17.97446
G1 X98.051 Y51.025 E18.00702
G1 X97.393 Y51.529 E18.03886
G1 X96.684 Y51.969 E18.07092
G1 X95.927 Y52.341 E18.10332
G1 X95.15 Y52.632 E18.13519
G1 X94.343 Y52.849 E18.1673
G1 X93.511 Y52.985 E18.19968
