;FLAVOR:Marlin
;TIME:1014
;Filament used: 0.427318m
;Layer height: 0.12
;MINX:95.836
;MINY:14.094
;MINZ:0.15
;MAXX:114.164
;MAXY:32.494
;MAXZ:20.025
;Generated with Cura_SteamEngine 4.5.0
M140 S60
M105
M190 S60
M104 S200
M105
M109 S200
M82 ;absolute extrusion mode
G21 ;metric values
G90 ;absolute positioning
M82 ;set extruder to absolute mode
M107 ;start with the fan off
G28 X0 Y0 ;move X/Y to min endstops
G28 Z0 ;move Z to min endstops
G1 Z15.0 F100 ;move the platform down 15mm
G92 E0 ;zero the extruded length
G1 F200 E3 ;extrude 3mm of feed stock
G92 E0 ;zero the extruded length again
G1 F100
G0 Y20 F100
M117 Printing...
G5
G92 E0
G92 E0
G1 F2400 E-6
;LAYER_COUNT:166
;LAYER:0
M106 S255
M204 S3000
M205 X10 Y10
G1 F600 Z0.225
G0 F1800 X95.876 Y19.681 Z0.225
M204 S1800
M205 X8 Y8
;TYPE:SKIRT
G1 F600 Z0.15
G1 F2400 E0
G1 X95.994 Y19.114 E0.02225
G1 X96.256 Y18.372 E0.05248
G1 X96.495 Y17.844 E0.07474
G1 X96.938 Y17.132 E0.10696
G1 X97.284 Y16.667 E0.12922
G1 X97.852 Y16.077 E0.16068
G1 X98.456 Y15.57 E0.19098
G1 X98.908 Y15.258 E0.21208
G1 X99.595 Y14.874 E0.24231
G1 X100.115 Y14.644 E0.26415
G1 X100.785 Y14.413 E0.29138
G1 X101.347 Y14.271 E0.31365
G1 X102.034 Y14.157 E0.3404
G1 X102.621 Y14.109 E0.36302
G1 X109.936 Y14.094 E0.64403
G1 X110.514 Y14.134 E0.66629
G1 X111.081 Y14.253 E0.68855
G1 X111.626 Y14.449 E0.7108
G1 X112.14 Y14.718 E0.73308
G1 X112.611 Y15.055 E0.75533
G1 X113.031 Y15.454 E0.77758
G1 X113.392 Y15.906 E0.79981
G1 X113.688 Y16.405 E0.82209
G1 X113.912 Y16.939 E0.84434
G1 X114.061 Y17.499 E0.8666
G1 X114.136 Y18.218 E0.89437
G1 X114.163 Y19.708 E0.95162
G1 X114.134 Y20.286 E0.97385
G1 X114.027 Y20.845 E0.99572
G1 X114.144 Y21.74 E1.03039
G1 X114.164 Y23.231 E1.08767
G1 X114.131 Y23.809 E1.10991
G1 X114.02 Y24.378 E1.13218
G1 X113.831 Y24.925 E1.15442
G1 X113.569 Y25.442 E1.17668
G1 X113.238 Y25.917 E1.19892
G1 X112.845 Y26.343 E1.22119
G1 X112.397 Y26.71 E1.24344
G1 X111.903 Y27.013 E1.2657
G1 X111.372 Y27.244 E1.28794
G1 X110.814 Y27.4 E1.3102
G1 X109.97 Y27.487 E1.3428
G1 X109.167 Y27.488 E1.37364
G1 X109.164 Y28.291 E1.40449
G1 X109.122 Y28.869 E1.42675
G1 X109 Y29.435 E1.449
G1 X108.802 Y29.979 E1.47124
G1 X108.531 Y30.491 E1.49349
G1 X108.192 Y30.961 E1.51575
G1 X107.791 Y31.38 E1.53803
G1 X107.337 Y31.739 E1.56027
G1 X106.838 Y32.033 E1.58251
G1 X106.303 Y32.255 E1.60477
G1 X105.742 Y32.401 E1.62703
G1 X105.02 Y32.474 E1.65491
G1 X103.522 Y32.494 E1.71246
G1 X102.944 Y32.461 E1.7347
G1 X102.455 Y32.366 E1.75384
G1 X102.249 Y32.42 E1.76202
G1 X101.462 Y32.494 E1.79239
G1 X100.042 Y32.494 E1.84694
G1 X99.464 Y32.454 E1.86919
G1 X98.897 Y32.335 E1.89145
G1 X98.352 Y32.139 E1.9137
G1 X97.839 Y31.87 E1.93595
G1 X97.368 Y31.533 E1.9582
G1 X96.948 Y31.134 E1.98045
G1 X96.586 Y30.681 E2.00273
G1 X96.291 Y30.183 E2.02497
G1 X96.066 Y29.649 E2.04723
G1 X95.918 Y29.089 E2.06948
G1 X95.842 Y28.297 E2.10004
G1 X95.836 Y20.259 E2.40883
G1 X95.876 Y19.681 E2.43108
M204 S3000
M205 X10 Y10
G0 F1800 X96.436 Y19.721
M204 S1800
M205 X8 Y8
G1 F2400 X96.625 Y18.986 E2.46024
G1 X96.781 Y18.567 E2.47741
G1 X97.13 Y17.869 E2.50739
G1 X97.409 Y17.435 E2.52721
G1 X97.88 Y16.846 E2.55618
G1 X98.251 Y16.47 E2.57648
G1 X98.774 Y16.031 E2.60271
G1 X99.226 Y15.719 E2.62381
G1 X99.822 Y15.386 E2.65003
G1 X100.342 Y15.156 E2.67187
G1 X100.922 Y14.956 E2.69544
G1 X101.484 Y14.814 E2.71771
G1 X102.079 Y14.715 E2.74088
G1 X102.666 Y14.667 E2.76351
G1 X109.936 Y14.654 E3.04279
G1 X110.474 Y14.694 E3.06351
G1 X111 Y14.813 E3.08423
G1 X111.503 Y15.008 E3.10495
G1 X111.971 Y15.275 E3.12565
G1 X112.395 Y15.609 E3.14639
G1 X112.765 Y16.002 E3.16712
G1 X113.072 Y16.445 E3.18783
G1 X113.311 Y16.928 E3.20853
G1 X113.476 Y17.442 E3.22927
G1 X113.576 Y18.228 E3.25971
G1 X113.603 Y19.718 E3.31695
G1 X113.573 Y20.256 E3.33765
G1 X113.464 Y20.785 E3.3584
G1 X113.584 Y21.747 E3.39565
G1 X113.604 Y23.238 E3.45293
G1 X113.571 Y23.776 E3.47363
G1 X113.459 Y24.304 E3.49437
G1 X113.27 Y24.809 E3.51508
G1 X113.009 Y25.281 E3.5358
G1 X112.681 Y25.709 E3.55652
G1 X112.294 Y26.084 E3.57722
G1 X111.855 Y26.397 E3.59793
G1 X111.375 Y26.643 E3.61865
G1 X110.863 Y26.814 E3.63939
G1 X110.332 Y26.908 E3.6601
G1 X108.609 Y26.929 E3.7263
G1 X108.604 Y28.289 E3.77854
G1 X108.562 Y28.826 E3.79924
G1 X108.441 Y29.352 E3.81997
G1 X108.243 Y29.854 E3.8407
G1 X107.974 Y30.321 E3.8614
G1 X107.639 Y30.743 E3.8821
G1 X107.245 Y31.111 E3.90281
G1 X106.8 Y31.417 E3.92356
G1 X106.316 Y31.654 E3.94426
G1 X105.802 Y31.816 E3.96496
G1 X105.013 Y31.914 E3.99551
G1 X103.515 Y31.934 E4.05306
G1 X102.976 Y31.901 E4.0738
G1 X102.449 Y31.789 E4.0945
G1 X101.775 Y31.92 E4.12088
G1 X100.042 Y31.934 E4.18745
G1 X99.504 Y31.894 E4.20818
G1 X98.978 Y31.775 E4.22889
G1 X98.476 Y31.58 E4.24958
G1 X98.007 Y31.312 E4.27033
G1 X97.584 Y30.979 E4.29102
G1 X97.214 Y30.586 E4.31175
G1 X96.907 Y30.143 E4.33246
G1 X96.668 Y29.659 E4.35319
G1 X96.503 Y29.146 E4.37389
G1 X96.416 Y28.614 E4.3946
G1 X96.396 Y20.259 E4.71556
G1 X96.436 Y19.721 E4.73629
M204 S3000
M205 X10 Y10
G0 F1800 X96.996 Y19.764
M204 S1800
M205 X8 Y8
G1 F2400 X97.15 Y19.181 E4.75945
G1 X97.306 Y18.762 E4.77663
G1 X97.601 Y18.171 E4.802
G1 X97.88 Y17.737 E4.82182
G1 X98.279 Y17.24 E4.84631
G1 X98.65 Y16.864 E4.8666
G1 X99.092 Y16.492 E4.88879
G1 X99.544 Y16.18 E4.90989
G1 X100.048 Y15.898 E4.93208
G1 X100.568 Y15.668 E4.95392
G1 X101.059 Y15.499 E4.97387
G1 X101.621 Y15.357 E4.99614
G1 X102.125 Y15.273 E5.01576
G1 X102.712 Y15.225 E5.03839
G1 X109.937 Y15.214 E5.31594
G1 X110.913 Y15.373 E5.35393
G1 X111.369 Y15.567 E5.37297
G1 X111.788 Y15.832 E5.39201
G1 X112.159 Y16.161 E5.41106
G1 X112.473 Y16.546 E5.43015
G1 X112.72 Y16.975 E5.44916
G1 X112.896 Y17.439 E5.46823
G1 X112.995 Y17.925 E5.48728
G1 X113.043 Y19.728 E5.55657
G1 X113.013 Y20.223 E5.57562
G1 X112.857 Y20.819 E5.59928
G1 X113.003 Y21.433 E5.62353
G1 X113.044 Y23.246 E5.69319
G1 X113.01 Y23.741 E5.71225
G1 X112.898 Y24.224 E5.7313
G1 X112.71 Y24.682 E5.75032
G1 X112.45 Y25.105 E5.76939
G1 X112.126 Y25.481 E5.78846
G1 X111.746 Y25.799 E5.8075
G1 X111.32 Y26.053 E5.82655
G1 X110.858 Y26.234 E5.84561
G1 X110.373 Y26.34 E5.86468
G1 X108.052 Y26.37 E5.95385
G1 X108.044 Y28.286 E6.02746
G1 X108.002 Y28.781 E6.04654
G1 X107.881 Y29.262 E6.06559
G1 X107.685 Y29.717 E6.08463
G1 X107.418 Y30.135 E6.10368
G1 X107.088 Y30.505 E6.12273
G1 X106.702 Y30.817 E6.14179
G1 X106.271 Y31.063 E6.16086
G1 X105.807 Y31.236 E6.17988
G1 X105.32 Y31.333 E6.19896
G1 X103.507 Y31.374 E6.26862
G1 X103.012 Y31.34 E6.28768
G1 X102.459 Y31.199 E6.3096
G1 X101.825 Y31.353 E6.33467
G1 X100.042 Y31.374 E6.40317
G1 X99.548 Y31.334 E6.42221
G1 X99.066 Y31.215 E6.44128
G1 X98.61 Y31.021 E6.46032
G1 X98.191 Y30.756 E6.47936
G1 X97.82 Y30.426 E6.49844
G1 X97.506 Y30.042 E6.51749
G1 X97.258 Y29.612 E6.53656
G1 X97.083 Y29.149 E6.55557
G1 X96.984 Y28.662 E6.57467
G1 X96.956 Y20.258 E6.89751
G1 X96.996 Y19.764 E6.91655
M204 S3000
M205 X10 Y10
G0 F1800 X97.556 Y19.811
M204 S1800
M205 X8 Y8
G1 F2400 X97.83 Y18.958 E6.95097
G1 X98.072 Y18.474 E6.97176
G1 X98.351 Y18.04 E6.99158
G1 X98.677 Y17.633 E7.01161
G1 X99.048 Y17.257 E7.0319
G1 X99.862 Y16.641 E7.07111
G1 X100.795 Y16.18 E7.11109
G1 X101.759 Y15.9 E7.14966
G1 X102.758 Y15.783 E7.18829
G1 X109.937 Y15.774 E7.46408
G1 X110.816 Y15.932 E7.49839
G1 X111.221 Y16.126 E7.51564
G1 X111.585 Y16.388 E7.53287
G1 X111.897 Y16.71 E7.55009
G1 X112.147 Y17.082 E7.56731
G1 X112.326 Y17.493 E7.58453
G1 X112.431 Y17.93 E7.6018
G1 X112.484 Y19.738 E7.67128
G1 X112.452 Y20.186 E7.68854
G1 X112.341 Y20.62 E7.70574
G1 X112.253 Y20.813 E7.71389
G1 X112.335 Y21 E7.72174
G1 X112.438 Y21.437 E7.73898
G1 X112.484 Y23.253 E7.80877
G1 X112.45 Y23.7 E7.82599
G1 X112.337 Y24.135 E7.84326
G1 X112.149 Y24.542 E7.86048
G1 X111.892 Y24.91 E7.87772
G1 X111.574 Y25.226 E7.89494
G1 X111.205 Y25.48 E7.91215
G1 X110.796 Y25.666 E7.92941
G1 X110.361 Y25.775 E7.94664
G1 X109.968 Y25.807 E7.96179
G1 X107.494 Y25.81 E8.05683
G1 X107.484 Y28.284 E8.15187
G1 X107.442 Y28.731 E8.16911
G1 X107.322 Y29.163 E8.18634
G1 X107.127 Y29.567 E8.20357
G1 X106.864 Y29.93 E8.22079
G1 X106.54 Y30.24 E8.23802
G1 X106.166 Y30.489 E8.25528
G1 X105.755 Y30.667 E8.27248
G1 X105.318 Y30.769 E8.28972
G1 X103.5 Y30.814 E8.35958
G1 X103.052 Y30.78 E8.37684
G1 X102.463 Y30.596 E8.40055
G1 X102.258 Y30.685 E8.40913
G1 X101.821 Y30.788 E8.42638
G1 X100.042 Y30.814 E8.49473
G1 X99.595 Y30.774 E8.51197
G1 X99.163 Y30.656 E8.52917
G1 X98.758 Y30.462 E8.54642
G1 X98.394 Y30.2 E8.56365
G1 X98.082 Y29.878 E8.58088
G1 X97.832 Y29.505 E8.59813
G1 X97.652 Y29.094 E8.61536
G1 X97.548 Y28.658 E8.63258
G1 X97.516 Y20.258 E8.95527
G1 X97.556 Y19.811 E8.97252
M204 S3000
M205 X10 Y10
G0 F1800 X98.116 Y19.864
M204 S1800
M205 X8 Y8
G1 F2400 X98.355 Y19.153 E9.00133
G1 X98.822 Y18.343 E9.03725
G1 X99.447 Y17.65 E9.0731
G1 X100.181 Y17.102 E9.10829
G1 X101.021 Y16.693 E9.14418
G1 X101.896 Y16.443 E9.17914
G1 X102.803 Y16.342 E9.21419
G1 X109.937 Y16.334 E9.48825
G1 X110.708 Y16.492 E9.51848
G1 X111.054 Y16.683 E9.53367
G1 X111.354 Y16.94 E9.54884
G1 X111.597 Y17.252 E9.56403
G1 X111.773 Y17.607 E9.57926
G1 X111.873 Y17.989 E9.59442
G1 X111.924 Y19.748 E9.66203
G1 X111.891 Y20.143 E9.67725
G1 X111.78 Y20.522 E9.69242
G1 X111.63 Y20.806 E9.70476
G1 X111.781 Y21.112 E9.71787
G1 X111.881 Y21.495 E9.73308
G1 X111.924 Y23.261 E9.80094
G1 X111.889 Y23.655 E9.81613
G1 X111.776 Y24.034 E9.83133
G1 X111.589 Y24.382 E9.8465
G1 X111.336 Y24.686 E9.8617
G1 X111.028 Y24.933 E9.87686
G1 X110.676 Y25.113 E9.89205
G1 X110.294 Y25.219 E9.90728
G1 X106.936 Y25.251 E10.03628
G1 X106.924 Y28.282 E10.15272
G1 X106.883 Y28.675 E10.1679
G1 X106.763 Y29.052 E10.1831
G1 X106.57 Y29.397 E10.19829
G1 X106.312 Y29.697 E10.21349
G1 X105.999 Y29.939 E10.22869
G1 X105.644 Y30.112 E10.24386
G1 X105.261 Y30.211 E10.25905
G1 X103.492 Y30.254 E10.32703
G1 X103.098 Y30.219 E10.34223
G1 X102.719 Y30.106 E10.35742
G1 X102.469 Y29.971 E10.36833
G1 X102.146 Y30.131 E10.38218
G1 X101.763 Y30.231 E10.39739
G1 X100.042 Y30.254 E10.46351
G1 X99.649 Y30.214 E10.47868
G1 X99.271 Y30.096 E10.49389
G1 X98.925 Y29.905 E10.50908
G1 X98.624 Y29.648 E10.52428
G1 X98.382 Y29.335 E10.53948
G1 X98.206 Y28.981 E10.55467
G1 X98.106 Y28.598 E10.56987
G1 X98.076 Y20.257 E10.8903
G1 X98.116 Y19.864 E10.90547
M204 S3000
M205 X10 Y10
G0 F1800 X98.636 Y20.257
M204 S1800
M205 X8 Y8
G1 F2400 X98.724 Y19.768 E10.92456
G1 X99.014 Y19.08 E10.95324
G1 X99.293 Y18.646 E10.97306
G1 X99.845 Y18.044 E11.00444
G1 X100.499 Y17.563 E11.03563
G1 X101.248 Y17.205 E11.06752
G1 X102.033 Y16.986 E11.09882
G1 X102.849 Y16.9 E11.13034
G1 X109.937 Y16.894 E11.40263
G1 X110.581 Y17.051 E11.4281
G1 X110.857 Y17.239 E11.44093
G1 X111.081 Y17.487 E11.45376
G1 X111.24 Y17.781 E11.4666
G1 X111.337 Y18.269 E11.48572
G1 X111.364 Y19.759 E11.54297
G1 X111.33 Y20.091 E11.55579
G1 X111.218 Y20.406 E11.56863
G1 X111.035 Y20.685 E11.58145
G1 X110.915 Y20.797 E11.58775
G1 X111.09 Y20.991 E11.59779
G1 X111.248 Y21.286 E11.61065
G1 X111.344 Y21.777 E11.62986
G1 X111.364 Y23.268 E11.68715
G1 X111.328 Y23.6 E11.69998
G1 X111.215 Y23.915 E11.71283
G1 X111.031 Y24.193 E11.72564
G1 X110.786 Y24.42 E11.73847
G1 X110.494 Y24.583 E11.75132
G1 X109.966 Y24.687 E11.77199
G1 X106.378 Y24.692 E11.90982
G1 X106.364 Y28.28 E12.04766
G1 X106.323 Y28.611 E12.06047
G1 X106.204 Y28.923 E12.0733
G1 X106.015 Y29.199 E12.08615
G1 X105.766 Y29.421 E12.09897
G1 X105.471 Y29.579 E12.11182
G1 X104.983 Y29.674 E12.13092
G1 X103.485 Y29.694 E12.18847
G1 X103.153 Y29.658 E12.2013
G1 X102.838 Y29.545 E12.21416
G1 X102.466 Y29.26 E12.23216
G1 X102.267 Y29.44 E12.24247
G1 X101.972 Y29.598 E12.25532
G1 X101.462 Y29.694 E12.27526
G1 X100.042 Y29.694 E12.32981
G1 X99.71 Y29.654 E12.34265
G1 X99.398 Y29.537 E12.35545
G1 X99.121 Y29.349 E12.36832
G1 X98.898 Y29.101 E12.38113
G1 X98.739 Y28.807 E12.39397
G1 X98.642 Y28.295 E12.41399
G1 X98.636 Y20.257 E12.72277
M204 S3000
M205 X10 Y10
G0 F1800 X99.196 Y20.257
M204 S1800
M205 X8 Y8
G1 F2400 X99.249 Y19.963 E12.73425
G1 X99.485 Y19.383 E12.7583
G1 X99.764 Y18.949 E12.77812
G1 X100.244 Y18.437 E12.80508
G1 X100.817 Y18.024 E12.83222
G1 X101.474 Y17.717 E12.86007
G1 X102.17 Y17.529 E12.88777
G1 X102.895 Y17.458 E12.91575
G1 X109.937 Y17.454 E13.18628
G1 X110.423 Y17.609 E13.20587
G1 X110.609 Y17.79 E13.21584
G1 X110.73 Y18.018 E13.22576
G1 X110.777 Y18.279 E13.23595
G1 X110.804 Y19.769 E13.29319
G1 X110.769 Y20.025 E13.30312
G1 X110.657 Y20.258 E13.31305
G1 X110.48 Y20.446 E13.32297
G1 X110.255 Y20.572 E13.33288
G1 X109.965 Y20.624 E13.34419
G1 X105.801 Y20.63 E13.50416
G1 X105.801 Y20.949 E13.51641
G1 X109.946 Y20.956 E13.67564
G1 X110.201 Y20.996 E13.68556
G1 X110.432 Y21.112 E13.69549
G1 X110.617 Y21.293 E13.70543
G1 X110.738 Y21.521 E13.71535
G1 X110.784 Y21.785 E13.72564
G1 X110.804 Y23.276 E13.78292
G1 X110.768 Y23.532 E13.79286
G1 X110.655 Y23.764 E13.80277
G1 X110.477 Y23.952 E13.81271
G1 X110.251 Y24.076 E13.82262
G1 X109.965 Y24.127 E13.83378
G1 X105.821 Y24.133 E13.99297
G1 X105.804 Y28.277 E14.15217
G1 X105.763 Y28.533 E14.16213
G1 X105.647 Y28.763 E14.17202
G1 X105.466 Y28.948 E14.18196
G1 X105.237 Y29.068 E14.1919
G1 X104.975 Y29.114 E14.20212
G1 X103.477 Y29.134 E14.25967
G1 X103.221 Y29.098 E14.2696
G1 X102.989 Y28.985 E14.27951
G1 X102.801 Y28.807 E14.28946
G1 X102.676 Y28.581 E14.29938
G1 X102.626 Y28.294 E14.31057
G1 X102.626 Y24.143 E14.47003
G1 X102.309 Y24.139 E14.48221
G1 X102.302 Y28.296 E14.6419
G1 X102.262 Y28.551 E14.65182
G1 X102.146 Y28.782 E14.66175
G1 X101.965 Y28.967 E14.67169
G1 X101.737 Y29.088 E14.68161
G1 X101.462 Y29.134 E14.69232
G1 X100.042 Y29.134 E14.74687
G1 X99.787 Y29.094 E14.75678
G1 X99.555 Y28.979 E14.76673
G1 X99.37 Y28.798 E14.77667
G1 X99.249 Y28.57 E14.78659
G1 X99.202 Y28.295 E14.79731
G1 X99.196 Y20.257 E15.10609
M204 S3000
M205 X10 Y10
G0 F1800 X99.756 Y20.256
M204 S1800
M205 X8 Y8
G1 F2400 X99.93 Y19.739 E15.12705
G1 X100.235 Y19.252 E15.14912
G1 X100.643 Y18.83 E15.17167
G1 X101.135 Y18.485 E15.19475
G1 X101.701 Y18.229 E15.21862
G1 X102.307 Y18.072 E15.24267
G1 X102.94 Y18.016 E15.26708
G1 X109.937 Y18.014 E15.53587
G1 X110.183 Y18.16 E15.54686
G1 X110.217 Y18.289 E15.55199
G1 X110.244 Y19.779 E15.60923
G1 X110.207 Y19.923 E15.61495
G1 X110.102 Y20.027 E15.62062
G1 X109.964 Y20.064 E15.62611
G1 X105.241 Y20.071 E15.80755
G1 X105.241 Y21.508 E15.86275
G1 X109.945 Y21.516 E16.04346
G1 X110.087 Y21.556 E16.04912
G1 X110.19 Y21.663 E16.05483
G1 X110.224 Y21.792 E16.05995
G1 X110.244 Y23.283 E16.11724
G1 X110.207 Y23.427 E16.12295
G1 X110.101 Y23.531 E16.12865
G1 X109.964 Y23.567 E16.1341
G1 X105.263 Y23.574 E16.31469
G1 X105.244 Y28.275 E16.49528
G1 X105.204 Y28.418 E16.50098
G1 X105.097 Y28.52 E16.50666
G1 X104.968 Y28.554 E16.51179
G1 X103.47 Y28.574 E16.56934
G1 X103.326 Y28.537 E16.57505
G1 X103.222 Y28.431 E16.58075
G1 X103.186 Y28.294 E16.5862
G1 X103.186 Y23.588 E16.76698
G1 X101.75 Y23.574 E16.82215
G1 X101.742 Y28.295 E17.00351
G1 X101.702 Y28.437 E17.00917
G1 X101.595 Y28.54 E17.01488
G1 X101.462 Y28.574 E17.02015
G1 X100.042 Y28.574 E17.0747
G1 X99.899 Y28.535 E17.0804
G1 X99.796 Y28.428 E17.0861
G1 X99.762 Y28.294 E17.09141
G1 X99.756 Y20.256 E17.4002
M204 S3000
M205 X10 Y10
G1 F2400 E11.4002
;MESH:Cluster-Raspberry-2.0.stl
G0 F1800 X101.576 Y22.297
G0 X101.192 Y23.008
M204 S1800
M205 X8 Y8
;TYPE:WALL-OUTER
G1 F2400 E17.4002
G1 F900 X101.192 Y23.29 E17.41103
G1 X101.183 Y28.014 E17.5925
G1 X100.322 Y28.014 E17.62558
G1 X100.318 Y21.458 E17.87743
G1 X100.318 Y20.97 E17.89618
G1 X100.317 Y20.447 E17.91627
G1 X100.316 Y20.306 E17.92169
G1 X100.327 Y20.277 E17.92288
G1 X100.443 Y19.964 E17.9357
G1 X100.599 Y19.721 E17.94679
G1 X100.689 Y19.581 E17.95319
G1 X101.001 Y19.265 E17.97025
G1 X101.02 Y19.245 E17.97131
G1 X101.057 Y19.22 E17.97302
G1 X101.434 Y18.96 E17.99062
G1 X101.554 Y18.907 E17.99565
G1 X101.91 Y18.749 E18.01062
G1 X102.099 Y18.702 E18.0181
G1 X102.42 Y18.62 E18.03083
G1 X102.675 Y18.6 E18.04065
G1 X102.973 Y18.575 E18.05214
G1 X109.404 Y18.574 E18.29919
G1 X109.684 Y18.574 E18.30995
G1 X109.684 Y18.854 E18.31691
