;FLAVOR:Marlin
;TIME:9224
;Filament used: 8.29646m
;Layer height: 0.15
;MINX:68.925
;MINY:15.948
;MINZ:0.15
;MAXX:141.075
;MAXY:73.695
;MAXZ:24.6
;Generated with Cura_SteamEngine 4.5.0
M140 S60
M105
M190 S60
M104 S200
M105
M109 S200
M82 ;absolute extrusion mode
G21 ;metric values
G90 ;absolute positioning
M82 ;set extruder to absolute mode
M107 ;start with the fan off
G28 X0 Y0 ;move X/Y to min endstops
G28 Z0 ;move Z to min endstops
G1 Z15.0 F100 ;move the platform down 15mm
G92 E0 ;zero the extruded length
G1 F200 E3 ;extrude 3mm of feed stock
G92 E0 ;zero the extruded length again
G1 F100
G0 Y20 F100
M117 Printing...
G5
G92 E0
G92 E0
G1 F1800 E-4
;LAYER_COUNT:164
;LAYER:0
M106 S255
M204 S3000
M205 X10 Y10
G1 F600 Z0.225
G0 F1800 X69.084 Y19.003 Z0.225
M204 S1800
M205 X8 Y8
;TYPE:SKIRT
G1 F600 Z0.15
G1 F1800 E0
G1 F2400 X69.28 Y18.458 E0.02225
G1 X69.549 Y17.945 E0.0445
G1 X69.886 Y17.474 E0.06675
G1 X70.285 Y17.054 E0.089
G1 X70.738 Y16.692 E0.11128
G1 X71.236 Y16.397 E0.13352
G1 X71.77 Y16.172 E0.15578
G1 X72.33 Y16.024 E0.17803
G1 X73.125 Y15.948 E0.20871
G1 X136.683 Y15.948 E2.65032
G1 X137.428 Y15.984 E2.67897
G1 X137.996 Y16.099 E2.70123
G1 X138.542 Y16.292 E2.72348
G1 X139.057 Y16.558 E2.74575
G1 X139.53 Y16.892 E2.76799
G1 X139.952 Y17.289 E2.79025
G1 X140.316 Y17.739 E2.81248
G1 X140.615 Y18.236 E2.83476
G1 X140.842 Y18.768 E2.85698
G1 X140.994 Y19.327 E2.87924
G1 X141.075 Y20.147 E2.91089
G1 X141.075 Y69.494 E4.80658
G1 X141.035 Y70.072 E4.82884
G1 X140.916 Y70.639 E4.85109
G1 X140.72 Y71.184 E4.87334
G1 X140.451 Y71.697 E4.89559
G1 X140.114 Y72.168 E4.91784
G1 X139.715 Y72.588 E4.9401
G1 X139.262 Y72.95 E4.96237
G1 X138.764 Y73.245 E4.98461
G1 X138.23 Y73.47 E5.00687
G1 X137.67 Y73.618 E5.02912
G1 X136.875 Y73.694 E5.0598
G1 X73.125 Y73.695 E7.50878
G1 X72.547 Y73.655 E7.53104
G1 X71.98 Y73.536 E7.5533
G1 X71.435 Y73.34 E7.57555
G1 X70.922 Y73.071 E7.5978
G1 X70.451 Y72.734 E7.62005
G1 X70.031 Y72.335 E7.6423
G1 X69.669 Y71.882 E7.66458
G1 X69.374 Y71.384 E7.68681
G1 X69.15 Y70.85 E7.70906
G1 X69.001 Y70.29 E7.73132
G1 X68.925 Y69.495 E7.762
G1 X68.925 Y20.148 E9.65769
G1 X68.965 Y19.57 E9.67994
G1 X69.084 Y19.003 E9.7022
M204 S3000
M205 X10 Y10
G0 F1800 X69.644 Y19.084
M204 S1800
M205 X8 Y8
G1 F2400 X69.839 Y18.582 E9.72289
G1 X70.107 Y18.113 E9.74364
G1 X70.44 Y17.69 E9.76432
G1 X70.833 Y17.32 E9.78506
G1 X71.276 Y17.013 E9.80576
G1 X71.76 Y16.774 E9.8265
G1 X72.273 Y16.609 E9.8472
G1 X72.805 Y16.522 E9.86791
G1 X136.686 Y16.508 E12.32192
G1 X137.391 Y16.544 E12.34904
G1 X137.918 Y16.66 E12.36977
G1 X138.422 Y16.852 E12.39049
G1 X138.892 Y17.117 E12.41122
G1 X139.317 Y17.448 E12.43191
G1 X139.689 Y17.838 E12.45262
G1 X139.999 Y18.279 E12.47333
G1 X140.241 Y18.761 E12.49404
G1 X140.409 Y19.274 E12.51478
G1 X140.499 Y19.806 E12.53551
G1 X140.515 Y69.494 E14.4443
G1 X140.475 Y70.032 E14.46502
G1 X140.356 Y70.558 E14.48574
G1 X140.161 Y71.06 E14.50643
G1 X139.893 Y71.529 E14.52718
G1 X139.56 Y71.952 E14.54786
G1 X139.167 Y72.322 E14.56859
G1 X138.724 Y72.629 E14.5893
G1 X138.24 Y72.868 E14.61003
G1 X137.727 Y73.033 E14.63074
G1 X137.195 Y73.12 E14.65144
G1 X73.125 Y73.135 E17.11272
G1 X72.587 Y73.095 E17.13345
G1 X72.061 Y72.976 E17.15416
G1 X71.559 Y72.781 E17.17485
G1 X71.09 Y72.513 E17.1956
G1 X70.667 Y72.18 E17.21628
G1 X70.297 Y71.787 E17.23702
G1 X69.99 Y71.344 E17.25773
G1 X69.751 Y70.86 E17.27846
G1 X69.586 Y70.347 E17.29916
G1 X69.499 Y69.815 E17.31987
G1 X69.485 Y20.148 E19.22785
G1 X69.525 Y19.61 E19.24858
G1 X69.644 Y19.084 E19.26929
M204 S3000
M205 X10 Y10
G0 F1800 X70.204 Y19.172
M204 S1800
M205 X8 Y8
G1 F2400 X70.398 Y18.716 E19.28833
G1 X70.663 Y18.297 E19.30738
G1 X70.993 Y17.926 E19.32645
G1 X71.377 Y17.612 E19.34551
G1 X71.807 Y17.364 E19.36457
G1 X72.27 Y17.189 E19.38359
G1 X72.757 Y17.09 E19.40268
G1 X136.69 Y17.068 E21.8587
G1 X137.351 Y17.104 E21.88413
G1 X137.833 Y17.22 E21.90317
G1 X138.291 Y17.412 E21.92225
G1 X138.712 Y17.674 E21.9413
G1 X139.085 Y18.001 E21.96035
G1 X139.4 Y18.384 E21.9794
G1 X139.651 Y18.812 E21.99846
G1 X139.829 Y19.275 E22.01752
G1 X139.931 Y19.76 E22.03656
G1 X139.955 Y69.494 E23.94711
G1 X139.915 Y69.988 E23.96615
G1 X139.796 Y70.47 E23.98522
G1 X139.602 Y70.926 E24.00426
G1 X139.337 Y71.345 E24.02331
G1 X139.007 Y71.716 E24.04238
G1 X138.623 Y72.03 E24.06144
G1 X138.193 Y72.278 E24.08051
G1 X137.73 Y72.453 E24.09952
G1 X137.243 Y72.552 E24.11861
G1 X73.125 Y72.575 E26.58173
G1 X72.631 Y72.535 E26.60077
G1 X72.149 Y72.416 E26.61985
G1 X71.693 Y72.222 E26.63888
G1 X71.274 Y71.957 E26.65793
G1 X70.903 Y71.628 E26.67698
G1 X70.589 Y71.243 E26.69606
G1 X70.341 Y70.813 E26.71513
G1 X70.166 Y70.35 E26.73414
G1 X70.067 Y69.864 E26.7532
G1 X70.045 Y20.148 E28.66306
G1 X70.085 Y19.654 E28.6821
G1 X70.204 Y19.172 E28.70117
M204 S3000
M205 X10 Y10
G0 F1800 X70.763 Y19.269
M204 S1800
M205 X8 Y8
G1 F2400 X70.957 Y18.864 E28.71842
G1 X71.219 Y18.5 E28.73565
G1 X71.541 Y18.188 E28.75288
G1 X71.914 Y17.938 E28.77013
G1 X72.325 Y17.758 E28.78736
G1 X72.761 Y17.654 E28.80458
G1 X73.125 Y17.628 E28.8186
G1 X136.693 Y17.628 E31.26059
G1 X137.307 Y17.664 E31.28422
G1 X137.74 Y17.78 E31.30144
G1 X138.146 Y17.971 E31.31868
G1 X138.512 Y18.231 E31.33593
G1 X138.826 Y18.551 E31.35315
G1 X139.078 Y18.923 E31.37041
G1 X139.26 Y19.332 E31.38761
G1 X139.366 Y19.768 E31.40484
G1 X139.395 Y20.147 E31.41945
G1 X139.395 Y69.494 E33.31513
G1 X139.355 Y69.941 E33.33237
G1 X139.237 Y70.373 E33.34958
G1 X139.043 Y70.778 E33.36683
G1 X138.781 Y71.142 E33.38406
G1 X138.459 Y71.454 E33.40128
G1 X138.086 Y71.704 E33.41853
G1 X137.675 Y71.884 E33.43577
G1 X137.239 Y71.988 E33.45299
G1 X136.875 Y72.014 E33.467
G1 X73.125 Y72.015 E35.91599
G1 X72.678 Y71.975 E35.93323
G1 X72.246 Y71.857 E35.95043
G1 X71.841 Y71.663 E35.96768
G1 X71.477 Y71.401 E35.98491
G1 X71.165 Y71.079 E36.00214
G1 X70.915 Y70.706 E36.01939
G1 X70.735 Y70.295 E36.03662
G1 X70.631 Y69.859 E36.05384
G1 X70.605 Y69.495 E36.06786
G1 X70.605 Y20.148 E37.96355
G1 X70.645 Y19.701 E37.98079
G1 X70.763 Y19.269 E37.99799
M204 S3000
M205 X10 Y10
G0 F1800 X71.205 Y19.755
M204 S1800
M205 X8 Y8
G1 F2400 X71.323 Y19.377 E38.01321
G1 X71.514 Y19.031 E38.02839
G1 X71.771 Y18.73 E38.04359
G1 X72.084 Y18.488 E38.05879
G1 X72.438 Y18.312 E38.07398
G1 X72.821 Y18.212 E38.08918
G1 X136.696 Y18.188 E40.54297
G1 X136.863 Y18.187 E40.54939
G1 X137.635 Y18.34 E40.57962
G1 X137.982 Y18.53 E40.59482
G1 X138.284 Y18.785 E40.61
G1 X138.529 Y19.096 E40.62521
G1 X138.707 Y19.449 E40.6404
G1 X138.809 Y19.831 E40.65559
G1 X138.835 Y20.147 E40.66777
G1 X138.835 Y69.494 E42.56346
G1 X138.795 Y69.887 E42.57863
G1 X138.677 Y70.265 E42.59384
G1 X138.486 Y70.611 E42.60903
G1 X138.229 Y70.912 E42.62423
G1 X137.916 Y71.154 E42.63943
G1 X137.562 Y71.33 E42.65462
G1 X137.179 Y71.43 E42.66982
G1 X73.125 Y71.455 E45.13049
G1 X72.732 Y71.415 E45.14566
G1 X72.354 Y71.297 E45.16087
G1 X72.008 Y71.106 E45.17606
G1 X71.707 Y70.849 E45.19126
G1 X71.465 Y70.537 E45.20643
G1 X71.289 Y70.182 E45.22165
G1 X71.189 Y69.8 E45.23682
G1 X71.165 Y20.148 E47.14422
G1 X71.205 Y19.755 E47.1594
M204 S3000
M205 X10 Y10
G0 F1800 X71.765 Y19.816
M204 S1800
M205 X8 Y8
G1 F2400 X71.882 Y19.504 E47.1722
G1 X72.07 Y19.227 E47.18506
G1 X72.318 Y19.004 E47.19787
G1 X72.612 Y18.845 E47.21071
G1 X73.125 Y18.748 E47.23077
G1 X136.7 Y18.748 E49.67303
G1 X136.867 Y18.747 E49.67945
G1 X137.512 Y18.9 E49.70491
G1 X137.789 Y19.087 E49.71775
G1 X138.014 Y19.334 E49.73059
G1 X138.175 Y19.627 E49.74343
G1 X138.275 Y20.147 E49.76377
G1 X138.275 Y69.494 E51.65946
G1 X138.235 Y69.826 E51.67231
G1 X138.118 Y70.138 E51.68511
G1 X137.93 Y70.415 E51.69797
G1 X137.682 Y70.638 E51.71078
G1 X137.388 Y70.797 E51.72362
G1 X136.875 Y70.894 E51.74367
G1 X73.125 Y70.895 E54.19266
G1 X72.793 Y70.855 E54.20551
G1 X72.481 Y70.738 E54.21831
G1 X72.204 Y70.55 E54.23117
G1 X71.981 Y70.302 E54.24398
G1 X71.822 Y70.008 E54.25682
G1 X71.725 Y69.495 E54.27688
G1 X71.725 Y20.148 E56.17256
G1 X71.765 Y19.816 E56.18541
M204 S3000
M205 X10 Y10
G0 F1800 X72.325 Y19.893
M204 S1800
M205 X8 Y8
G1 F2400 X72.44 Y19.661 E56.19536
G1 X72.621 Y19.476 E56.2053
G1 X72.849 Y19.355 E56.21522
G1 X73.125 Y19.308 E56.22597
G1 X136.703 Y19.308 E58.66835
G1 X136.87 Y19.307 E58.67476
G1 X137.357 Y19.459 E58.69436
G1 X137.544 Y19.639 E58.70433
G1 X137.667 Y19.866 E58.71425
G1 X137.715 Y20.147 E58.7252
G1 X137.715 Y69.494 E60.62089
G1 X137.675 Y69.749 E60.63081
G1 X137.56 Y69.981 E60.64075
G1 X137.379 Y70.166 E60.6507
G1 X137.151 Y70.287 E60.66061
G1 X136.875 Y70.334 E60.67137
G1 X73.125 Y70.335 E63.12035
G1 X72.87 Y70.295 E63.13027
G1 X72.638 Y70.18 E63.14021
G1 X72.453 Y69.999 E63.15016
G1 X72.332 Y69.771 E63.16007
G1 X72.285 Y69.495 E63.17083
G1 X72.285 Y20.148 E65.06652
G1 X72.325 Y19.893 E65.07643
M204 S3000
M205 X10 Y10
G0 F1800 X72.884 Y20.005
M204 S1800
M205 X8 Y8
G1 F2400 X72.991 Y19.902 E65.08214
G1 X73.125 Y19.868 E65.08745
G1 X136.706 Y19.868 E67.52994
G1 X136.873 Y19.867 E67.53636
G1 X137.12 Y20.012 E67.54736
G1 X137.155 Y20.147 E67.55272
G1 X137.155 Y69.494 E69.4484
G1 X137.116 Y69.637 E69.4541
G1 X137.009 Y69.74 E69.4598
G1 X136.875 Y69.774 E69.46511
G1 X73.125 Y69.775 E71.9141
G1 X72.982 Y69.736 E71.91979
G1 X72.879 Y69.629 E71.9255
G1 X72.845 Y69.495 E71.93081
G1 X72.845 Y20.148 E73.8265
G1 X72.884 Y20.005 E73.83219
M204 S3000
M205 X10 Y10
G1 F1800 E69.83219
;MESH:pantalla-lab-soporte2.stl
G0 F1800 X73.979 Y21.002
G0 X76.7 Y28.272
G0 X77.768 Y29.521
G0 X78.026 Y28.914
M204 S1800
M205 X8 Y8
;TYPE:WALL-OUTER
G1 F1800 E73.83219
G1 F900 X78.382 Y29.065 E73.84705
G1 X78.748 Y29.115 E73.86124
G1 X79.115 Y29.064 E73.87547
G1 X79.471 Y28.913 E73.89033
G1 X79.912 Y28.538 E73.91256
G1 X80.247 Y28.014 E73.93646
G1 X80.456 Y27.39 E73.96174
G1 X80.529 Y26.717 E73.98774
G1 X80.46 Y26.04 E74.01388
G1 X80.253 Y25.415 E74.03918
G1 X79.916 Y24.888 E74.06321
G1 X79.471 Y24.511 E74.08561
G1 X79.115 Y24.357 E74.10051
G1 X78.742 Y24.308 E74.11496
G1 X78.373 Y24.36 E74.12928
G1 X78.019 Y24.515 E74.14413
G1 X77.583 Y24.883 E74.16604
G1 X77.245 Y25.409 E74.19006
G1 X77.037 Y26.034 E74.21537
G1 X76.965 Y26.711 E74.24152
G1 X77.037 Y27.386 E74.2676
G1 X77.245 Y28.011 E74.2929
G1 X77.583 Y28.537 E74.31692
G1 X78.026 Y28.914 E74.33927
M204 S3000
M205 X10 Y10
G0 F1800 X78.21 Y28.992
G1 F1800 E70.33927
G0 F1800 X77.952 Y29.599
G0 X76.372 Y60.366
G0 X76.511 Y61.16
G0 X77.352 Y62.623
G0 X77.718 Y62.074
M204 S1800
M205 X8 Y8
G1 F1800 E74.33927
G1 F900 X78.194 Y62.39 E74.36122
G1 X78.563 Y62.493 E74.37593
G1 X78.937 Y62.492 E74.3903
G1 X79.304 Y62.389 E74.40494
G1 X79.774 Y62.076 E74.42664
G1 X80.15 Y61.592 E74.45018
G1 X80.404 Y60.994 E74.47514
G1 X80.522 Y60.33 E74.50105
G1 X80.498 Y59.65 E74.52719
G1 X80.334 Y59.002 E74.55286
G1 X80.038 Y58.437 E74.57737
G1 X79.631 Y58.01 E74.60003
G1 X79.292 Y57.811 E74.61513
G1 X78.932 Y57.71 E74.62949
G1 X78.562 Y57.71 E74.64371
G1 X78.201 Y57.812 E74.65812
G1 X77.864 Y58.009 E74.67311
G1 X77.459 Y58.435 E74.69569
G1 X77.164 Y58.999 E74.72014
G1 X76.999 Y59.647 E74.74583
G1 X76.973 Y60.326 E74.77193
G1 X77.09 Y60.99 E74.79783
G1 X77.341 Y61.589 E74.82278
G1 X77.718 Y62.074 E74.84638
M204 S3000
M205 X10 Y10
G0 F1800 X77.884 Y62.184
G1 F1800 E70.84638
G0 F1800 X77.518 Y62.733
G0 X74.035 Y68.584
G0 X73.405 Y69.214
M204 S1800
M205 X8 Y8
G1 F1800 E74.84638
G1 F900 X73.405 Y20.428 E76.72052
G1 X136.595 Y20.428 E79.14799
G1 X136.595 Y69.214 E81.02213
G1 X73.405 Y69.214 E83.4496
M204 S3000
M205 X10 Y10
G0 F1800 X73.405 Y69.014
G1 F1800 E79.4496
G0 F1800 X74.035 Y68.584
G0 X130.266 Y62.909
G0 X130.525 Y62.302
M204 S1800
M205 X8 Y8
G1 F1800 E83.4496
G1 F900 X130.884 Y62.455 E83.46459
G1 X131.248 Y62.508 E83.47872
G1 X131.625 Y62.454 E83.49335
G1 X131.978 Y62.3 E83.50815
G1 X132.417 Y61.93 E83.5302
G1 X132.755 Y61.404 E83.55422
G1 X132.963 Y60.779 E83.57953
G1 X133.035 Y60.103 E83.60564
G1 X132.963 Y59.427 E83.63176
G1 X132.755 Y58.803 E83.65703
G1 X132.417 Y58.276 E83.68108
G1 X131.972 Y57.899 E83.70348
G1 X131.618 Y57.749 E83.71825
G1 X131.252 Y57.698 E83.73245
G1 X130.885 Y57.749 E83.74668
G1 X130.529 Y57.9 E83.76154
G1 X130.088 Y58.275 E83.78377
G1 X129.752 Y58.802 E83.80778
G1 X129.544 Y59.424 E83.83298
G1 X129.471 Y60.099 E83.85906
G1 X129.54 Y60.775 E83.88516
G1 X129.748 Y61.401 E83.91051
G1 X130.085 Y61.926 E83.93447
G1 X130.525 Y62.302 E83.95671
M204 S3000
M205 X10 Y10
G0 F1800 X130.709 Y62.38
G1 F1800 E79.95671
G0 F1800 X130.45 Y62.988
G0 X129.628 Y62.324
G0 X128.95 Y60.901
G0 X128.868 Y60.097
G0 X128.877 Y26.441
G0 X129.018 Y25.647
G0 X129.707 Y24.333
G0 X130.226 Y24.738
M204 S1800
M205 X8 Y8
G1 F1800 E83.95671
G1 F900 X129.85 Y25.222 E83.98025
G1 X129.596 Y25.819 E84.00517
G1 X129.478 Y26.483 E84.03108
G1 X129.502 Y27.165 E84.0573
G1 X129.666 Y27.812 E84.08294
G1 X129.962 Y28.376 E84.10741
G1 X130.37 Y28.804 E84.13012
G1 X130.709 Y29.002 E84.1452
G1 X131.068 Y29.103 E84.15953
G1 X131.438 Y29.103 E84.17374
G1 X131.798 Y29.001 E84.18812
G1 X132.134 Y28.805 E84.20306
G1 X132.54 Y28.379 E84.22567
G1 X132.836 Y27.815 E84.25014
G1 X133.001 Y27.169 E84.27575
G1 X133.027 Y26.489 E84.30189
G1 X132.91 Y25.824 E84.32783
G1 X132.659 Y25.228 E84.35267
G1 X132.284 Y24.743 E84.37622
G1 X131.812 Y24.425 E84.39809
G1 X131.437 Y24.32 E84.41305
G1 X131.06 Y24.321 E84.42753
G1 X130.694 Y24.426 E84.44216
G1 X130.226 Y24.738 E84.46376
M204 S3000
M205 X10 Y10
G0 F1800 X130.104 Y24.896
G0 X129.84 Y24.323
M204 S1800
M205 X8 Y8
;TYPE:WALL-INNER
G1 F900 X129.363 Y24.936 E84.4936
G1 X129.056 Y25.658 E84.52374
G1 X128.916 Y26.443 E84.55437
G1 X128.944 Y27.245 E84.5852
G1 X129.139 Y28.014 E84.61568
G1 X129.503 Y28.706 E84.64571
G1 X130.019 Y29.248 E84.67446
G1 X130.488 Y29.522 E84.69533
G1 X130.991 Y29.663 E84.7154
G1 X131.516 Y29.663 E84.73556
G1 X132.019 Y29.52 E84.75565
G1 X132.485 Y29.249 E84.77636
G1 X132.999 Y28.709 E84.805
G1 X133.362 Y28.017 E84.83502
G1 X133.558 Y27.25 E84.86543
G1 X133.589 Y26.451 E84.89615
G1 X133.451 Y25.665 E84.92681
G1 X133.147 Y24.943 E84.9569
G1 X132.672 Y24.329 E84.98672
G1 X132.05 Y23.91 E85.01553
G1 X131.513 Y23.76 E85.03695
G1 X130.981 Y23.761 E85.05739
G1 X130.456 Y23.912 E85.07837
G1 X129.84 Y24.323 E85.10682
M204 S3000
M205 X10 Y10
G0 F1800 X129.772 Y24.25
G0 X129.018 Y25.647
G0 X128.877 Y26.441
G0 X128.868 Y60.097
G0 X128.95 Y60.901
G0 X129.203 Y61.661
G0 X130.174 Y62.868
G0 X130.226 Y62.784
M204 S1800
M205 X8 Y8
G1 F900 X130.731 Y62.999 E85.12791
G1 X131.247 Y63.074 E85.14794
G1 X131.779 Y62.998 E85.16858
G1 X132.277 Y62.781 E85.18945
G1 X132.842 Y62.304 E85.21785
G1 X133.264 Y61.648 E85.24782
G1 X133.513 Y60.898 E85.27818
G1 X133.598 Y60.103 E85.30889
G1 X133.513 Y59.307 E85.33964
G1 X133.264 Y58.56 E85.36989
G1 X132.843 Y57.903 E85.39987
G1 X132.269 Y57.417 E85.42876
G1 X131.768 Y57.205 E85.44966
G1 X131.252 Y57.133 E85.46967
G1 X130.735 Y57.205 E85.48973
G1 X130.231 Y57.418 E85.51075
G1 X129.661 Y57.903 E85.5395
G1 X129.243 Y58.559 E85.56938
G1 X128.994 Y59.304 E85.59955
G1 X128.908 Y60.097 E85.6302
G1 X128.989 Y60.893 E85.66093
G1 X129.239 Y61.644 E85.69134
G1 X129.658 Y62.298 E85.72118
G1 X130.226 Y62.784 E85.74989
M204 S3000
M205 X10 Y10
G0 F1800 X130.174 Y62.868
G0 X78.482 Y63.092
G0 X77.264 Y62.563
G0 X77.332 Y62.49
M204 S1800
M205 X8 Y8
G1 F900 X77.958 Y62.906 E85.77877
G1 X78.487 Y63.053 E85.79986
G1 X79.015 Y63.052 E85.82014
G1 X79.541 Y62.904 E85.84113
G1 X80.16 Y62.492 E85.8697
G1 X80.637 Y61.878 E85.89957
G1 X80.944 Y61.154 E85.92978
G1 X81.084 Y60.37 E85.96037
G1 X81.056 Y59.571 E85.99108
G1 X80.861 Y58.801 E86.0216
G1 X80.498 Y58.108 E86.05165
G1 X79.982 Y57.567 E86.08037
G1 X79.513 Y57.291 E86.10128
G1 X79.009 Y57.15 E86.12138
G1 X78.484 Y57.15 E86.14155
G1 X77.98 Y57.293 E86.16167
G1 X77.513 Y57.566 E86.18246
G1 X76.999 Y58.106 E86.21109
G1 X76.637 Y58.797 E86.24106
G1 X76.442 Y59.566 E86.27154
G1 X76.411 Y60.364 E86.30222
G1 X76.549 Y61.149 E86.33284
G1 X76.853 Y61.874 E86.36304
G1 X77.332 Y62.49 E86.39301
M204 S3000
M205 X10 Y10
G0 F1800 X77.264 Y62.563
G0 X74.035 Y68.584
G0 X73.965 Y68.654
M204 S1800
M205 X8 Y8
G1 F900 X73.965 Y20.988 E88.22412
G1 X136.035 Y20.988 E90.60857
