;FLAVOR:Marlin
;TIME:12471
;Filament used: 4.5256m
;Layer height: 0.1
;MINX:84.245
;MINY:6.779
;MINZ:0.15
;MAXX:145.985
;MAXY:90.129
;MAXZ:12.35
;Generated with Cura_SteamEngine 4.5.0
M140 S60
M105
M190 S60
M104 S200
M105
M109 S200
M82 ;absolute extrusion mode
G21 ;metric values
G90 ;absolute positioning
M82 ;set extruder to absolute mode
M107 ;start with the fan off
G28 X0 Y0 ;move X/Y to min endstops
G28 Z0 ;move Z to min endstops
G1 Z15.0 F100 ;move the platform down 15mm
G92 E0 ;zero the extruded length
G1 F200 E3 ;extrude 3mm of feed stock
G92 E0 ;zero the extruded length again
G1 F100
G0 Y20 F100
M117 Printing...
G5
G92 E0
G92 E0
G1 F1800 E-4
;LAYER_COUNT:123
;LAYER:0
M106 S255
M204 S3000
M205 X10 Y10
G1 F600 Z0.225
G0 F1800 X84.285 Y17.407 Z0.225
M204 S1800
M205 X8 Y8
;TYPE:SKIRT
G1 F600 Z0.15
G1 F1800 E0
G1 F2400 X84.42 Y16.785 E0.02445
G1 X84.733 Y15.874 E0.06146
G1 X85.01 Y15.364 E0.08375
G1 X85.391 Y14.854 E0.10821
G1 X85.904 Y14.327 E0.13646
G1 X86.591 Y13.842 E0.16876
G1 X87.328 Y13.471 E0.20046
G1 X88.041 Y13.26 E0.22903
G1 X89.1 Y13.131 E0.27001
G1 X93.162 Y13.131 E0.42605
G1 X93.135 Y11.096 E0.50423
G1 X93.175 Y10.518 E0.52649
G1 X93.294 Y9.951 E0.54875
G1 X93.49 Y9.406 E0.571
G1 X93.759 Y8.893 E0.59325
G1 X94.096 Y8.422 E0.6155
G1 X94.482 Y8.009 E0.63721
G1 X94.919 Y7.629 E0.65946
G1 X95.404 Y7.312 E0.68172
G1 X95.928 Y7.065 E0.70397
G1 X96.481 Y6.893 E0.72622
G1 X97.053 Y6.798 E0.74849
G1 X109.054 Y6.779 E1.20952
G1 X109.632 Y6.819 E1.23178
G1 X110.199 Y6.938 E1.25403
G1 X110.744 Y7.134 E1.27628
G1 X111.257 Y7.403 E1.29853
G1 X111.728 Y7.74 E1.32078
G1 X112.141 Y8.126 E1.3425
G1 X112.521 Y8.563 E1.36474
G1 X112.838 Y9.048 E1.387
G1 X113.085 Y9.572 E1.40926
G1 X113.257 Y10.125 E1.4315
G1 X113.352 Y10.697 E1.45378
G1 X113.375 Y12.841 E1.53615
G1 X113.355 Y13.131 E1.54731
G1 X141.132 Y13.131 E2.61438
G1 X141.71 Y13.171 E2.63664
G1 X142.368 Y13.317 E2.66253
G1 X143.276 Y13.638 E2.69953
G1 X143.782 Y13.919 E2.72176
G1 X144.246 Y14.267 E2.74404
G1 X144.679 Y14.69 E2.7673
G1 X145.053 Y15.133 E2.78957
G1 X145.363 Y15.622 E2.81181
G1 X145.617 Y16.171 E2.83505
G1 X145.811 Y16.717 E2.85731
G1 X145.927 Y17.285 E2.87958
G1 X145.964 Y17.837 E2.90083
G1 X145.985 Y34.209 E3.52977
G1 X145.985 Y82.74 E5.39411
G1 X145.904 Y83.56 E5.42576
G1 X145.709 Y84.335 E5.45646
G1 X145.347 Y85.112 E5.48939
G1 X144.894 Y85.791 E5.52075
G1 X144.5 Y86.217 E5.54304
G1 X144.019 Y86.617 E5.56707
G1 X143.54 Y86.942 E5.58931
G1 X143.02 Y87.199 E5.61159
G1 X142.246 Y87.433 E5.64265
G1 X141.875 Y87.507 E5.65719
G1 X141.053 Y87.588 E5.68892
G1 X140.998 Y87.588 E5.69103
G1 X140.309 Y88.265 E5.72814
G1 X139.867 Y88.707 E5.75215
G1 X139.262 Y89.208 E5.78233
G1 X138.605 Y89.607 E5.81185
G1 X137.831 Y89.9 E5.84365
G1 X136.946 Y90.096 E5.87847
G1 X136.424 Y90.129 E5.89856
G1 X103.962 Y90.129 E7.1456
G1 X103.384 Y90.089 E7.16786
G1 X102.657 Y89.932 E7.19643
G1 X102.106 Y89.752 E7.2187
G1 X101.37 Y89.367 E7.25061
G1 X100.516 Y88.701 E7.29221
G1 X99.403 Y87.588 E7.35268
G1 X89.774 Y87.588 E7.72258
G1 X89.196 Y87.548 E7.74484
G1 X88.629 Y87.429 E7.7671
G1 X88.142 Y87.258 E7.78692
G1 X87.523 Y86.954 E7.81342
G1 X87.047 Y86.624 E7.83567
G1 X85.518 Y85.131 E7.91776
G1 X85.138 Y84.694 E7.94001
G1 X84.821 Y84.209 E7.96227
G1 X84.575 Y83.691 E7.98429
G1 X84.387 Y83.142 E8.00659
G1 X84.277 Y82.574 E8.02881
G1 X84.245 Y82.059 E8.04863
G1 X84.245 Y17.985 E10.51007
G1 X84.285 Y17.407 E10.53232
M204 S3000
M205 X10 Y10
G0 F1800 X84.845 Y17.447
M204 S1800
M205 X8 Y8
G1 F2400 X84.957 Y16.945 E10.55208
G1 X85.259 Y16.072 E10.58757
G1 X85.523 Y15.602 E10.60828
G1 X85.916 Y15.104 E10.63265
G1 X86.299 Y14.725 E10.65335
G1 X86.866 Y14.329 E10.67992
G1 X87.568 Y13.979 E10.71005
G1 X88.152 Y13.809 E10.73341
G1 X89.1 Y13.691 E10.77011
G1 X93.794 Y13.691 E10.95044
G1 X93.709 Y13.171 E10.97068
G1 X93.695 Y11.096 E11.05039
G1 X93.735 Y10.558 E11.07112
G1 X93.854 Y10.032 E11.09183
G1 X94.049 Y9.53 E11.11252
G1 X94.317 Y9.061 E11.13327
G1 X94.761 Y8.522 E11.1601
G1 X95.287 Y8.053 E11.18717
G1 X95.743 Y7.765 E11.20789
G1 X96.236 Y7.548 E11.22858
G1 X96.756 Y7.406 E11.24929
G1 X97.452 Y7.339 E11.27615
G1 X109.054 Y7.339 E11.72185
G1 X109.592 Y7.379 E11.74257
G1 X110.118 Y7.498 E11.76329
G1 X110.62 Y7.693 E11.78398
G1 X111.089 Y7.961 E11.80473
G1 X111.628 Y8.405 E11.83155
G1 X112.097 Y8.931 E11.85863
G1 X112.385 Y9.387 E11.87934
G1 X112.602 Y9.88 E11.90004
G1 X112.744 Y10.4 E11.92074
G1 X112.811 Y11.088 E11.9473
G1 X112.815 Y12.843 E12.01472
G1 X112.776 Y13.381 E12.03544
G1 X112.707 Y13.691 E12.04764
G1 X141.132 Y13.691 E13.1396
G1 X141.67 Y13.731 E13.16032
G1 X142.203 Y13.852 E13.18132
G1 X143.072 Y14.162 E13.21676
G1 X143.54 Y14.43 E13.23748
G1 X144.111 Y14.908 E13.26609
G1 X144.624 Y15.494 E13.29601
G1 X145.006 Y16.168 E13.32577
G1 X145.281 Y16.903 E13.35592
G1 X145.381 Y17.433 E13.37664
G1 X145.425 Y34.209 E14.0211
G1 X145.425 Y82.74 E15.88544
G1 X145.355 Y83.451 E15.91288
G1 X145.168 Y84.186 E15.94202
G1 X144.866 Y84.824 E15.96913
G1 X144.434 Y85.469 E15.99895
G1 X143.869 Y86.022 E16.02933
G1 X143.225 Y86.477 E16.05962
G1 X142.738 Y86.708 E16.08032
G1 X142.136 Y86.884 E16.10442
G1 X141.053 Y87.028 E16.14639
G1 X140.768 Y87.028 E16.15734
G1 X139.939 Y87.843 E16.20199
G1 X139.471 Y88.311 E16.22742
G1 X138.947 Y88.745 E16.25356
G1 X138.323 Y89.122 E16.28156
G1 X137.686 Y89.359 E16.30767
G1 X136.84 Y89.545 E16.34095
G1 X103.962 Y89.569 E17.60397
G1 X103.424 Y89.529 E17.6247
G1 X102.793 Y89.389 E17.64953
G1 X102.281 Y89.219 E17.67025
G1 X101.678 Y88.899 E17.69648
G1 X100.912 Y88.305 E17.73371
G1 X99.635 Y87.028 E17.80309
G1 X89.774 Y87.028 E18.1819
G1 X89.236 Y86.988 E18.20263
G1 X88.71 Y86.869 E18.22335
G1 X88.258 Y86.699 E18.2419
G1 X87.778 Y86.453 E18.26262
G1 X87.34 Y86.139 E18.28332
G1 X85.914 Y84.735 E18.3602
G1 X85.562 Y84.326 E18.38093
G1 X85.274 Y83.87 E18.40164
G1 X85.091 Y83.473 E18.41844
G1 X84.919 Y82.962 E18.43915
G1 X84.824 Y82.431 E18.45987
G1 X84.805 Y17.985 E20.9356
G1 X84.845 Y17.447 E20.95632
M204 S3000
M205 X10 Y10
G0 F1800 X85.405 Y17.491
M204 S1800
M205 X8 Y8
G1 F2400 X85.603 Y16.736 E20.9863
G1 X85.783 Y16.274 E21.00535
G1 X86.034 Y15.846 E21.02441
G1 X86.338 Y15.473 E21.0429
G1 X86.693 Y15.126 E21.06197
G1 X87.142 Y14.817 E21.08291
G1 X87.806 Y14.487 E21.11139
G1 X88.491 Y14.312 E21.13855
G1 X89.1 Y14.251 E21.16206
G1 X94.598 Y14.251 E21.37327
G1 X94.376 Y13.706 E21.39588
G1 X94.277 Y13.219 E21.41497
G1 X94.255 Y11.096 E21.49653
G1 X94.295 Y10.602 E21.51557
G1 X94.414 Y10.12 E21.53464
G1 X94.608 Y9.664 E21.55368
G1 X94.873 Y9.245 E21.57272
G1 X95.274 Y8.801 E21.59571
G1 X95.652 Y8.48 E21.61476
G1 X96.076 Y8.223 E21.6338
G1 X96.537 Y8.038 E21.65288
G1 X97.02 Y7.929 E21.67191
G1 X97.452 Y7.899 E21.68854
G1 X109.054 Y7.899 E22.13424
G1 X110.03 Y8.058 E22.17223
G1 X110.486 Y8.252 E22.19126
G1 X110.905 Y8.517 E22.21031
G1 X111.349 Y8.918 E22.23329
G1 X111.67 Y9.296 E22.25234
G1 X111.927 Y9.72 E22.27139
G1 X112.112 Y10.181 E22.29047
G1 X112.221 Y10.664 E22.30949
G1 X112.255 Y12.844 E22.39325
G1 X112.216 Y13.338 E22.41228
G1 X112.099 Y13.82 E22.43134
G1 X111.916 Y14.251 E22.44933
G1 X141.132 Y14.251 E23.57167
G1 X141.626 Y14.291 E23.59071
G1 X142.405 Y14.5 E23.62169
G1 X142.866 Y14.684 E23.64076
G1 X143.291 Y14.939 E23.6598
G1 X143.709 Y15.298 E23.68097
G1 X144.192 Y15.853 E23.70923
G1 X144.492 Y16.391 E23.7329
G1 X144.75 Y17.086 E23.76138
G1 X144.844 Y17.838 E23.79049
G1 X144.865 Y34.21 E24.41943
G1 X144.865 Y82.74 E26.28373
G1 X144.806 Y83.341 E26.30693
G1 X144.627 Y84.034 E26.33442
G1 X144.385 Y84.537 E26.35587
G1 X143.975 Y85.145 E26.38404
G1 X143.523 Y85.582 E26.40819
G1 X142.913 Y86.01 E26.43682
G1 X142.461 Y86.214 E26.45587
G1 X141.655 Y86.409 E26.48772
G1 X141.053 Y86.468 E26.51096
G1 X140.54 Y86.468 E26.53067
G1 X139.524 Y87.466 E26.58538
G1 X139.075 Y87.915 E26.60977
G1 X138.632 Y88.282 E26.63187
G1 X138.044 Y88.635 E26.65822
G1 X137.54 Y88.818 E26.67881
G1 X136.736 Y88.993 E26.71042
G1 X103.962 Y89.009 E27.96945
G1 X103.213 Y88.916 E27.99845
G1 X102.46 Y88.686 E28.02869
G1 X101.986 Y88.431 E28.04937
G1 X101.308 Y87.909 E28.08224
G1 X99.867 Y86.468 E28.16053
G1 X89.774 Y86.468 E28.54825
G1 X89.28 Y86.428 E28.56729
G1 X88.578 Y86.226 E28.59535
G1 X88.036 Y85.954 E28.61865
G1 X87.494 Y85.523 E28.64525
G1 X86.31 Y84.339 E28.70958
G1 X85.989 Y83.961 E28.72863
G1 X85.65 Y83.357 E28.75523
G1 X85.452 Y82.784 E28.77852
G1 X85.365 Y82.059 E28.80657
G1 X85.365 Y17.985 E31.26801
G1 X85.405 Y17.491 E31.28704
M204 S3000
M205 X10 Y10
G0 F1800 X85.925 Y17.985
M204 S1800
M205 X8 Y8
G1 F2400 X86.03 Y17.265 E31.315
G1 X86.306 Y16.479 E31.347
G1 X86.657 Y15.959 E31.3711
G1 X87.083 Y15.531 E31.3943
G1 X87.632 Y15.183 E31.41927
G1 X88.04 Y14.998 E31.43648
G1 X88.602 Y14.861 E31.4587
G1 X89.1 Y14.811 E31.47793
G1 X95.762 Y14.811 E31.73385
G1 X95.375 Y14.435 E31.75458
G1 X95.125 Y14.062 E31.77183
G1 X94.945 Y13.651 E31.78906
G1 X94.841 Y13.215 E31.80628
G1 X94.815 Y11.096 E31.88769
G1 X94.855 Y10.649 E31.90493
G1 X94.973 Y10.217 E31.92214
G1 X95.167 Y9.812 E31.93939
G1 X95.553 Y9.314 E31.96359
G1 X96.014 Y8.909 E31.98716
G1 X96.404 Y8.687 E32.0044
G1 X96.827 Y8.538 E32.02163
G1 X97.452 Y8.459 E32.04583
G1 X109.054 Y8.459 E32.49153
G1 X109.933 Y8.617 E32.52584
G1 X110.338 Y8.811 E32.54309
G1 X110.836 Y9.197 E32.56729
G1 X111.241 Y9.658 E32.59087
G1 X111.463 Y10.048 E32.60811
G1 X111.612 Y10.471 E32.62533
G1 X111.691 Y11.09 E32.64931
G1 X111.695 Y12.845 E32.71673
G1 X111.656 Y13.292 E32.73396
G1 X111.539 Y13.725 E32.75119
G1 X111.346 Y14.13 E32.76843
G1 X111.085 Y14.495 E32.78566
G1 X110.757 Y14.811 E32.80316
G1 X141.132 Y14.811 E33.97003
G1 X141.579 Y14.851 E33.98727
G1 X142.241 Y15.036 E34.01368
G1 X142.656 Y15.205 E34.03089
G1 X143.034 Y15.446 E34.04811
G1 X143.474 Y15.861 E34.07135
G1 X143.757 Y16.209 E34.08858
G1 X144.076 Y16.839 E34.1157
G1 X144.217 Y17.265 E34.13294
G1 X144.284 Y17.839 E34.15514
G1 X144.305 Y34.211 E34.78408
G1 X144.305 Y82.74 E36.64835
G1 X144.214 Y83.448 E36.67577
G1 X144.087 Y83.878 E36.69299
G1 X143.783 Y84.453 E36.71798
G1 X143.519 Y84.816 E36.73522
G1 X142.981 Y85.296 E36.76292
G1 X142.605 Y85.54 E36.78014
G1 X142.192 Y85.714 E36.79735
G1 X141.546 Y85.859 E36.82279
G1 X141.053 Y85.908 E36.84182
G1 X140.311 Y85.908 E36.87032
G1 X139.131 Y87.067 E36.93386
G1 X138.679 Y87.519 E36.95842
G1 X138.159 Y87.926 E36.98379
G1 X137.768 Y88.145 E37.001
G1 X137.079 Y88.363 E37.02876
G1 X136.424 Y88.449 E37.05414
G1 X103.962 Y88.449 E38.30118
G1 X103.349 Y88.373 E38.32491
G1 X102.642 Y88.155 E38.35333
G1 X102.101 Y87.836 E38.37746
G1 X101.704 Y87.513 E38.39712
G1 X100.099 Y85.908 E38.48432
G1 X89.774 Y85.908 E38.88096
G1 X89.327 Y85.868 E38.8982
G1 X88.795 Y85.71 E38.91952
G1 X88.297 Y85.457 E38.94097
G1 X87.89 Y85.127 E38.9611
G1 X86.706 Y83.943 E39.02543
G1 X86.418 Y83.599 E39.04266
G1 X86.166 Y83.14 E39.06278
G1 X85.986 Y82.611 E39.08424
G1 X85.925 Y82.059 E39.10558
G1 X85.925 Y17.985 E41.56701
M204 S3000
M205 X10 Y10
G0 F1800 X86.485 Y17.985
M204 S1800
M205 X8 Y8
G1 F2400 X86.567 Y17.425 E41.58875
G1 X86.827 Y16.69 E41.6187
G1 X87.181 Y16.209 E41.64164
G1 X87.47 Y15.939 E41.65684
G1 X87.907 Y15.671 E41.67653
G1 X88.484 Y15.456 E41.70019
G1 X89.1 Y15.371 E41.72407
G1 X141.132 Y15.371 E43.72291
G1 X141.709 Y15.458 E43.74532
G1 X142.44 Y15.725 E43.77522
G1 X142.905 Y16.079 E43.79767
G1 X143.318 Y16.561 E43.82205
G1 X143.562 Y17.062 E43.84346
G1 X143.682 Y17.439 E43.85866
G1 X143.724 Y17.839 E43.87411
G1 X143.745 Y34.211 E44.50305
G1 X143.745 Y82.74 E46.36731
G1 X143.664 Y83.339 E46.39053
G1 X143.548 Y83.717 E46.40572
G1 X143.302 Y84.166 E46.42539
G1 X143.066 Y84.483 E46.44057
G1 X142.635 Y84.855 E46.46244
G1 X142.301 Y85.067 E46.47764
G1 X141.807 Y85.236 E46.4977
G1 X141.053 Y85.348 E46.52698
G1 X140.081 Y85.348 E46.56432
G1 X138.739 Y86.667 E46.63661
G1 X138.283 Y87.123 E46.66138
G1 X137.844 Y87.464 E46.68273
G1 X137.496 Y87.652 E46.69793
G1 X136.933 Y87.822 E46.72052
G1 X136.424 Y87.889 E46.74024
G1 X103.962 Y87.889 E47.98728
G1 X103.202 Y87.759 E48.0169
G1 X102.83 Y87.625 E48.03209
G1 X102.409 Y87.368 E48.05104
G1 X102.1 Y87.117 E48.06634
G1 X100.331 Y85.348 E48.16244
G1 X89.774 Y85.348 E48.56799
G1 X89.381 Y85.308 E48.58317
G1 X88.911 Y85.151 E48.6022
G1 X88.564 Y84.961 E48.6174
G1 X88.286 Y84.731 E48.63126
G1 X87.102 Y83.547 E48.69559
G1 X86.852 Y83.241 E48.71077
G1 X86.639 Y82.82 E48.72889
G1 X86.523 Y82.442 E48.74408
G1 X86.485 Y82.059 E48.75887
G1 X86.485 Y17.985 E51.2203
M204 S3000
M205 X10 Y10
G0 F1800 X87.045 Y17.985
M204 S1800
M205 X8 Y8
G1 F2400 X87.103 Y17.585 E51.23582
G1 X87.346 Y16.91 E51.26338
G1 X87.603 Y16.577 E51.27954
G1 X87.969 Y16.279 E51.29767
G1 X88.183 Y16.158 E51.30712
G1 X88.823 Y15.959 E51.33287
G1 X89.1 Y15.931 E51.34356
G1 X141.132 Y15.931 E53.34239
G1 X141.544 Y15.993 E53.3584
G1 X142.216 Y16.242 E53.38593
G1 X142.67 Y16.641 E53.40915
G1 X142.95 Y17.059 E53.42848
G1 X143.144 Y17.605 E53.45074
G1 X143.185 Y34.212 E54.0887
G1 X143.185 Y82.74 E55.95293
G1 X143.115 Y83.229 E55.9719
G1 X142.944 Y83.675 E55.99025
G1 X142.617 Y84.143 E56.01219
G1 X142.289 Y84.415 E56.02856
G1 X142.004 Y84.588 E56.04136
G1 X141.327 Y84.761 E56.06821
G1 X139.852 Y84.788 E56.12488
G1 X138.346 Y86.268 E56.20599
G1 X137.887 Y86.727 E56.23093
G1 X137.528 Y87.001 E56.24828
G1 X137.104 Y87.196 E56.26621
G1 X136.424 Y87.329 E56.29282
G1 X103.962 Y87.329 E57.53987
G1 X103.338 Y87.216 E57.56423
G1 X102.909 Y87.028 E57.58222
G1 X102.496 Y86.721 E57.60199
G1 X100.563 Y84.788 E57.707
G1 X89.774 Y84.788 E58.12147
G1 X89.442 Y84.748 E58.13432
G1 X89.128 Y84.635 E58.14713
G1 X88.682 Y84.335 E58.16778
G1 X87.498 Y83.151 E58.23211
G1 X87.198 Y82.705 E58.25276
G1 X87.063 Y82.282 E58.26981
G1 X87.045 Y17.985 E60.73981
M204 S3000
M205 X10 Y10
G0 F1800 X87.605 Y17.985
M204 S1800
M205 X8 Y8
G1 F2400 X87.75 Y17.376 E60.76386
G1 X88.025 Y16.946 E60.78347
G1 X88.459 Y16.646 E60.80374
G1 X88.934 Y16.508 E60.82274
G1 X141.132 Y16.491 E62.82795
G1 X141.979 Y16.754 E62.86202
G1 X142.269 Y17.031 E62.87742
G1 X142.535 Y17.508 E62.89841
G1 X142.604 Y17.841 E62.91147
G1 X142.625 Y34.213 E63.54041
G1 X142.625 Y82.74 E65.40459
G1 X142.566 Y83.12 E65.41937
G1 X142.341 Y83.591 E65.43942
G1 X142.139 Y83.821 E65.45118
G1 X141.718 Y84.101 E65.4706
G1 X141.217 Y84.212 E65.49032
G1 X139.623 Y84.228 E65.55155
G1 X137.954 Y85.868 E65.64144
G1 X137.491 Y86.331 E65.66659
G1 X137.213 Y86.538 E65.67991
G1 X136.958 Y86.655 E65.69069
G1 X136.424 Y86.769 E65.71166
G1 X103.962 Y86.769 E66.95871
G1 X103.475 Y86.673 E66.97777
G1 X103.024 Y86.433 E66.9974
G1 X100.85 Y84.283 E67.11486
G1 X100.715 Y84.228 E67.12046
G1 X89.774 Y84.228 E67.54076
G1 X89.346 Y84.119 E67.55773
G1 X89.078 Y83.939 E67.57013
G1 X87.894 Y82.755 E67.63445
G1 X87.671 Y82.385 E67.65105
G1 X87.605 Y82.059 E67.66383
G1 X87.605 Y17.985 E70.12526
M204 S3000
M205 X10 Y10
G0 F1800 X88.165 Y17.985
M204 S1800
M205 X8 Y8
G1 F2400 X88.287 Y17.536 E70.14313
G1 X88.447 Y17.314 E70.15365
G1 X88.817 Y17.103 E70.17001
G1 X89.1 Y17.051 E70.18106
G1 X141.132 Y17.051 E72.1799
G1 X141.581 Y17.176 E72.1978
G1 X141.867 Y17.421 E72.21227
G1 X142.021 Y17.731 E72.22556
G1 X142.065 Y34.214 E72.85877
G1 X142.065 Y82.74 E74.72292
G1 X141.982 Y83.1 E74.73711
G1 X141.793 Y83.38 E74.75009
G1 X141.479 Y83.589 E74.76458
G1 X141.053 Y83.668 E74.78122
G1 X139.544 Y83.668 E74.83919
G1 X139.339 Y83.722 E74.84733
G1 X137.561 Y85.469 E74.94309
G1 X137.095 Y85.935 E74.96841
G1 X136.813 Y86.114 E74.98124
G1 X136.424 Y86.209 E74.99662
G1 X103.962 Y86.209 E76.24366
G1 X103.525 Y86.092 E76.26104
G1 X103.288 Y85.929 E76.27209
G1 X101.166 Y83.807 E76.38737
G1 X100.826 Y83.668 E76.40149
G1 X89.774 Y83.668 E76.82605
G1 X89.563 Y83.603 E76.83453
G1 X88.29 Y82.359 E76.90291
G1 X88.187 Y82.168 E76.91125
G1 X88.165 Y17.985 E79.37687
M204 S3000
M205 X10 Y10
G1 F1800 E75.37687
G0 F1800 X87.785 Y17.873
G0 X88.233 Y16.977
G0 X95.499 Y13.538
M204 S1800
M205 X8 Y8
G1 F1800 E79.37687
G1 F2400 X95.399 Y13.155 E79.39207
G1 X95.375 Y11.096 E79.47118
G1 X95.415 Y10.703 E79.48635
G1 X95.533 Y10.325 E79.50156
G1 X95.724 Y9.979 E79.51675
G1 X96.066 Y9.593 E79.53656
