;FLAVOR:Marlin
;TIME:27093
;Filament used: 18.6103m
;Layer height: 0.2
;MINX:15.8
;MINY:12.586
;MINZ:0.15
;MAXX:194.2
;MAXY:120.986
;MAXZ:2.425
;Generated with Cura_SteamEngine 4.5.0
M140 S60
M105
M190 S60
M104 S200
M105
M109 S200
M82 ;absolute extrusion mode
G21 ;metric values
G90 ;absolute positioning
M82 ;set extruder to absolute mode
M107 ;start with the fan off
G28 X0 Y0 ;move X/Y to min endstops
G28 Z0 ;move Z to min endstops
G1 Z15.0 F100 ;move the platform down 15mm
G92 E0 ;zero the extruded length
G1 F200 E3 ;extrude 3mm of feed stock
G92 E0 ;zero the extruded length again
G1 F100
G0 Y20 F100
M117 Printing...
G5
G92 E0
G92 E0
G1 F1800 E-4
;LAYER_COUNT:12
;LAYER:0
M106 S255
M204 S3000
M205 X10 Y10
G1 F600 Z0.225
G0 F1800 X17.558 Y15.118 Z0.225
M204 S1800
M205 X8 Y8
;TYPE:SKIRT
G1 F600 Z0.15
G1 F1800 E0
G1 F2400 X18.441 Y14.348 E0.04501
G1 X18.87 Y14.054 E0.06499
G1 X19.357 Y13.767 E0.0867
G1 X19.864 Y13.512 E0.1085
G1 X20.329 Y13.312 E0.12795
G1 X20.896 Y13.108 E0.1511
G1 X21.935 Y12.83 E0.19241
G1 X22.995 Y12.659 E0.23366
G1 X24.054 Y12.591 E0.27443
G1 X185.749 Y12.586 E6.48601
G1 X186.6 Y12.62 E6.51873
G1 X187.649 Y12.749 E6.55933
G1 X188.675 Y12.978 E6.59972
G1 X189.667 Y13.31 E6.6399
G1 X190.132 Y13.51 E6.65935
G1 X190.643 Y13.767 E6.68132
G1 X191.129 Y14.053 E6.70298
G1 X191.557 Y14.346 E6.72291
G1 X192.098 Y14.787 E6.74972
G1 X192.451 Y15.127 E6.76855
G1 X192.966 Y15.727 E6.79893
G1 X193.523 Y16.584 E6.83819
G1 X193.844 Y17.33 E6.86939
G1 X194.023 Y17.881 E6.89164
G1 X194.162 Y18.724 E6.92447
G1 X194.2 Y19.285 E6.94607
G1 X194.2 Y114.284 E10.5955
G1 X194.162 Y114.847 E10.61717
G1 X193.992 Y115.806 E10.65459
G1 X193.684 Y116.638 E10.68867
G1 X193.43 Y117.159 E10.71094
G1 X192.966 Y117.845 E10.74275
G1 X192.444 Y118.452 E10.77351
G1 X191.56 Y119.223 E10.81857
G1 X191.132 Y119.516 E10.83849
G1 X190.655 Y119.798 E10.85978
G1 X190.149 Y120.054 E10.88156
G1 X189.678 Y120.257 E10.90127
G1 X189.107 Y120.463 E10.92458
G1 X188.065 Y120.742 E10.96602
G1 X187.007 Y120.913 E11.00719
G1 X185.951 Y120.981 E11.04785
G1 X24.251 Y120.986 E17.25962
G1 X23.4 Y120.952 E17.29234
G1 X22.351 Y120.823 E17.33294
G1 X21.336 Y120.598 E17.37288
G1 X20.33 Y120.261 E17.41364
G1 X19.868 Y120.062 E17.43296
G1 X19.357 Y119.805 E17.45494
G1 X18.871 Y119.519 E17.4766
G1 X18.443 Y119.226 E17.49652
G1 X17.907 Y118.789 E17.52309
G1 X17.555 Y118.451 E17.54184
G1 X17.032 Y117.843 E17.57265
G1 X16.475 Y116.984 E17.61198
G1 X16.159 Y116.251 E17.64264
G1 X15.979 Y115.701 E17.66487
G1 X15.837 Y114.846 E17.69817
G1 X15.8 Y114.287 E17.71969
G1 X15.8 Y19.288 E21.36912
G1 X15.838 Y18.725 E21.39079
G1 X16.008 Y17.766 E21.42821
G1 X16.316 Y16.934 E21.46229
G1 X16.57 Y16.413 E21.48456
G1 X17.038 Y15.721 E21.51665
G1 X17.558 Y15.118 E21.54724
M204 S3000
M205 X10 Y10
G0 F1800 X17.945 Y15.522
M204 S1800
M205 X8 Y8
G1 F2400 X18.757 Y14.81 E21.58872
G1 X19.186 Y14.516 E21.6087
G1 X20.115 Y14.012 E21.6493
G1 X21.086 Y13.635 E21.68932
G1 X22.068 Y13.374 E21.72835
G1 X23.074 Y13.213 E21.76749
G1 X24.08 Y13.15 E21.80621
G1 X185.749 Y13.146 E28.0168
G1 X186.575 Y13.18 E28.04856
G1 X187.571 Y13.303 E28.08711
G1 X188.542 Y13.522 E28.12535
G1 X189.477 Y13.837 E28.16325
G1 X190.391 Y14.267 E28.20205
G1 X191.24 Y14.808 E28.24073
G1 X191.709 Y15.19 E28.26397
G1 X192.062 Y15.53 E28.28279
G1 X192.509 Y16.05 E28.30914
G1 X193.043 Y16.874 E28.34686
G1 X193.325 Y17.54 E28.37464
G1 X193.488 Y18.053 E28.39532
G1 X193.607 Y18.799 E28.42434
G1 X193.64 Y19.285 E28.44305
G1 X193.64 Y114.284 E32.09248
G1 X193.554 Y115.164 E32.12645
G1 X193.443 Y115.691 E32.14714
G1 X193.165 Y116.428 E32.1774
G1 X192.926 Y116.911 E32.1981
G1 X192.509 Y117.522 E32.22651
G1 X192.057 Y118.048 E32.25316
G1 X191.243 Y118.761 E32.29473
G1 X190.815 Y119.054 E32.31465
G1 X189.896 Y119.554 E32.35484
G1 X188.917 Y119.936 E32.39521
G1 X187.932 Y120.198 E32.43437
G1 X186.928 Y120.358 E32.47342
G1 X185.924 Y120.422 E32.51207
G1 X24.251 Y120.426 E38.72281
G1 X23.425 Y120.392 E38.75457
G1 X22.429 Y120.269 E38.79312
G1 X21.468 Y120.053 E38.83096
G1 X20.52 Y119.734 E38.86939
G1 X19.609 Y119.305 E38.90807
G1 X18.76 Y118.764 E38.94674
G1 X18.295 Y118.386 E38.96976
G1 X17.943 Y118.048 E38.98851
G1 X17.489 Y117.52 E39.01526
G1 X16.956 Y116.694 E39.05302
G1 X16.678 Y116.041 E39.08029
G1 X16.513 Y115.528 E39.10099
G1 X16.392 Y114.772 E39.1304
G1 X16.36 Y114.287 E39.14907
G1 X16.36 Y19.288 E42.7985
G1 X16.446 Y18.408 E42.83247
G1 X16.557 Y17.881 E42.85316
G1 X16.835 Y17.144 E42.88342
G1 X17.074 Y16.661 E42.90412
G1 X17.495 Y16.045 E42.93278
G1 X17.945 Y15.522 E42.95929
M204 S3000
M205 X10 Y10
G0 F1800 X18.333 Y15.926
M204 S1800
M205 X8 Y8
G1 F2400 X19.074 Y15.272 E42.99726
G1 X19.503 Y14.978 E43.01723
G1 X20.367 Y14.512 E43.05494
G1 X21.275 Y14.162 E43.09233
G1 X22.201 Y13.918 E43.12911
G1 X23.152 Y13.768 E43.1661
G1 X24.106 Y13.709 E43.20282
G1 X185.749 Y13.706 E49.41241
G1 X186.55 Y13.739 E49.4432
G1 X187.493 Y13.858 E49.47972
G1 X188.409 Y14.066 E49.5158
G1 X189.288 Y14.364 E49.55146
G1 X190.14 Y14.767 E49.58766
G1 X190.924 Y15.27 E49.62345
G1 X191.321 Y15.594 E49.64313
G1 X191.674 Y15.934 E49.66196
G1 X192.052 Y16.374 E49.68424
G1 X192.308 Y16.736 E49.70128
G1 X192.65 Y17.364 E49.72875
G1 X192.953 Y18.222 E49.7637
G1 X193.052 Y18.874 E49.78904
G1 X193.08 Y19.285 E49.80486
G1 X193.08 Y114.284 E53.45429
G1 X192.999 Y115.089 E53.48537
G1 X192.802 Y115.833 E53.51494
G1 X192.646 Y116.218 E53.5309
G1 X192.307 Y116.838 E53.55804
G1 X191.669 Y117.644 E53.59753
G1 X190.927 Y118.299 E53.63555
G1 X190.499 Y118.592 E53.65548
G1 X189.643 Y119.054 E53.69284
G1 X188.727 Y119.409 E53.73058
G1 X187.799 Y119.654 E53.76745
G1 X186.85 Y119.804 E53.80436
G1 X185.897 Y119.862 E53.84104
G1 X24.251 Y119.866 E60.05075
G1 X23.45 Y119.833 E60.08154
G1 X22.507 Y119.714 E60.11806
G1 X21.6 Y119.509 E60.15378
G1 X20.71 Y119.207 E60.18988
G1 X19.86 Y118.805 E60.226
G1 X19.076 Y118.302 E60.26179
G1 X18.683 Y117.982 E60.28126
G1 X18.331 Y117.644 E60.3
G1 X17.947 Y117.197 E60.32264
G1 X17.691 Y116.834 E60.3397
G1 X17.353 Y116.216 E60.36676
G1 X17.049 Y115.357 E60.40177
G1 X16.947 Y114.697 E60.42742
G1 X16.92 Y114.287 E60.44321
G1 X16.92 Y19.288 E64.09264
G1 X17.001 Y18.483 E64.12372
G1 X17.198 Y17.739 E64.15328
G1 X17.354 Y17.354 E64.16924
G1 X17.695 Y16.731 E64.19653
G1 X18.333 Y15.926 E64.23598
M204 S3000
M205 X10 Y10
G0 F1800 X18.721 Y16.33
M204 S1800
M205 X8 Y8
G1 F2400 X19.39 Y15.734 E64.2704
G1 X19.819 Y15.44 E64.29038
G1 X20.619 Y15.013 E64.32522
G1 X21.465 Y14.689 E64.36002
G1 X22.334 Y14.462 E64.39452
G1 X23.231 Y14.322 E64.4294
G1 X24.132 Y14.269 E64.46407
G1 X185.749 Y14.266 E70.67266
G1 X186.524 Y14.299 E70.70246
G1 X187.415 Y14.413 E70.73697
G1 X188.276 Y14.61 E70.7709
G1 X189.098 Y14.891 E70.80427
G1 X189.888 Y15.268 E70.8379
G1 X190.608 Y15.733 E70.87082
G1 X191.285 Y16.337 E70.90568
G1 X191.85 Y17.059 E70.9409
G1 X192.131 Y17.573 E70.9634
G1 X192.286 Y17.958 E70.97934
G1 X192.445 Y18.563 E71.00337
G1 X192.52 Y19.285 E71.03126
G1 X192.52 Y114.284 E74.68069
G1 X192.444 Y115.014 E74.70888
G1 X192.283 Y115.622 E74.73304
G1 X192.127 Y116.007 E74.749
G1 X191.849 Y116.515 E74.77125
G1 X191.281 Y117.24 E74.80663
G1 X190.611 Y117.836 E74.84108
G1 X190.183 Y118.129 E74.861
G1 X189.391 Y118.555 E74.89555
G1 X188.537 Y118.882 E74.93068
G1 X187.666 Y119.11 E74.96527
G1 X186.771 Y119.249 E75.00006
G1 X185.871 Y119.303 E75.0347
G1 X24.251 Y119.306 E81.2434
G1 X23.476 Y119.273 E81.2732
G1 X22.585 Y119.159 E81.30771
G1 X21.732 Y118.965 E81.34131
G1 X20.9 Y118.68 E81.3751
G1 X20.112 Y118.304 E81.40864
G1 X19.392 Y117.839 E81.44157
G1 X18.719 Y117.24 E81.47618
G1 X18.149 Y116.511 E81.51173
G1 X17.872 Y116.005 E81.53389
G1 X17.716 Y115.62 E81.54984
G1 X17.554 Y115.01 E81.57409
G1 X17.48 Y114.287 E81.60201
G1 X17.48 Y19.288 E85.25144
G1 X17.556 Y18.558 E85.27963
G1 X17.717 Y17.95 E85.3038
G1 X17.873 Y17.565 E85.31975
G1 X18.152 Y17.055 E85.34209
G1 X18.721 Y16.33 E85.37749
M204 S3000
M205 X10 Y10
G0 F1800 X19.109 Y16.734
M204 S1800
M205 X8 Y8
G1 F2400 X19.707 Y16.196 E85.40839
G1 X20.136 Y15.902 E85.42837
G1 X20.87 Y15.513 E85.46028
G1 X21.654 Y15.216 E85.49249
G1 X22.467 Y15.006 E85.52475
G1 X23.31 Y14.877 E85.55751
G1 X24.159 Y14.828 E85.59018
G1 X185.749 Y14.826 E91.79773
G1 X186.499 Y14.858 E91.82657
G1 X187.337 Y14.967 E91.85903
G1 X188.143 Y15.154 E91.89082
G1 X188.909 Y15.418 E91.92194
G1 X189.637 Y15.768 E91.95297
G1 X190.291 Y16.195 E91.98298
G1 X190.897 Y16.74 E92.01428
G1 X191.393 Y17.382 E92.04545
G1 X191.611 Y17.782 E92.06295
G1 X191.766 Y18.167 E92.07889
G1 X191.89 Y18.637 E92.09757
G1 X191.96 Y19.285 E92.12261
G1 X191.96 Y114.284 E95.77204
G1 X191.889 Y114.939 E95.79734
G1 X191.764 Y115.412 E95.81614
G1 X191.392 Y116.192 E95.84934
G1 X190.893 Y116.836 E95.88063
G1 X190.294 Y117.374 E95.91156
G1 X189.866 Y117.667 E95.93149
G1 X189.138 Y118.055 E95.96318
G1 X188.347 Y118.356 E95.99569
G1 X187.533 Y118.566 E96.02799
G1 X186.693 Y118.695 E96.06063
G1 X185.844 Y118.744 E96.0933
G1 X24.251 Y118.746 E102.30097
G1 X23.501 Y118.714 E102.32981
G1 X22.663 Y118.605 E102.36227
G1 X21.864 Y118.421 E102.39377
G1 X21.09 Y118.154 E102.42522
G1 X20.363 Y117.804 E102.45622
G1 X19.709 Y117.377 E102.48622
G1 X19.106 Y116.836 E102.51734
G1 X18.606 Y116.189 E102.54876
G1 X18.235 Y115.41 E102.5819
G1 X18.109 Y114.935 E102.60078
G1 X18.04 Y114.287 E102.62581
G1 X18.04 Y19.288 E106.27524
G1 X18.111 Y18.633 E106.30055
G1 X18.236 Y18.16 E106.31935
G1 X18.609 Y17.378 E106.35263
G1 X19.109 Y16.734 E106.38395
M204 S3000
M205 X10 Y10
G0 F1800 X19.323 Y17.339
M204 S1800
M205 X8 Y8
G1 F2400 X19.846 Y16.803 E106.41272
G1 X20.453 Y16.364 E106.4415
G1 X21.122 Y16.013 E106.47052
G1 X21.844 Y15.743 E106.50013
G1 X22.6 Y15.55 E106.53011
G1 X23.389 Y15.431 E106.56076
G1 X24.185 Y15.388 E106.59138
G1 X185.749 Y15.386 E112.79794
G1 X186.473 Y15.417 E112.82577
G1 X187.259 Y15.522 E112.85624
G1 X188.01 Y15.698 E112.88587
G1 X188.719 Y15.945 E112.91471
G1 X189.385 Y16.268 E112.94315
G1 X189.975 Y16.657 E112.97029
G1 X190.508 Y17.144 E112.99803
G1 X190.936 Y17.706 E113.02517
G1 X191.247 Y18.376 E113.05354
G1 X191.387 Y19.098 E113.0818
G1 X191.4 Y114.284 E116.73841
G1 X191.334 Y114.864 E116.76083
G1 X191.089 Y115.587 E116.79016
G1 X190.679 Y116.23 E116.81945
G1 X190.156 Y116.767 E116.84825
G1 X189.55 Y117.205 E116.87697
G1 X188.885 Y117.555 E116.90584
G1 X188.157 Y117.829 E116.93572
G1 X187.4 Y118.022 E116.96574
G1 X186.614 Y118.14 E116.99627
G1 X185.817 Y118.184 E117.02693
G1 X24.251 Y118.186 E123.23356
G1 X23.527 Y118.155 E123.2614
G1 X22.741 Y118.05 E123.29187
G1 X21.996 Y117.877 E123.32125
G1 X21.28 Y117.627 E123.35038
G1 X20.615 Y117.304 E123.37878
G1 X20.025 Y116.915 E123.40593
G1 X19.494 Y116.432 E123.4335
G1 X19.064 Y115.866 E123.46081
G1 X18.754 Y115.2 E123.48903
G1 X18.612 Y114.473 E123.51749
G1 X18.6 Y19.288 E127.17406
G1 X18.666 Y18.708 E127.19649
G1 X18.911 Y17.985 E127.22581
G1 X19.323 Y17.339 E127.25525
M204 S3000
M205 X10 Y10
G0 F1800 X19.78 Y17.663
M204 S1800
M205 X8 Y8
G1 F2400 X20.233 Y17.207 E127.27994
G1 X20.769 Y16.826 E127.3052
G1 X21.374 Y16.514 E127.33135
G1 X22.034 Y16.27 E127.35838
G1 X22.733 Y16.094 E127.38607
G1 X23.468 Y15.985 E127.41462
G1 X24.211 Y15.947 E127.4432
G1 X185.749 Y15.946 E133.64875
G1 X186.448 Y15.977 E133.67563
G1 X187.181 Y16.076 E133.70404
G1 X187.877 Y16.242 E133.73153
G1 X188.529 Y16.472 E133.75809
G1 X189.133 Y16.769 E133.78395
G1 X189.659 Y17.119 E133.80822
G1 X190.12 Y17.547 E133.83238
G1 X190.479 Y18.029 E133.85547
G1 X190.727 Y18.585 E133.87886
G1 X190.832 Y19.173 E133.9018
G1 X190.84 Y114.284 E137.55554
G1 X190.779 Y114.789 E137.57508
G1 X190.57 Y115.376 E137.59901
G1 X190.222 Y115.907 E137.6234
G1 X189.769 Y116.363 E137.6481
G1 X189.234 Y116.743 E137.6733
G1 X188.632 Y117.056 E137.69937
G1 X187.967 Y117.302 E137.72661
G1 X187.267 Y117.478 E137.75434
G1 X186.536 Y117.586 E137.78272
G1 X185.79 Y117.625 E137.81142
G1 X24.251 Y117.626 E144.01701
G1 X23.552 Y117.595 E144.04389
G1 X22.819 Y117.496 E144.07231
G1 X22.128 Y117.332 E144.09959
G1 X21.47 Y117.1 E144.12639
G1 X20.867 Y116.803 E144.15221
G1 X20.341 Y116.453 E144.17648
G1 X19.882 Y116.028 E144.20052
G1 X19.522 Y115.543 E144.22372
G1 X19.273 Y114.989 E144.24705
G1 X19.167 Y114.399 E144.27008
G1 X19.16 Y19.288 E147.92381
G1 X19.221 Y18.783 E147.94335
G1 X19.43 Y18.196 E147.96729
G1 X19.78 Y17.663 E147.99178
M204 S3000
M205 X10 Y10
G0 F1800 X20.272 Y17.946
M204 S1800
M205 X8 Y8
G1 F2400 X20.657 Y17.582 E148.01214
G1 X21.086 Y17.288 E148.03212
G1 X21.625 Y17.014 E148.05535
G1 X22.223 Y16.797 E148.07978
G1 X22.866 Y16.638 E148.10523
G1 X23.547 Y16.54 E148.13166
G1 X24.237 Y16.506 E148.1582
G1 X185.762 Y16.506 E154.36325
G1 X186.423 Y16.536 E154.38867
G1 X187.103 Y16.631 E154.41505
G1 X187.744 Y16.786 E154.44038
G1 X188.34 Y16.999 E154.4647
G1 X188.882 Y17.269 E154.48796
G1 X189.342 Y17.581 E154.50931
G1 X189.731 Y17.95 E154.52991
G1 X190.053 Y18.409 E154.55145
G1 X190.225 Y18.862 E154.57006
G1 X190.28 Y19.285 E154.58645
G1 X190.28 Y114.284 E158.23588
G1 X190.207 Y114.781 E158.25518
G1 X190.02 Y115.223 E158.27361
G1 X189.73 Y115.624 E158.29262
G1 X189.345 Y115.988 E158.31298
G1 X188.917 Y116.281 E158.3329
G1 X188.379 Y116.556 E158.35611
G1 X187.777 Y116.775 E158.38072
G1 X187.134 Y116.934 E158.40617
G1 X186.457 Y117.031 E158.43244
G1 X185.763 Y117.066 E158.45913
G1 X24.238 Y117.066 E164.66419
G1 X23.577 Y117.036 E164.68961
G1 X22.897 Y116.941 E164.71599
G1 X22.26 Y116.788 E164.74115
G1 X21.66 Y116.573 E164.76564
G1 X21.118 Y116.303 E164.7889
G1 X20.658 Y115.991 E164.81025
G1 X20.27 Y115.624 E164.83077
G1 X19.948 Y115.164 E164.85234
G1 X19.774 Y114.711 E164.87098
G1 X19.72 Y114.287 E164.8874
G1 X19.72 Y19.288 E168.53683
G1 X19.793 Y18.791 E168.55613
G1 X19.98 Y18.349 E168.57456
G1 X20.272 Y17.946 E168.59368
M204 S3000
M205 X10 Y10
G1 F1800 E164.59368
;MESH:pantalla-lab-platform.stl
G0 F1800 X21.123 Y18.709
G0 X32.272 Y28.178
G0 X32.664 Y28.708
M204 S1800
M205 X8 Y8
;TYPE:WALL-OUTER
G1 F1800 E168.59368
G1 F900 X32.238 Y29.024 E168.61406
G1 X31.926 Y29.445 E168.63419
G1 X31.749 Y29.938 E168.65431
G1 X31.724 Y30.461 E168.67442
G1 X31.851 Y30.969 E168.69454
G1 X32.12 Y31.419 E168.71468
G1 X32.509 Y31.77 E168.73481
G1 X32.982 Y31.994 E168.75491
G1 X33.5 Y32.071 E168.77503
G1 X34.018 Y31.994 E168.79515
G1 X34.491 Y31.77 E168.81525
G1 X34.88 Y31.419 E168.83538
G1 X35.149 Y30.969 E168.85552
G1 X35.276 Y30.461 E168.87564
G1 X35.251 Y29.938 E168.89575
G1 X35.074 Y29.445 E168.91587
G1 X34.762 Y29.024 E168.936
G1 X34.341 Y28.712 E168.95613
G1 X33.848 Y28.535 E168.97626
G1 X33.318 Y28.51 E168.99664
G1 X32.664 Y28.708 E169.02289
M204 S3000
M205 X10 Y10
G0 F1800 X32.504 Y28.827
G1 F1800 E165.02289
G0 F1800 X32.112 Y28.297
G0 X31.392 Y29.16
G0 X31.146 Y30.019
G0 X32.272 Y101.678
G0 X32.664 Y102.208
M204 S1800
M205 X8 Y8
G1 F1800 E169.02289
G1 F900 X32.238 Y102.524 E169.04326
G1 X31.926 Y102.945 E169.06339
G1 X31.749 Y103.438 E169.08352
G1 X31.724 Y103.961 E169.10363
G1 X31.851 Y104.469 E169.12375
G1 X32.12 Y104.919 E169.14389
G1 X32.509 Y105.27 E169.16401
G1 X32.982 Y105.494 E169.18412
G1 X33.5 Y105.571 E169.20424
G1 X34.018 Y105.494 E169.22436
G1 X34.491 Y105.27 E169.24446
G1 X34.88 Y104.918 E169.26461
G1 X35.151 Y104.461 E169.28502
G1 X35.276 Y103.961 E169.30482
G1 X35.251 Y103.438 E169.32494
G1 X35.074 Y102.945 E169.34506
G1 X34.762 Y102.524 E169.36519
G1 X34.341 Y102.212 E169.38532
G1 X33.848 Y102.035 E169.40544
G1 X33.318 Y102.01 E169.42583
G1 X32.664 Y102.208 E169.45208
M204 S3000
M205 X10 Y10
G0 F1800 X32.504 Y102.327
G1 F1800 E165.45208
G0 F1800 X32.112 Y101.797
G0 X95.885 Y83.734
G0 X96.45 Y84.073
M204 S1800
M205 X8 Y8
G1 F1800 E169.45208
G1 F900 X95.948 Y84.913 E169.48967
G1 X95.514 Y85.822 E169.52836
G1 X95.171 Y86.771 E169.56713
G1 X94.923 Y87.75 E169.60592
G1 X94.772 Y88.748 E169.6447
G1 X94.719 Y89.755 E169.68344
G1 X94.765 Y90.763 E169.7222
G1 X94.91 Y91.761 E169.76094
G1 X95.16 Y92.771 E169.80091
G1 X95.489 Y93.692 E169.83848
G1 X95.917 Y94.604 E169.87718
G1 X96.433 Y95.472 E169.91597
G1 X97.032 Y96.284 E169.95474
G1 X97.707 Y97.034 E169.9935
