;FLAVOR:Marlin
;TIME:6412
;Filament used: 4.21888m
;Layer height: 0.15
;MINX:68.925
;MINY:10.789
;MINZ:0.15
;MAXX:141.075
;MAXY:54.189
;MAXZ:18.75
;Generated with Cura_SteamEngine 4.5.0
M140 S60
M105
M190 S60
M104 S200
M105
M109 S200
M82 ;absolute extrusion mode
G21 ;metric values
G90 ;absolute positioning
M82 ;set extruder to absolute mode
M107 ;start with the fan off
G28 X0 Y0 ;move X/Y to min endstops
G28 Z0 ;move Z to min endstops
G1 Z15.0 F100 ;move the platform down 15mm
G92 E0 ;zero the extruded length
G1 F200 E3 ;extrude 3mm of feed stock
G92 E0 ;zero the extruded length again
G1 F100
G0 Y20 F100
M117 Printing...
G5
G92 E0
G92 E0
G1 F1800 E-4
;LAYER_COUNT:125
;LAYER:0
M106 S255
M204 S3000
M205 X10 Y10
G1 F600 Z0.225
G0 F1800 X69.06 Y15.265 Z0.225
M204 S1800
M205 X8 Y8
;TYPE:SKIRT
G1 F600 Z0.15
G1 F1800 E0
G1 F2400 X69.207 Y14.75 E0.02057
G1 X69.557 Y13.888 E0.05631
G1 X69.892 Y13.327 E0.08141
G1 X70.232 Y12.858 E0.10367
G1 X70.733 Y12.335 E0.13149
G1 X71.171 Y11.956 E0.15374
G1 X71.749 Y11.576 E0.18031
G1 X72.261 Y11.303 E0.2026
G1 X72.908 Y11.062 E0.22913
G1 X73.467 Y10.909 E0.25139
G1 X74.151 Y10.816 E0.27791
G1 X74.626 Y10.789 E0.29619
G1 X135.376 Y10.789 E2.62992
G1 X135.954 Y10.829 E2.65218
G1 X136.991 Y11.054 E2.69295
G1 X137.545 Y11.225 E2.71522
G1 X138.282 Y11.596 E2.74692
G1 X139.036 Y12.121 E2.78221
G1 X139.53 Y12.597 E2.80856
G1 X139.908 Y13.036 E2.83082
G1 X140.286 Y13.612 E2.85729
G1 X140.559 Y14.123 E2.87954
G1 X140.805 Y14.784 E2.90664
G1 X140.957 Y15.343 E2.92889
G1 X141.062 Y16.327 E2.9669
G1 X141.075 Y48.336 E4.19655
G1 X141.018 Y49.186 E4.22927
G1 X140.929 Y49.758 E4.25151
G1 X140.789 Y50.239 E4.27075
G1 X140.444 Y51.087 E4.30592
G1 X140.113 Y51.643 E4.33078
G1 X139.774 Y52.113 E4.35304
G1 X139.288 Y52.624 E4.38013
G1 X138.852 Y53.005 E4.40238
G1 X138.263 Y53.395 E4.42951
G1 X137.753 Y53.669 E4.45175
G1 X137.092 Y53.916 E4.47886
G1 X136.533 Y54.069 E4.50113
G1 X135.849 Y54.162 E4.52764
G1 X135.374 Y54.189 E4.54592
G1 X74.626 Y54.189 E6.87958
G1 X73.818 Y54.124 E6.91072
G1 X73.248 Y54.019 E6.93299
G1 X72.546 Y53.787 E6.96139
G1 X72.016 Y53.554 E6.98363
G1 X71.42 Y53.192 E7.01042
G1 X70.954 Y52.847 E7.03269
G1 X70.446 Y52.352 E7.05994
G1 X70.07 Y51.911 E7.0822
G1 X69.709 Y51.358 E7.10757
G1 X69.437 Y50.846 E7.12984
G1 X69.186 Y50.163 E7.1578
G1 X69.038 Y49.603 E7.18005
G1 X68.938 Y48.669 E7.21613
G1 X68.925 Y16.654 E8.44601
G1 X68.975 Y15.838 E8.47741
G1 X69.06 Y15.265 E8.49966
M204 S3000
M205 X10 Y10
G0 F1800 X69.615 Y15.348
M204 S1800
M205 X8 Y8
G1 F2400 X69.852 Y14.607 E8.52955
G1 X70.195 Y13.899 E8.55977
G1 X70.686 Y13.189 E8.59293
G1 X71.128 Y12.732 E8.61736
G1 X71.538 Y12.381 E8.63809
G1 X72.046 Y12.051 E8.66136
G1 X72.523 Y11.8 E8.68207
G1 X73.092 Y11.59 E8.70537
G1 X73.613 Y11.451 E8.72608
G1 X74.215 Y11.372 E8.74941
G1 X135.376 Y11.349 E11.09894
G1 X135.914 Y11.389 E11.11966
G1 X136.864 Y11.599 E11.15704
G1 X137.378 Y11.761 E11.17774
G1 X137.982 Y12.069 E11.20378
G1 X138.702 Y12.573 E11.23755
G1 X139.132 Y12.991 E11.26058
G1 X139.633 Y13.623 E11.29157
G1 X140.063 Y14.386 E11.32521
G1 X140.276 Y14.967 E11.34898
G1 X140.414 Y15.488 E11.36969
G1 X140.504 Y16.37 E11.40375
G1 X140.515 Y48.336 E12.63173
G1 X140.46 Y49.138 E12.66262
G1 X140.374 Y49.67 E12.68332
G1 X140.149 Y50.368 E12.71149
G1 X139.81 Y51.069 E12.7414
G1 X139.319 Y51.783 E12.77469
G1 X138.891 Y52.228 E12.79841
G1 X138.484 Y52.581 E12.81911
G1 X137.965 Y52.921 E12.84294
G1 X137.488 Y53.173 E12.86367
G1 X136.908 Y53.388 E12.88743
G1 X136.387 Y53.527 E12.90814
G1 X135.785 Y53.606 E12.93147
G1 X74.626 Y53.629 E15.28092
G1 X73.881 Y53.568 E15.30963
G1 X73.351 Y53.468 E15.33035
G1 X72.735 Y53.26 E15.35533
G1 X72.243 Y53.041 E15.37602
G1 X71.721 Y52.72 E15.39956
G1 X71.289 Y52.397 E15.42028
G1 X70.846 Y51.96 E15.44418
G1 X70.358 Y51.34 E15.4745
G1 X69.934 Y50.584 E15.50779
G1 X69.716 Y49.982 E15.53239
G1 X69.581 Y49.46 E15.5531
G1 X69.496 Y48.625 E15.58534
G1 X69.485 Y16.654 E16.81352
G1 X69.534 Y15.881 E16.84328
G1 X69.615 Y15.348 E16.86399
M204 S3000
M205 X10 Y10
G0 F1800 X70.17 Y15.434
M204 S1800
M205 X8 Y8
G1 F2400 X70.38 Y14.795 E16.88983
G1 X70.67 Y14.196 E16.91539
G1 X70.842 Y13.921 E16.92786
G1 X71.28 Y13.372 E16.95484
G1 X71.524 Y13.129 E16.96806
G1 X72.065 Y12.699 E16.99461
G1 X72.959 Y12.23 E17.03339
G1 X73.277 Y12.119 E17.04633
G1 X73.944 Y11.967 E17.07261
G1 X74.626 Y11.909 E17.09891
G1 X135.376 Y11.909 E19.43265
G1 X136.079 Y11.99 E19.45983
G1 X136.736 Y12.144 E19.48575
G1 X137.208 Y12.296 E19.5048
G1 X137.682 Y12.542 E19.52532
G1 X137.969 Y12.724 E19.53837
G1 X138.507 Y13.157 E19.5649
G1 X139.158 Y13.92 E19.60343
G1 X139.337 Y14.206 E19.61639
G1 X139.636 Y14.831 E19.64301
G1 X139.871 Y15.631 E19.67504
G1 X139.946 Y16.413 E19.70522
G1 X139.955 Y48.336 E20.93156
G1 X139.902 Y49.09 E20.96059
G1 X139.734 Y49.863 E20.99098
G1 X139.335 Y50.773 E21.02915
G1 X139.162 Y51.051 E21.04173
G1 X138.73 Y51.597 E21.06848
G1 X138.495 Y51.833 E21.08127
G1 X137.953 Y52.267 E21.10794
G1 X137.667 Y52.447 E21.12093
G1 X137.041 Y52.748 E21.14761
G1 X136.723 Y52.859 E21.16055
G1 X136.056 Y53.011 E21.18683
G1 X135.374 Y53.069 E21.21312
G1 X74.626 Y53.069 E23.54678
G1 X73.944 Y53.011 E23.57308
G1 X73.251 Y52.85 E23.60041
G1 X72.925 Y52.733 E23.61372
G1 X72.307 Y52.43 E23.64016
G1 X72.022 Y52.248 E23.65315
G1 X71.479 Y51.807 E23.68002
G1 X70.834 Y51.044 E23.7184
G1 X70.66 Y50.765 E23.73103
G1 X70.357 Y50.128 E23.75813
G1 X70.125 Y49.321 E23.79039
G1 X70.054 Y48.581 E23.81894
G1 X70.045 Y16.654 E25.04543
G1 X70.092 Y15.924 E25.07354
G1 X70.17 Y15.434 E25.0926
M204 S3000
M205 X10 Y10
G0 F1800 X70.789 Y15.314
M204 S1800
M205 X8 Y8
G1 F2400 X71.144 Y14.493 E25.12696
G1 X71.675 Y13.768 E25.16148
G1 X72.362 Y13.174 E25.19637
G1 X73.144 Y12.759 E25.23038
G1 X74.007 Y12.523 E25.26475
G1 X74.626 Y12.469 E25.28862
G1 X135.376 Y12.469 E27.62236
G1 X135.951 Y12.535 E27.64459
G1 X136.608 Y12.689 E27.67051
G1 X137.034 Y12.83 E27.68775
G1 X137.67 Y13.197 E27.71596
G1 X138.11 Y13.551 E27.73765
G1 X138.683 Y14.217 E27.7714
G1 X139.107 Y15.014 E27.80608
G1 X139.218 Y15.334 E27.8191
G1 X139.349 Y15.966 E27.84389
G1 X139.395 Y16.651 E27.87026
G1 X139.395 Y48.336 E29.08746
G1 X139.344 Y49.043 E29.11469
G1 X139.207 Y49.675 E29.13953
G1 X138.86 Y50.477 E29.1731
G1 X138.333 Y51.202 E29.20753
G1 X137.654 Y51.793 E29.24211
G1 X136.856 Y52.219 E29.27686
G1 X135.993 Y52.455 E29.31123
G1 X135.374 Y52.509 E29.3351
G1 X74.626 Y52.509 E31.66876
G1 X74.007 Y52.455 E31.69263
G1 X73.44 Y52.323 E31.715
G1 X72.609 Y51.958 E31.74986
G1 X71.879 Y51.415 E31.78481
G1 X71.309 Y50.748 E31.81852
G1 X70.887 Y49.947 E31.8533
G1 X70.776 Y49.621 E31.86653
G1 X70.65 Y49.007 E31.89061
G1 X70.605 Y48.339 E31.91633
G1 X70.605 Y16.654 E33.13352
G1 X70.65 Y15.967 E33.15997
G1 X70.789 Y15.314 E33.18562
M204 S3000
M205 X10 Y10
G0 F1800 X71.317 Y15.502
M204 S1800
M205 X8 Y8
G1 F2400 X71.619 Y14.79 E33.21533
G1 X72.07 Y14.165 E33.24493
G1 X72.659 Y13.649 E33.27502
G1 X73.328 Y13.287 E33.30424
G1 X74.07 Y13.08 E33.33383
G1 X74.626 Y13.029 E33.35528
G1 X135.376 Y13.029 E35.68902
G1 X136.48 Y13.235 E35.73216
G1 X136.854 Y13.363 E35.74735
G1 X137.37 Y13.67 E35.77041
G1 X137.939 Y14.174 E35.79961
G1 X138.387 Y14.8 E35.82918
G1 X138.689 Y15.518 E35.85911
G1 X138.791 Y16.009 E35.87837
G1 X138.835 Y16.651 E35.90309
G1 X138.835 Y48.336 E37.12029
G1 X138.786 Y48.995 E37.14567
G1 X138.679 Y49.487 E37.16501
G1 X138.384 Y50.182 E37.19402
G1 X137.936 Y50.807 E37.22356
G1 X137.356 Y51.319 E37.25328
G1 X136.672 Y51.691 E37.28319
G1 X135.93 Y51.898 E37.31278
G1 X135.374 Y51.949 E37.33423
G1 X74.626 Y51.949 E39.66789
G1 X74.07 Y51.899 E39.68934
G1 X73.303 Y51.679 E39.71999
G1 X72.625 Y51.304 E39.74975
G1 X72.046 Y50.785 E39.77963
G1 X71.61 Y50.172 E39.80852
G1 X71.307 Y49.441 E39.83892
G1 X71.208 Y48.963 E39.85767
G1 X71.165 Y48.339 E39.8817
G1 X71.165 Y16.654 E41.0989
G1 X71.209 Y16.01 E41.12369
G1 X71.317 Y15.502 E41.14364
M204 S3000
M205 X10 Y10
G0 F1800 X71.767 Y16.053
M204 S1800
M205 X8 Y8
G1 F2400 X71.962 Y15.359 E41.17134
G1 X72.266 Y14.812 E41.19538
G1 X72.709 Y14.319 E41.22084
G1 X73.232 Y13.951 E41.24541
G1 X73.831 Y13.705 E41.27028
G1 X74.468 Y13.598 E41.29509
G1 X135.376 Y13.589 E43.6349
G1 X136.352 Y13.78 E43.67311
G1 X136.783 Y13.961 E43.69107
G1 X137.314 Y14.339 E43.7161
G1 X137.734 Y14.811 E43.74038
G1 X138.049 Y15.381 E43.76539
G1 X138.233 Y16.052 E43.79212
G1 X138.275 Y16.651 E43.81519
G1 X138.275 Y48.336 E45.03238
G1 X138.228 Y48.948 E45.05596
G1 X138.039 Y49.616 E45.08263
G1 X137.736 Y50.164 E45.10669
G1 X137.304 Y50.648 E45.13161
G1 X136.772 Y51.025 E45.15666
G1 X136.169 Y51.273 E45.1817
G1 X135.532 Y51.38 E45.20652
G1 X74.626 Y51.389 E47.54625
G1 X74.133 Y51.342 E47.56527
G1 X73.492 Y51.152 E47.59096
G1 X72.927 Y50.832 E47.6159
G1 X72.447 Y50.393 E47.64089
G1 X72.085 Y49.876 E47.66514
G1 X71.837 Y49.26 E47.69065
G1 X71.766 Y48.919 E47.70403
G1 X71.725 Y48.339 E47.72636
G1 X71.725 Y16.654 E48.94356
G1 X71.767 Y16.053 E48.9667
M204 S3000
M205 X10 Y10
G0 F1800 X72.325 Y16.096
M204 S1800
M205 X8 Y8
G1 F2400 X72.49 Y15.547 E48.98872
G1 X72.741 Y15.109 E49.00812
G1 X73.104 Y14.716 E49.02867
G1 X73.529 Y14.426 E49.04843
G1 X74.015 Y14.234 E49.06851
G1 X74.531 Y14.154 E49.08857
G1 X135.376 Y14.149 E51.42595
G1 X136.225 Y14.325 E51.45926
G1 X136.483 Y14.434 E51.47002
G1 X136.917 Y14.734 E51.49029
G1 X137.259 Y15.108 E51.50976
G1 X137.52 Y15.565 E51.52998
G1 X137.674 Y16.095 E51.55118
G1 X137.715 Y16.651 E51.5726
G1 X137.715 Y48.336 E52.78979
G1 X137.67 Y48.9 E52.81152
G1 X137.511 Y49.428 E52.83271
G1 X137.26 Y49.868 E52.85217
G1 X136.907 Y50.253 E52.87223
G1 X136.473 Y50.551 E52.89246
G1 X135.985 Y50.744 E52.91262
G1 X135.469 Y50.824 E52.93268
G1 X74.626 Y50.829 E55.26999
G1 X74.007 Y50.742 E55.294
G1 X73.513 Y50.542 E55.31447
G1 X73.08 Y50.24 E55.33475
G1 X72.734 Y49.859 E55.35452
G1 X72.478 Y49.406 E55.37451
G1 X72.325 Y48.875 E55.39574
G1 X72.285 Y48.339 E55.41639
G1 X72.285 Y16.654 E56.63358
G1 X72.325 Y16.096 E56.65507
M204 S3000
M205 X10 Y10
G0 F1800 X72.884 Y16.139
M204 S1800
M205 X8 Y8
G1 F2400 X73.044 Y15.681 E56.67371
G1 X73.255 Y15.356 E56.6886
G1 X73.549 Y15.074 E56.70425
G1 X73.882 Y14.874 E56.71917
G1 X74.26 Y14.749 E56.73446
G1 X74.626 Y14.709 E56.74861
G1 X135.376 Y14.709 E59.08235
G1 X136.097 Y14.87 E59.11073
G1 X136.519 Y15.128 E59.12973
G1 X136.784 Y15.405 E59.14445
G1 X136.991 Y15.748 E59.15984
G1 X137.116 Y16.138 E59.17558
G1 X137.155 Y16.651 E59.19534
G1 X137.155 Y48.336 E60.41253
G1 X137.112 Y48.853 E60.43246
G1 X136.958 Y49.294 E60.45041
G1 X136.745 Y49.622 E60.46543
G1 X136.461 Y49.897 E60.48062
G1 X136.118 Y50.104 E60.49601
G1 X135.74 Y50.229 E60.5113
G1 X135.374 Y50.269 E60.52545
G1 X74.626 Y50.269 E62.85911
G1 X74.196 Y50.215 E62.87576
G1 X73.814 Y50.07 E62.89145
G1 X73.48 Y49.848 E62.90686
G1 X73.209 Y49.562 E62.922
G1 X73.008 Y49.225 E62.93707
G1 X72.883 Y48.831 E62.95295
G1 X72.845 Y48.339 E62.97191
G1 X72.845 Y16.654 E64.1891
G1 X72.884 Y16.139 E64.20894
M204 S3000
M205 X10 Y10
G1 F1800 E60.20894
;MESH:pantalla-lab.stl
G0 F1800 X74.01 Y16.34
G0 X79.44 Y17.45
G0 X79.741 Y18.254
M204 S1800
M205 X8 Y8
;TYPE:WALL-OUTER
G1 F1800 E64.20894
G1 F900 X79.265 Y18.03 E64.22915
G1 X78.748 Y17.953 E64.24923
G1 X78.226 Y18.031 E64.2695
G1 X77.754 Y18.256 E64.28959
G1 X77.369 Y18.606 E64.30958
G1 X77.099 Y19.058 E64.3298
G1 X76.973 Y19.562 E64.34976
G1 X76.998 Y20.086 E64.36991
G1 X77.176 Y20.578 E64.39001
G1 X77.489 Y21 E64.4102
G1 X77.91 Y21.311 E64.4303
G1 X78.403 Y21.486 E64.4504
G1 X78.923 Y21.511 E64.4704
G1 X79.431 Y21.385 E64.49051
G1 X79.881 Y21.112 E64.51073
G1 X80.233 Y20.724 E64.53085
G1 X80.454 Y20.254 E64.5508
G1 X80.531 Y19.737 E64.57088
G1 X80.454 Y19.219 E64.591
G1 X80.225 Y18.737 E64.6115
G1 X79.741 Y18.254 E64.63777
M204 S3000
M205 X10 Y10
G0 F1800 X79.561 Y18.169
G1 F1800 E60.63777
G0 F1800 X79.842 Y17.573
G0 X80.721 Y18.386
G0 X81.137 Y19.737
G0 X76.54 Y42.216
G0 X77.171 Y42.407
M204 S1800
M205 X8 Y8
G1 F1800 E64.63777
G1 F900 X76.973 Y43.062 E64.66405
G1 X76.998 Y43.589 E64.68432
G1 X77.176 Y44.082 E64.70446
G1 X77.489 Y44.504 E64.72464
G1 X77.91 Y44.815 E64.74475
G1 X78.403 Y44.991 E64.76486
G1 X78.923 Y45.016 E64.78486
G1 X79.434 Y44.887 E64.8051
G1 X79.879 Y44.62 E64.82504
G1 X80.233 Y44.229 E64.8453
G1 X80.455 Y43.756 E64.86537
G1 X80.531 Y43.241 E64.88537
G1 X80.453 Y42.72 E64.90561
G1 X80.228 Y42.249 E64.92566
G1 X79.879 Y41.862 E64.94568
G1 X79.427 Y41.592 E64.96591
G1 X78.919 Y41.466 E64.98601
G1 X78.4 Y41.492 E65.00598
G1 X77.907 Y41.668 E65.02609
G1 X77.487 Y41.98 E65.04618
G1 X77.171 Y42.407 E65.06659
M204 S3000
M205 X10 Y10
G0 F1800 X77.114 Y42.598
G1 F1800 E61.06659
G0 F1800 X76.483 Y42.407
G0 X77.058 Y41.552
G0 X78.282 Y40.898
G0 X131.483 Y40.863
G0 X132.765 Y41.392
G0 X133.661 Y42.857
G0 X133.001 Y42.887
M204 S1800
M205 X8 Y8
G1 F1800 E65.06659
G1 F900 X132.738 Y42.254 E65.09292
G1 X132.381 Y41.86 E65.11335
G1 X131.931 Y41.592 E65.13347
G1 X131.426 Y41.466 E65.15346
G1 X130.902 Y41.494 E65.17362
G1 X130.412 Y41.668 E65.1936
G1 X129.992 Y41.98 E65.2137
G1 X129.679 Y42.401 E65.23385
G1 X129.503 Y42.897 E65.25407
G1 X129.477 Y43.419 E65.27414
G1 X129.605 Y43.924 E65.29416
G1 X129.874 Y44.373 E65.31427
G1 X130.262 Y44.724 E65.33436
G1 X130.735 Y44.948 E65.35447
G1 X131.255 Y45.025 E65.37466
G1 X131.774 Y44.947 E65.39482
G1 X132.246 Y44.722 E65.41491
G1 X132.633 Y44.37 E65.43501
G1 X132.901 Y43.919 E65.45516
G1 X133.027 Y43.413 E65.47519
G1 X133.001 Y42.887 E65.49542
M204 S3000
M205 X10 Y10
G0 F1800 X132.925 Y42.703
G1 F1800 E61.49542
G0 F1800 X133.534 Y42.45
G0 X128.896 Y20.348
G0 X129.505 Y20.095
M204 S1800
M205 X8 Y8
G1 F1800 E65.49542
G1 F900 X129.767 Y20.724 E65.5216
G1 X130.121 Y21.115 E65.54186
G1 X130.573 Y21.386 E65.56211
G1 X131.078 Y21.511 E65.58209
G1 X131.603 Y21.485 E65.60229
G1 X132.097 Y21.307 E65.62246
G1 X132.516 Y20.996 E65.6425
G1 X132.825 Y20.577 E65.6625
G1 X133.002 Y20.081 E65.68273
G1 X133.027 Y19.559 E65.70281
G1 X132.898 Y19.051 E65.72294
G1 X132.631 Y18.605 E65.74291
G1 X132.24 Y18.251 E65.76317
G1 X131.767 Y18.029 E65.78325
G1 X131.252 Y17.953 E65.80325
G1 X130.734 Y18.03 E65.82336
G1 X130.259 Y18.256 E65.84357
G1 X129.874 Y18.605 E65.86353
G1 X129.604 Y19.055 E65.88369
G1 X129.477 Y19.566 E65.90392
G1 X129.505 Y20.095 E65.92427
M204 S3000
M205 X10 Y10
G0 F1800 X129.581 Y20.279
G1 F1800 E61.92427
G0 F1800 X128.972 Y20.531
G0 X128.874 Y19.509
G0 X129.406 Y18.221
G0 X130.436 Y17.509
G0 X135.622 Y15.994
G0 X135.915 Y15.399
M204 S1800
M205 X8 Y8
G1 F1800 E65.92427
G1 F900 X136.14 Y15.542 E65.93451
G1 X136.327 Y15.731 E65.94473
G1 X136.473 Y15.963 E65.95526
G1 X136.561 Y16.216 E65.96555
G1 X136.595 Y16.661 E65.98269
G1 X136.595 Y48.325 E67.19908
G1 X136.557 Y48.769 E67.2162
G1 X136.466 Y49.023 E67.22656
G1 X136.326 Y49.248 E67.23674
G1 X136.134 Y49.441 E67.2472
G1 X135.903 Y49.586 E67.25768
G1 X135.646 Y49.677 E67.26815
G1 X135.361 Y49.709 E67.27917
G1 X74.639 Y49.709 E69.61183
G1 X74.358 Y49.677 E69.6227
G1 X74.088 Y49.58 E69.63372
G1 X73.859 Y49.434 E69.64415
G1 X73.668 Y49.239 E69.65464
G1 X73.528 Y49.015 E69.66478
G1 X73.438 Y48.751 E69.6755
G1 X73.405 Y48.329 E69.69176
G1 X73.405 Y16.661 E70.9083
G1 X73.439 Y16.219 E70.92533
G1 X73.535 Y15.95 E70.9363
G1 X73.67 Y15.734 E70.94609
G1 X73.876 Y15.529 E70.95725
G1 X74.094 Y15.393 E70.96712
G1 X74.354 Y15.301 E70.97772
G1 X74.639 Y15.269 E70.98873
G1 X135.361 Y15.269 E73.3214
G1 X135.642 Y15.301 E73.33226
G1 X135.915 Y15.399 E73.3434
M204 S3000
M205 X10 Y10
G0 F1800 X136.084 Y15.506
G0 X135.666 Y15.905
M204 S1800
M205 X8 Y8
;TYPE:WALL-INNER
G1 F900 X135.787 Y15.981 E73.34889
G1 X135.886 Y16.082 E73.35433
G1 X135.965 Y16.206 E73.35997
G1 X136.009 Y16.333 E73.36514
G1 X136.035 Y16.678 E73.37843
G1 X136.035 Y48.3 E74.5932
G1 X136.005 Y48.649 E74.60666
G1 X135.959 Y48.779 E74.61196
G1 X135.885 Y48.897 E74.61731
G1 X135.782 Y49.001 E74.62293
G1 X135.659 Y49.078 E74.6285
G1 X135.521 Y49.127 E74.63413
G1 X135.326 Y49.149 E74.64167
G1 X74.667 Y49.149 E76.97191
G1 X74.487 Y49.129 E76.97887
G1 X74.336 Y49.074 E76.98504
G1 X74.215 Y48.997 E76.99055
