;FLAVOR:Marlin
;TIME:14729
;Filament used: 28.9182m
;Layer height: 0.3
;MINX:29.603
;MINY:11.084
;MINZ:0.15
;MAXX:169.985
;MAXY:79.516
;MAXZ:39.75
;Generated with Cura_SteamEngine 4.5.0
M140 S60
M105
M190 S60
M104 S200
M105
M109 S200
M82 ;absolute extrusion mode
G21 ;metric values
G90 ;absolute positioning
M82 ;set extruder to absolute mode
M107 ;start with the fan off
G28 X0 Y0 ;move X/Y to min endstops
G28 Z0 ;move Z to min endstops
G1 Z15.0 F100 ;move the platform down 15mm
G92 E0 ;zero the extruded length
G1 F200 E3 ;extrude 3mm of feed stock
G92 E0 ;zero the extruded length again
G1 F100
G0 Y20 F100
M117 Printing...
G5
G92 E0
G92 E0
G1 F2400 E-6
;LAYER_COUNT:133
;LAYER:0
M106 S255
M204 S3000
M205 X10 Y10
G1 F600 Z0.225
G0 F1800 X101.625 Y14.707 Z0.225
M204 S1800
M205 X8 Y8
;TYPE:SKIRT
G1 F600 Z0.15
G1 F2400 E0
G1 X101.744 Y14.14 E0.02226
G1 X101.94 Y13.595 E0.04451
G1 X102.209 Y13.082 E0.06676
G1 X102.546 Y12.61 E0.08904
G1 X102.945 Y12.19 E0.11129
G1 X103.397 Y11.829 E0.13351
G1 X103.896 Y11.533 E0.1558
G1 X104.43 Y11.309 E0.17805
G1 X104.99 Y11.16 E0.20031
G1 X105.785 Y11.084 E0.23099
G1 X165.785 Y11.084 E2.53592
G1 X166.363 Y11.124 E2.55817
G1 X166.93 Y11.243 E2.58043
G1 X167.475 Y11.439 E2.60268
G1 X167.988 Y11.708 E2.62493
G1 X168.459 Y12.045 E2.64718
G1 X168.879 Y12.444 E2.66943
G1 X169.241 Y12.897 E2.69171
G1 X169.536 Y13.395 E2.71394
G1 X169.761 Y13.929 E2.7362
G1 X169.909 Y14.489 E2.75846
G1 X169.985 Y15.284 E2.78914
G1 X169.985 Y35.284 E3.55744
G1 X169.945 Y35.862 E3.5797
G1 X169.826 Y36.429 E3.60196
G1 X169.63 Y36.974 E3.62421
G1 X169.361 Y37.487 E3.64646
G1 X169.024 Y37.958 E3.66871
G1 X168.625 Y38.378 E3.69096
G1 X168.172 Y38.74 E3.71324
G1 X167.674 Y39.035 E3.73547
G1 X167.14 Y39.26 E3.75773
G1 X166.58 Y39.408 E3.77999
G1 X165.785 Y39.484 E3.81066
G1 X129.985 Y39.484 E5.18594
G1 X129.985 Y75.284 E6.56121
G1 X129.945 Y75.862 E6.58347
G1 X129.826 Y76.429 E6.60572
G1 X129.63 Y76.974 E6.62797
G1 X129.361 Y77.487 E6.65023
G1 X129.024 Y77.958 E6.67247
G1 X128.625 Y78.378 E6.69473
G1 X128.172 Y78.74 E6.717
G1 X127.674 Y79.035 E6.73924
G1 X127.14 Y79.26 E6.7615
G1 X126.58 Y79.408 E6.78375
G1 X125.785 Y79.484 E6.81443
G1 X105.794 Y79.484 E7.58239
G1 X105.216 Y79.444 E7.60465
G1 X104.649 Y79.325 E7.62691
G1 X104.104 Y79.129 E7.64916
G1 X103.591 Y78.86 E7.67141
G1 X103.12 Y78.523 E7.69366
G1 X102.7 Y78.124 E7.71591
G1 X102.338 Y77.671 E7.73819
G1 X102.043 Y77.173 E7.76042
G1 X101.818 Y76.639 E7.78268
G1 X101.67 Y76.079 E7.80494
G1 X101.594 Y75.285 E7.83558
G1 X101.585 Y15.285 E10.1405
G1 X101.625 Y14.707 E10.16276
M204 S3000
M205 X10 Y10
G0 F1800 X102.185 Y14.747
M204 S1800
M205 X8 Y8
G1 F2400 X102.304 Y14.221 E10.18348
G1 X102.499 Y13.718 E10.2042
G1 X102.766 Y13.25 E10.2249
G1 X103.1 Y12.826 E10.24564
G1 X103.493 Y12.456 E10.26637
G1 X103.936 Y12.149 E10.28708
G1 X104.419 Y11.91 E10.30778
G1 X104.933 Y11.745 E10.32852
G1 X105.465 Y11.658 E10.34923
G1 X165.785 Y11.644 E12.66645
G1 X166.323 Y11.684 E12.68717
G1 X166.849 Y11.803 E12.70789
G1 X167.351 Y11.998 E12.72858
G1 X167.82 Y12.266 E12.74933
G1 X168.243 Y12.599 E12.77001
G1 X168.613 Y12.992 E12.79074
G1 X168.92 Y13.435 E12.81145
G1 X169.159 Y13.919 E12.83218
G1 X169.324 Y14.432 E12.85289
G1 X169.411 Y14.964 E12.87359
G1 X169.425 Y35.284 E13.6542
G1 X169.385 Y35.822 E13.67492
G1 X169.266 Y36.348 E13.69564
G1 X169.071 Y36.85 E13.71633
G1 X168.803 Y37.319 E13.73708
G1 X168.47 Y37.742 E13.75776
G1 X168.077 Y38.112 E13.77849
G1 X167.634 Y38.419 E13.7992
G1 X167.15 Y38.658 E13.81994
G1 X166.637 Y38.823 E13.84064
G1 X166.105 Y38.91 E13.86135
G1 X129.425 Y38.924 E15.27042
G1 X129.425 Y75.284 E16.66721
G1 X129.385 Y75.822 E16.68793
G1 X129.266 Y76.348 E16.70865
G1 X129.071 Y76.85 E16.72934
G1 X128.803 Y77.319 E16.75009
G1 X128.47 Y77.742 E16.77077
G1 X128.077 Y78.112 E16.79151
G1 X127.634 Y78.419 E16.81221
G1 X127.15 Y78.658 E16.83295
G1 X126.637 Y78.823 E16.85365
G1 X126.105 Y78.91 E16.87436
G1 X105.794 Y78.924 E17.65462
G1 X105.256 Y78.884 E17.67534
G1 X104.73 Y78.765 E17.69606
G1 X104.228 Y78.57 E17.71675
G1 X103.759 Y78.302 E17.7375
G1 X103.336 Y77.969 E17.75818
G1 X102.966 Y77.576 E17.77891
G1 X102.659 Y77.133 E17.79962
G1 X102.42 Y76.649 E17.82035
G1 X102.255 Y76.136 E17.84106
G1 X102.168 Y75.604 E17.86176
G1 X102.145 Y15.285 E20.17895
G1 X102.185 Y14.747 E20.19967
M204 S3000
M205 X10 Y10
G0 F1800 X102.745 Y14.79
M204 S1800
M205 X8 Y8
G1 F2400 X102.864 Y14.309 E20.21871
G1 X103.058 Y13.852 E20.23778
G1 X103.323 Y13.433 E20.25682
G1 X103.652 Y13.062 E20.27587
G1 X104.037 Y12.748 E20.29496
G1 X104.466 Y12.501 E20.31397
G1 X104.93 Y12.325 E20.33304
G1 X105.416 Y12.226 E20.35209
G1 X165.785 Y12.204 E22.67119
G1 X166.761 Y12.363 E22.70918
G1 X167.217 Y12.557 E22.72822
G1 X167.636 Y12.822 E22.74726
G1 X168.007 Y13.152 E22.76634
G1 X168.321 Y13.536 E22.78539
G1 X168.569 Y13.966 E22.80446
G1 X168.744 Y14.429 E22.82348
G1 X168.843 Y14.916 E22.84257
G1 X168.865 Y35.284 E23.62501
G1 X168.825 Y35.778 E23.64405
G1 X168.706 Y36.26 E23.66313
G1 X168.512 Y36.716 E23.68216
G1 X168.247 Y37.135 E23.70121
G1 X167.917 Y37.506 E23.72028
G1 X167.533 Y37.82 E23.73934
G1 X167.103 Y38.068 E23.75841
G1 X166.64 Y38.243 E23.77742
G1 X166.153 Y38.342 E23.79651
G1 X128.865 Y38.364 E25.22895
G1 X128.865 Y75.284 E26.64725
G1 X128.825 Y75.778 E26.66629
G1 X128.706 Y76.26 E26.68536
G1 X128.512 Y76.716 E26.7044
G1 X128.247 Y77.135 E26.72344
G1 X127.917 Y77.506 E26.74251
G1 X127.533 Y77.82 E26.76157
G1 X127.103 Y78.068 E26.78064
G1 X126.64 Y78.243 E26.79965
G1 X126.153 Y78.342 E26.81874
G1 X105.794 Y78.364 E27.60085
G1 X105.3 Y78.324 E27.61988
G1 X104.818 Y78.205 E27.63896
G1 X104.362 Y78.011 E27.65799
G1 X103.943 Y77.746 E27.67704
G1 X103.572 Y77.416 E27.69611
G1 X103.258 Y77.032 E27.71517
G1 X103.01 Y76.602 E27.73424
G1 X102.835 Y76.139 E27.75325
G1 X102.736 Y75.652 E27.77234
G1 X102.705 Y15.284 E30.09141
G1 X102.745 Y14.79 E30.11045
M204 S3000
M205 X10 Y10
G0 F1800 X103.305 Y14.838
M204 S1800
M205 X8 Y8
G1 F2400 X103.423 Y14.405 E30.12769
G1 X103.617 Y14 E30.14494
G1 X103.879 Y13.636 E30.16217
G1 X104.201 Y13.324 E30.17939
G1 X104.573 Y13.074 E30.19661
G1 X104.984 Y12.895 E30.21383
G1 X105.421 Y12.79 E30.2311
G1 X105.785 Y12.764 E30.24512
G1 X165.785 Y12.764 E32.55004
G1 X166.664 Y12.922 E32.58435
G1 X167.069 Y13.116 E32.6016
G1 X167.433 Y13.378 E32.61883
G1 X167.745 Y13.7 E32.63605
G1 X167.995 Y14.073 E32.6533
G1 X168.175 Y14.484 E32.67054
G1 X168.279 Y14.92 E32.68776
G1 X168.305 Y15.284 E32.70178
G1 X168.305 Y35.284 E33.47009
G1 X168.265 Y35.731 E33.48733
G1 X168.147 Y36.163 E33.50453
G1 X167.953 Y36.568 E33.52178
G1 X167.691 Y36.932 E33.53901
G1 X167.369 Y37.244 E33.55624
G1 X166.996 Y37.494 E33.57349
G1 X166.585 Y37.674 E33.59072
G1 X166.149 Y37.778 E33.60794
G1 X165.785 Y37.804 E33.62196
G1 X128.305 Y37.804 E35.06177
G1 X128.305 Y75.284 E36.50158
G1 X128.265 Y75.731 E36.51882
G1 X128.147 Y76.163 E36.53603
G1 X127.953 Y76.568 E36.55328
G1 X127.691 Y76.932 E36.57051
G1 X127.369 Y77.244 E36.58773
G1 X126.996 Y77.494 E36.60498
G1 X126.585 Y77.674 E36.62222
G1 X126.149 Y77.778 E36.63944
G1 X125.785 Y77.804 E36.65345
G1 X105.794 Y77.804 E37.42142
G1 X105.347 Y77.764 E37.43866
G1 X104.915 Y77.646 E37.45586
G1 X104.51 Y77.452 E37.47311
G1 X104.146 Y77.19 E37.49034
G1 X103.834 Y76.868 E37.50757
G1 X103.584 Y76.495 E37.52482
G1 X103.404 Y76.084 E37.54205
G1 X103.3 Y75.648 E37.55927
G1 X103.274 Y75.284 E37.57329
G1 X103.265 Y15.284 E39.87822
G1 X103.305 Y14.838 E39.89542
M204 S3000
M205 X10 Y10
G0 F1800 X103.865 Y14.891
M204 S1800
M205 X8 Y8
G1 F2400 X103.983 Y14.513 E39.91063
G1 X104.174 Y14.167 E39.92581
G1 X104.431 Y13.867 E39.94099
G1 X104.743 Y13.624 E39.95618
G1 X105.098 Y13.448 E39.9714
G1 X105.48 Y13.348 E39.98657
G1 X165.785 Y13.324 E42.30322
G1 X166.556 Y13.482 E42.33345
G1 X166.902 Y13.673 E42.34863
G1 X167.203 Y13.93 E42.36384
G1 X167.445 Y14.243 E42.37904
G1 X167.621 Y14.597 E42.39422
G1 X167.721 Y14.98 E42.40943
G1 X167.745 Y35.284 E43.18942
G1 X167.705 Y35.677 E43.20459
G1 X167.587 Y36.055 E43.2198
G1 X167.396 Y36.401 E43.23499
G1 X167.139 Y36.702 E43.25019
G1 X166.826 Y36.944 E43.26539
G1 X166.472 Y37.12 E43.28058
G1 X166.089 Y37.22 E43.29578
G1 X127.745 Y37.244 E44.76879
G1 X127.745 Y75.284 E46.23011
G1 X127.705 Y75.677 E46.24529
G1 X127.587 Y76.055 E46.2605
G1 X127.396 Y76.401 E46.27568
G1 X127.139 Y76.702 E46.29088
G1 X126.826 Y76.944 E46.30608
G1 X126.472 Y77.12 E46.32127
G1 X126.089 Y77.22 E46.33648
G1 X105.794 Y77.244 E47.11612
G1 X105.401 Y77.204 E47.13129
G1 X105.023 Y77.086 E47.14651
G1 X104.677 Y76.895 E47.16169
G1 X104.376 Y76.638 E47.17689
G1 X104.134 Y76.325 E47.19209
G1 X103.958 Y75.971 E47.20728
G1 X103.858 Y75.588 E47.22249
G1 X103.825 Y15.284 E49.53909
G1 X103.865 Y14.891 E49.55427
M204 S3000
M205 X10 Y10
G0 F1800 X104.425 Y14.953
M204 S1800
M205 X8 Y8
G1 F2400 X104.542 Y14.64 E49.5671
G1 X104.73 Y14.364 E49.57993
G1 X104.978 Y14.14 E49.59277
G1 X105.272 Y13.981 E49.60561
G1 X105.785 Y13.884 E49.62567
G1 X165.785 Y13.884 E51.93059
G1 X166.429 Y14.041 E51.95606
G1 X166.706 Y14.229 E51.96892
G1 X166.929 Y14.477 E51.98173
G1 X167.088 Y14.771 E51.99457
G1 X167.185 Y15.284 E52.01463
G1 X167.185 Y35.284 E52.78294
G1 X167.145 Y35.616 E52.79578
G1 X167.028 Y35.928 E52.80858
G1 X166.84 Y36.205 E52.82144
G1 X166.592 Y36.428 E52.83426
G1 X166.298 Y36.587 E52.8471
G1 X165.785 Y36.684 E52.86715
G1 X127.185 Y36.684 E54.34999
G1 X127.185 Y75.284 E55.83282
G1 X127.145 Y75.616 E55.84567
G1 X127.028 Y75.928 E55.85847
G1 X126.84 Y76.205 E55.87133
G1 X126.592 Y76.428 E55.88414
G1 X126.298 Y76.587 E55.89698
G1 X125.785 Y76.684 E55.91704
G1 X105.794 Y76.684 E56.685
G1 X105.462 Y76.644 E56.69785
G1 X105.15 Y76.527 E56.71065
G1 X104.873 Y76.339 E56.72351
G1 X104.65 Y76.091 E56.73632
G1 X104.491 Y75.797 E56.74916
G1 X104.394 Y75.284 E56.76922
G1 X104.385 Y15.284 E59.07415
G1 X104.425 Y14.953 E59.08696
M204 S3000
M205 X10 Y10
G0 F1800 X104.945 Y15.284
M204 S1800
M205 X8 Y8
G1 F2400 X104.985 Y15.029 E59.09687
G1 X105.1 Y14.798 E59.10678
G1 X105.281 Y14.612 E59.11675
G1 X105.509 Y14.491 E59.12667
G1 X105.785 Y14.444 E59.13742
G1 X165.785 Y14.444 E61.44235
G1 X166.272 Y14.599 E61.46199
G1 X166.457 Y14.78 E61.47193
G1 X166.578 Y15.008 E61.48184
G1 X166.625 Y15.284 E61.4926
G1 X166.625 Y35.284 E62.26091
G1 X166.585 Y35.539 E62.27082
G1 X166.47 Y35.771 E62.28077
G1 X166.289 Y35.956 E62.29071
G1 X166.061 Y36.077 E62.30063
G1 X165.785 Y36.124 E62.31138
G1 X126.625 Y36.124 E63.81573
G1 X126.625 Y75.284 E65.32008
G1 X126.585 Y75.539 E65.33
G1 X126.47 Y75.771 E65.33995
G1 X126.289 Y75.956 E65.34989
G1 X126.061 Y76.077 E65.3598
G1 X125.785 Y76.124 E65.37056
G1 X105.794 Y76.124 E66.13852
G1 X105.539 Y76.084 E66.14844
G1 X105.307 Y75.969 E66.15839
G1 X105.122 Y75.788 E66.16833
G1 X105.001 Y75.56 E66.17824
G1 X104.954 Y75.284 E66.189
G1 X104.945 Y15.284 E68.49393
M204 S3000
M205 X10 Y10
G0 F1800 X105.505 Y15.284
M204 S1800
M205 X8 Y8
G1 F2400 X105.544 Y15.141 E68.49962
G1 X105.651 Y15.038 E68.50533
G1 X105.785 Y15.004 E68.51064
G1 X165.785 Y15.004 E70.81556
G1 X166.031 Y15.15 E70.82655
G1 X166.065 Y15.284 E70.83186
G1 X166.065 Y35.284 E71.60017
G1 X166.026 Y35.427 E71.60587
G1 X165.919 Y35.53 E71.61157
G1 X165.785 Y35.564 E71.61688
G1 X126.065 Y35.564 E73.14275
G1 X126.065 Y75.284 E74.66861
G1 X126.026 Y75.427 E74.6743
G1 X125.919 Y75.53 E74.68001
G1 X125.785 Y75.564 E74.68532
G1 X105.794 Y75.564 E75.45328
G1 X105.651 Y75.525 E75.45898
G1 X105.548 Y75.418 E75.46468
G1 X105.514 Y75.284 E75.46999
G1 X105.505 Y15.284 E77.77492
M204 S3000
M205 X10 Y10
G1 F2400 E71.77492
G0 F1800 X105.121 Y15.285
G0 X98.003 Y15.316
M204 S1800
M205 X8 Y8
G1 F2400 E77.77492
G1 X98.003 Y35.316 E78.54323
G1 X97.963 Y35.894 E78.56549
G1 X97.844 Y36.461 E78.58774
G1 X97.648 Y37.006 E78.60999
G1 X97.379 Y37.519 E78.63224
G1 X97.042 Y37.99 E78.65449
G1 X96.643 Y38.41 E78.67675
G1 X96.19 Y38.772 E78.69902
G1 X95.692 Y39.067 E78.72126
G1 X95.158 Y39.292 E78.74352
G1 X94.598 Y39.44 E78.76577
G1 X93.803 Y39.516 E78.79645
G1 X58.003 Y39.516 E80.17172
G1 X58.003 Y75.316 E81.54699
G1 X57.963 Y75.894 E81.56925
G1 X57.844 Y76.461 E81.59151
G1 X57.648 Y77.006 E81.61376
G1 X57.379 Y77.519 E81.63601
G1 X57.042 Y77.99 E81.65826
G1 X56.643 Y78.41 E81.68051
G1 X56.19 Y78.772 E81.70279
G1 X55.692 Y79.067 E81.72502
G1 X55.158 Y79.292 E81.74728
G1 X54.598 Y79.44 E81.76954
G1 X53.803 Y79.516 E81.80021
G1 X33.812 Y79.516 E82.56818
G1 X33.234 Y79.476 E82.59044
G1 X32.667 Y79.357 E82.61269
G1 X32.122 Y79.161 E82.63494
G1 X31.609 Y78.892 E82.65719
G1 X31.138 Y78.555 E82.67944
G1 X30.718 Y78.156 E82.7017
G1 X30.356 Y77.703 E82.72397
G1 X30.061 Y77.205 E82.74621
G1 X29.836 Y76.671 E82.76847
G1 X29.688 Y76.111 E82.79072
G1 X29.612 Y75.317 E82.82136
G1 X29.603 Y15.317 E85.12629
G1 X29.643 Y14.739 E85.14854
G1 X29.762 Y14.172 E85.1708
G1 X29.958 Y13.627 E85.19305
G1 X30.227 Y13.114 E85.2153
G1 X30.564 Y12.642 E85.23758
G1 X30.963 Y12.222 E85.25984
G1 X31.415 Y11.861 E85.28206
G1 X31.914 Y11.565 E85.30435
G1 X32.448 Y11.341 E85.32659
G1 X33.008 Y11.192 E85.34885
G1 X33.803 Y11.116 E85.37953
G1 X93.803 Y11.116 E87.68446
G1 X94.381 Y11.156 E87.70672
G1 X94.948 Y11.275 E87.72897
G1 X95.493 Y11.471 E87.75122
G1 X96.006 Y11.74 E87.77347
G1 X96.477 Y12.077 E87.79572
G1 X96.897 Y12.476 E87.81798
G1 X97.259 Y12.929 E87.84025
G1 X97.554 Y13.427 E87.86249
G1 X97.779 Y13.961 E87.88475
G1 X97.927 Y14.521 E87.907
G1 X98.003 Y15.316 E87.93768
M204 S3000
M205 X10 Y10
G0 F1800 X97.429 Y14.996
M204 S1800
M205 X8 Y8
G1 F2400 X97.443 Y35.316 E88.71828
G1 X97.403 Y35.854 E88.73901
G1 X97.284 Y36.38 E88.75972
G1 X97.089 Y36.882 E88.78041
G1 X96.821 Y37.351 E88.80116
G1 X96.488 Y37.774 E88.82184
G1 X96.095 Y38.144 E88.84258
G1 X95.652 Y38.451 E88.86328
G1 X95.168 Y38.69 E88.88402
G1 X94.655 Y38.855 E88.90472
G1 X94.123 Y38.942 E88.92543
G1 X57.443 Y38.956 E90.33451
G1 X57.443 Y75.316 E91.7313
G1 X57.403 Y75.854 E91.75202
G1 X57.284 Y76.38 E91.77274
G1 X57.089 Y76.882 E91.79343
G1 X56.821 Y77.351 E91.81418
G1 X56.488 Y77.774 E91.83486
G1 X56.095 Y78.144 E91.85559
G1 X55.652 Y78.451 E91.8763
G1 X55.168 Y78.69 E91.89704
G1 X54.655 Y78.855 E91.91774
G1 X54.123 Y78.942 E91.93845
G1 X33.812 Y78.956 E92.7187
G1 X33.274 Y78.916 E92.73943
G1 X32.748 Y78.797 E92.76014
G1 X32.246 Y78.602 E92.78083
G1 X31.777 Y78.334 E92.80158
G1 X31.354 Y78.001 E92.82226
G1 X30.984 Y77.608 E92.843
G1 X30.677 Y77.165 E92.8637
G1 X30.438 Y76.681 E92.88444
G1 X30.273 Y76.168 E92.90514
G1 X30.186 Y75.636 E92.92585
G1 X30.163 Y15.317 E95.24303
G1 X30.203 Y14.779 E95.26376
G1 X30.322 Y14.253 E95.28447
G1 X30.517 Y13.75 E95.3052
G1 X30.784 Y13.282 E95.3259
G1 X31.118 Y12.858 E95.34663
G1 X31.511 Y12.488 E95.36737
G1 X31.954 Y12.181 E95.38807
G1 X32.437 Y11.942 E95.40877
G1 X32.951 Y11.777 E95.42951
G1 X33.483 Y11.69 E95.45022
G1 X93.803 Y11.676 E97.76744
G1 X94.341 Y11.716 E97.78817
G1 X94.867 Y11.835 E97.80888
G1 X95.369 Y12.03 E97.82957
G1 X95.838 Y12.298 E97.85032
G1 X96.261 Y12.631 E97.871
G1 X96.631 Y13.024 E97.89174
G1 X96.938 Y13.467 E97.91244
G1 X97.177 Y13.951 E97.93318
G1 X97.342 Y14.464 E97.95388
G1 X97.429 Y14.996 E97.97459
M204 S3000
M205 X10 Y10
G0 F1800 X96.861 Y14.948
M204 S1800
M205 X8 Y8
G1 F2400 X96.883 Y35.316 E98.75704
G1 X96.843 Y35.81 E98.77608
G1 X96.724 Y36.292 E98.79515
G1 X96.53 Y36.748 E98.81418
G1 X96.265 Y37.167 E98.83323
G1 X95.935 Y37.538 E98.8523
G1 X95.551 Y37.852 E98.87136
G1 X95.121 Y38.1 E98.89043
G1 X94.658 Y38.275 E98.90944
G1 X94.171 Y38.374 E98.92853
G1 X56.883 Y38.396 E100.36097
G1 X56.883 Y75.316 E101.77927
G1 X56.843 Y75.81 E101.79831
G1 X56.724 Y76.292 E101.81738
G1 X56.53 Y76.748 E101.83642
G1 X56.265 Y77.167 E101.85546
G1 X55.935 Y77.538 E101.87454
G1 X55.551 Y77.852 E101.89359
G1 X55.121 Y78.1 E101.91266
G1 X54.658 Y78.275 E101.93168
G1 X54.171 Y78.374 E101.95077
G1 X33.812 Y78.396 E102.73287
G1 X33.318 Y78.356 E102.75191
G1 X32.836 Y78.237 E102.77098
G1 X32.38 Y78.043 E102.79002
G1 X31.961 Y77.778 E102.80906
G1 X31.59 Y77.448 E102.82814
G1 X31.276 Y77.064 E102.84719
G1 X31.028 Y76.634 E102.86626
G1 X30.853 Y76.171 E102.88527
