;FLAVOR:Marlin
;TIME:4607
;Filament used: 9.2295m
;Layer height: 0.3
;MINX:59.8
;MINY:9.177
;MINZ:0.15
;MAXX:150.2
;MAXY:95.593
;MAXZ:20.025
;Generated with Cura_SteamEngine 4.5.0
M140 S60
M105
M190 S60
M104 S200
M105
M109 S200
M82 ;absolute extrusion mode
G21 ;metric values
G90 ;absolute positioning
M82 ;set extruder to absolute mode
M107 ;start with the fan off
G28 X0 Y0 ;move X/Y to min endstops
G28 Z0 ;move Z to min endstops
G1 Z15.0 F100 ;move the platform down 15mm
G92 E0 ;zero the extruded length
G1 F200 E3 ;extrude 3mm of feed stock
G92 E0 ;zero the extruded length again
G1 F100
G0 Y20 F100
M117 Printing...
G5
G92 E0
G92 E0
G1 F2400 E-6
;LAYER_COUNT:67
;LAYER:0
M106 S255
M204 S3000
M205 X10 Y10
G1 F600 Z0.225
G0 F1800 X59.84 Y12.811 Z0.225
M204 S1800
M205 X8 Y8
;TYPE:SKIRT
G1 F600 Z0.15
G1 F2400 E0
G1 X59.959 Y12.244 E0.02226
G1 X60.155 Y11.699 E0.04451
G1 X60.424 Y11.186 E0.06676
G1 X60.761 Y10.715 E0.08901
G1 X61.16 Y10.295 E0.11126
G1 X61.613 Y9.933 E0.13354
G1 X62.111 Y9.638 E0.15577
G1 X62.645 Y9.413 E0.17803
G1 X63.205 Y9.265 E0.20028
G1 X63.999 Y9.189 E0.23092
G1 X145.999 Y9.177 E3.38099
G1 X146.577 Y9.217 E3.40325
G1 X147.144 Y9.336 E3.42551
G1 X147.689 Y9.532 E3.44775
G1 X148.202 Y9.801 E3.47001
G1 X148.674 Y10.138 E3.49229
G1 X149.094 Y10.537 E3.51454
G1 X149.455 Y10.989 E3.53676
G1 X149.751 Y11.488 E3.55905
G1 X149.975 Y12.022 E3.5813
G1 X150.124 Y12.582 E3.60356
G1 X150.2 Y13.377 E3.63424
G1 X150.2 Y33.377 E4.40255
G1 X150.16 Y33.955 E4.4248
G1 X150.041 Y34.522 E4.44706
G1 X149.845 Y35.067 E4.46931
G1 X149.576 Y35.58 E4.49156
G1 X149.239 Y36.051 E4.51381
G1 X148.84 Y36.471 E4.53606
G1 X148.387 Y36.833 E4.55834
G1 X147.889 Y37.128 E4.58058
G1 X147.355 Y37.353 E4.60284
G1 X146.795 Y37.501 E4.62509
G1 X146.238 Y37.554 E4.64658
G1 X77.392 Y52.187 E7.35041
G1 X145.691 Y52.177 E9.97415
G1 X146.577 Y52.217 E10.00822
G1 X147.144 Y52.336 E10.03048
G1 X147.689 Y52.532 E10.05272
G1 X148.202 Y52.801 E10.07498
G1 X148.674 Y53.138 E10.09726
G1 X149.094 Y53.537 E10.11951
G1 X149.455 Y53.989 E10.14173
G1 X149.751 Y54.488 E10.16402
G1 X149.975 Y55.022 E10.18627
G1 X150.124 Y55.582 E10.20853
G1 X150.2 Y56.377 E10.23921
G1 X150.2 Y76.377 E11.00752
G1 X150.16 Y76.955 E11.02977
G1 X150.041 Y77.522 E11.05203
G1 X149.845 Y78.067 E11.07428
G1 X149.576 Y78.58 E11.09653
G1 X149.239 Y79.051 E11.11878
G1 X148.84 Y79.471 E11.14103
G1 X148.387 Y79.833 E11.16331
G1 X147.889 Y80.128 E11.18555
G1 X147.355 Y80.353 E11.20781
G1 X146.795 Y80.501 E11.23006
G1 X146.238 Y80.554 E11.25155
G1 X75.875 Y95.51 E14.01496
G1 X75.302 Y95.591 E14.03719
G1 X74.722 Y95.593 E14.05948
G1 X74.148 Y95.514 E14.08173
G1 X73.591 Y95.358 E14.10396
G1 X73.06 Y95.126 E14.12622
G1 X72.566 Y94.823 E14.14848
G1 X72.118 Y94.455 E14.17075
G1 X71.725 Y94.03 E14.19299
G1 X71.395 Y93.554 E14.21524
G1 X71.133 Y93.037 E14.2375
G1 X70.945 Y92.489 E14.25976
G1 X70.834 Y91.92 E14.28203
G1 X70.802 Y91.402 E14.30197
G1 X70.802 Y88.337 E14.41971
G1 X70.842 Y87.759 E14.44197
G1 X70.961 Y87.192 E14.46422
G1 X71.157 Y86.647 E14.48647
G1 X71.426 Y86.134 E14.50872
G1 X71.763 Y85.663 E14.53097
G1 X72.162 Y85.243 E14.55323
G1 X72.615 Y84.881 E14.5755
G1 X73.113 Y84.586 E14.59774
G1 X73.647 Y84.361 E14.62
G1 X74.129 Y84.229 E14.6392
G1 X138.8 Y70.482 E17.17907
G1 X138.8 Y63.577 E17.44433
G1 X64 Y63.577 E20.31781
G1 X63.422 Y63.537 E20.34006
G1 X62.855 Y63.418 E20.36232
G1 X62.31 Y63.222 E20.38457
G1 X61.797 Y62.953 E20.40682
G1 X61.326 Y62.616 E20.42907
G1 X60.906 Y62.217 E20.45132
G1 X60.544 Y61.764 E20.4736
G1 X60.249 Y61.266 E20.49584
G1 X60.024 Y60.732 E20.5181
G1 X59.876 Y60.172 E20.54035
G1 X59.8 Y59.377 E20.57103
G1 X59.8 Y56.389 E20.68581
G1 X59.84 Y55.811 E20.70807
G1 X59.959 Y55.244 E20.73033
G1 X60.155 Y54.699 E20.75257
G1 X60.424 Y54.186 E20.77483
G1 X60.761 Y53.715 E20.79707
G1 X61.16 Y53.295 E20.81933
G1 X61.613 Y52.933 E20.84161
G1 X62.111 Y52.638 E20.86384
G1 X62.645 Y52.413 E20.8861
G1 X63.205 Y52.265 E20.90835
G1 X63.999 Y52.189 E20.93899
G1 X73.226 Y52.188 E21.29345
G1 X72.932 Y52.047 E21.30598
G1 X72.449 Y51.727 E21.32824
G1 X72.014 Y51.344 E21.3505
G1 X71.637 Y50.905 E21.37273
G1 X71.323 Y50.418 E21.39499
G1 X71.079 Y49.892 E21.41727
G1 X70.91 Y49.338 E21.43952
G1 X70.819 Y48.766 E21.46177
G1 X70.802 Y45.337 E21.59349
G1 X70.842 Y44.759 E21.61575
G1 X70.961 Y44.192 E21.63801
G1 X71.157 Y43.647 E21.66026
G1 X71.426 Y43.134 E21.68251
G1 X71.763 Y42.663 E21.70476
G1 X72.162 Y42.243 E21.72701
G1 X72.615 Y41.881 E21.74929
G1 X73.113 Y41.586 E21.77152
G1 X73.647 Y41.361 E21.79378
G1 X74.129 Y41.229 E21.81298
G1 X138.8 Y27.48 E24.35287
G1 X138.8 Y20.577 E24.61805
G1 X64 Y20.577 E27.49153
G1 X63.422 Y20.537 E27.51379
G1 X62.855 Y20.418 E27.53604
G1 X62.31 Y20.222 E27.55829
G1 X61.797 Y19.953 E27.58054
G1 X61.326 Y19.616 E27.60279
G1 X60.906 Y19.217 E27.62505
G1 X60.544 Y18.764 E27.64732
G1 X60.249 Y18.266 E27.66956
G1 X60.024 Y17.732 E27.69182
G1 X59.876 Y17.172 E27.71407
G1 X59.8 Y16.377 E27.74475
G1 X59.8 Y13.389 E27.85954
G1 X59.84 Y12.811 E27.88179
M204 S3000
M205 X10 Y10
G0 F1800 X60.4 Y12.851
M204 S1800
M205 X8 Y8
G1 F2400 X60.519 Y12.325 E27.90251
G1 X60.714 Y11.823 E27.9232
G1 X60.982 Y11.354 E27.94395
G1 X61.315 Y10.931 E27.96463
G1 X61.708 Y10.561 E27.98537
G1 X62.151 Y10.254 E28.00607
G1 X62.635 Y10.015 E28.02681
G1 X63.148 Y9.85 E28.04751
G1 X63.68 Y9.763 E28.06822
G1 X145.999 Y9.737 E31.23054
G1 X146.537 Y9.777 E31.25126
G1 X147.063 Y9.896 E31.27198
G1 X147.566 Y10.091 E31.29271
G1 X148.034 Y10.358 E31.3134
G1 X148.458 Y10.692 E31.33414
G1 X148.828 Y11.085 E31.35487
G1 X149.135 Y11.528 E31.37558
G1 X149.374 Y12.011 E31.39628
G1 X149.539 Y12.525 E31.41702
G1 X149.626 Y13.057 E31.43773
G1 X149.64 Y33.377 E32.21833
G1 X149.6 Y33.915 E32.23905
G1 X149.481 Y34.441 E32.25977
G1 X149.286 Y34.943 E32.28046
G1 X149.018 Y35.412 E32.30121
G1 X148.685 Y35.835 E32.32189
G1 X148.292 Y36.205 E32.34263
G1 X147.849 Y36.512 E32.36333
G1 X147.365 Y36.751 E32.38407
G1 X146.852 Y36.916 E32.40477
G1 X146.32 Y37.003 E32.42548
G1 X146.09 Y37.013 E32.43432
G1 X76.025 Y51.905 E35.18603
G1 X75.099 Y52.031 E35.22193
G1 X74.56 Y52.005 E35.24266
G1 X74.031 Y51.9 E35.26338
G1 X73.524 Y51.718 E35.28407
G1 X73.048 Y51.463 E35.30481
G1 X72.616 Y51.141 E35.32551
G1 X72.236 Y50.758 E35.34624
G1 X71.917 Y50.324 E35.36693
G1 X71.665 Y49.847 E35.38765
G1 X71.487 Y49.338 E35.40837
G1 X71.386 Y48.808 E35.42909
G1 X71.362 Y45.337 E35.56244
G1 X71.402 Y44.799 E35.58316
G1 X71.521 Y44.273 E35.60388
G1 X71.716 Y43.771 E35.62457
G1 X71.984 Y43.302 E35.64532
G1 X72.317 Y42.879 E35.666
G1 X72.71 Y42.509 E35.68674
G1 X73.153 Y42.202 E35.70744
G1 X73.637 Y41.963 E35.72818
G1 X74.245 Y41.777 E35.7526
G1 X139.36 Y27.934 E38.30993
G1 X139.36 Y20.017 E38.61406
G1 X64 Y20.017 E41.50905
G1 X63.462 Y19.977 E41.52977
G1 X62.936 Y19.858 E41.55049
G1 X62.434 Y19.663 E41.57118
G1 X61.965 Y19.395 E41.59193
G1 X61.542 Y19.062 E41.61261
G1 X61.172 Y18.669 E41.63335
G1 X60.865 Y18.226 E41.65405
G1 X60.626 Y17.742 E41.67479
G1 X60.461 Y17.229 E41.69549
G1 X60.374 Y16.697 E41.7162
G1 X60.36 Y13.389 E41.84328
G1 X60.4 Y12.851 E41.864
M204 S3000
M205 X10 Y10
G0 F1800 X60.96 Y12.895
M204 S1800
M205 X8 Y8
G1 F2400 X61.079 Y12.413 E41.88308
G1 X61.273 Y11.957 E41.90211
G1 X61.538 Y11.538 E41.92116
G1 X61.868 Y11.167 E41.94023
G1 X62.252 Y10.853 E41.95929
G1 X62.682 Y10.605 E41.97836
G1 X63.145 Y10.43 E41.99737
G1 X63.632 Y10.331 E42.01646
G1 X146 Y10.297 E45.18067
G1 X146.975 Y10.456 E45.21862
G1 X147.432 Y10.65 E45.23769
G1 X147.851 Y10.915 E45.25673
G1 X148.222 Y11.244 E45.27578
G1 X148.536 Y11.629 E45.29487
G1 X148.783 Y12.058 E45.31388
G1 X148.959 Y12.522 E45.33295
G1 X149.058 Y13.008 E45.352
G1 X149.08 Y33.377 E46.13449
G1 X149.04 Y33.871 E46.15353
G1 X148.921 Y34.353 E46.1726
G1 X148.727 Y34.809 E46.19163
G1 X148.462 Y35.228 E46.21068
G1 X148.132 Y35.599 E46.22975
G1 X147.748 Y35.913 E46.24881
G1 X147.318 Y36.161 E46.26788
G1 X146.855 Y36.336 E46.28689
G1 X146.368 Y36.435 E46.30598
G1 X146.022 Y36.456 E46.3193
G1 X75.908 Y51.358 E49.07293
G1 X75.044 Y51.472 E49.1064
G1 X74.549 Y51.439 E49.12546
G1 X74.066 Y51.326 E49.14452
G1 X73.607 Y51.138 E49.16357
G1 X73.185 Y50.879 E49.18259
G1 X72.809 Y50.555 E49.20166
G1 X72.49 Y50.175 E49.22072
G1 X72.237 Y49.748 E49.23979
G1 X72.055 Y49.287 E49.25883
G1 X71.949 Y48.802 E49.2779
G1 X71.922 Y45.337 E49.41101
G1 X71.962 Y44.843 E49.43005
G1 X72.081 Y44.361 E49.44912
G1 X72.275 Y43.905 E49.46816
G1 X72.54 Y43.486 E49.4872
G1 X72.87 Y43.115 E49.50628
G1 X73.254 Y42.801 E49.52533
G1 X73.684 Y42.553 E49.5444
G1 X74.362 Y42.324 E49.5719
G1 X139.92 Y28.387 E52.14662
G1 X139.92 Y19.457 E52.48967
G1 X64 Y19.457 E55.40617
G1 X63.506 Y19.417 E55.42521
G1 X63.024 Y19.298 E55.44428
G1 X62.568 Y19.104 E55.46332
G1 X62.149 Y18.839 E55.48236
G1 X61.778 Y18.509 E55.50144
G1 X61.464 Y18.125 E55.52049
G1 X61.216 Y17.695 E55.53956
G1 X61.041 Y17.232 E55.55858
G1 X60.942 Y16.745 E55.57767
G1 X60.92 Y13.389 E55.70659
G1 X60.96 Y12.895 E55.72563
M204 S3000
M205 X10 Y10
G0 F1800 X61.52 Y12.942
M204 S1800
M205 X8 Y8
G1 F2400 X61.638 Y12.51 E55.74283
G1 X61.832 Y12.105 E55.76009
G1 X62.094 Y11.741 E55.77731
G1 X62.416 Y11.429 E55.79454
G1 X62.789 Y11.179 E55.81179
G1 X63.2 Y10.999 E55.82902
G1 X63.636 Y10.895 E55.84624
G1 X64 Y10.869 E55.86026
G1 X146 Y10.857 E59.01033
G1 X146.879 Y11.015 E59.04464
G1 X147.284 Y11.209 E59.06189
G1 X147.648 Y11.471 E59.07912
G1 X147.96 Y11.793 E59.09634
G1 X148.21 Y12.165 E59.11356
G1 X148.389 Y12.576 E59.13078
G1 X148.494 Y13.013 E59.14805
G1 X148.52 Y13.377 E59.16207
G1 X148.52 Y33.377 E59.93037
G1 X148.48 Y33.824 E59.94761
G1 X148.362 Y34.256 E59.96482
G1 X148.168 Y34.661 E59.98207
G1 X147.906 Y35.025 E59.9993
G1 X147.584 Y35.337 E60.01652
G1 X147.211 Y35.587 E60.03377
G1 X146.8 Y35.767 E60.05101
G1 X146.364 Y35.871 E60.06823
G1 X145.956 Y35.897 E60.08393
G1 X75.792 Y50.81 E62.83952
G1 X74.994 Y50.912 E62.87043
G1 X74.547 Y50.871 E62.88767
G1 X74.115 Y50.751 E62.9049
G1 X73.711 Y50.556 E62.92213
G1 X73.347 Y50.293 E62.93938
G1 X73.037 Y49.969 E62.95661
G1 X72.788 Y49.596 E62.97384
G1 X72.61 Y49.184 E62.99108
G1 X72.507 Y48.748 E63.00829
G1 X72.482 Y45.337 E63.13933
G1 X72.522 Y44.89 E63.15657
G1 X72.64 Y44.458 E63.17377
G1 X72.834 Y44.053 E63.19102
G1 X73.096 Y43.689 E63.20825
G1 X73.418 Y43.377 E63.22547
G1 X73.791 Y43.127 E63.24272
G1 X74.202 Y42.947 E63.25996
G1 X140.48 Y28.84 E65.86309
G1 X140.48 Y18.897 E66.24506
G1 X64 Y18.897 E69.18307
G1 X63.553 Y18.857 E69.20031
G1 X63.121 Y18.739 E69.21752
G1 X62.716 Y18.545 E69.23477
G1 X62.352 Y18.283 E69.252
G1 X62.04 Y17.961 E69.26922
G1 X61.79 Y17.588 E69.28647
G1 X61.61 Y17.177 E69.30371
G1 X61.506 Y16.741 E69.32093
G1 X61.48 Y13.389 E69.4497
G1 X61.52 Y12.942 E69.46694
M204 S3000
M205 X10 Y10
G0 F1800 X62.08 Y12.996
M204 S1800
M205 X8 Y8
G1 F2400 X62.198 Y12.618 E69.48215
G1 X62.389 Y12.272 E69.49733
G1 X62.646 Y11.971 E69.51254
G1 X62.959 Y11.729 E69.52774
G1 X63.313 Y11.553 E69.54292
G1 X63.696 Y11.453 E69.55813
G1 X146 Y11.417 E72.71988
G1 X146.771 Y11.575 E72.75011
G1 X147.117 Y11.766 E72.76529
G1 X147.417 Y12.023 E72.78047
G1 X147.66 Y12.335 E72.79566
G1 X147.836 Y12.69 E72.81088
G1 X147.936 Y13.072 E72.82605
G1 X147.96 Y33.377 E73.60608
G1 X147.92 Y33.77 E73.62125
G1 X147.802 Y34.148 E73.63646
G1 X147.611 Y34.494 E73.65165
G1 X147.354 Y34.795 E73.66685
G1 X147.041 Y35.037 E73.68205
G1 X146.687 Y35.213 E73.69724
G1 X146.304 Y35.313 E73.71244
G1 X145.896 Y35.337 E73.72814
G1 X75.675 Y50.262 E76.48597
G1 X74.949 Y50.351 E76.51407
G1 X74.556 Y50.301 E76.52929
G1 X74.182 Y50.172 E76.54449
G1 X73.842 Y49.972 E76.55964
G1 X73.548 Y49.706 E76.57487
G1 X73.314 Y49.388 E76.59004
G1 X73.148 Y49.029 E76.60523
G1 X73.058 Y48.644 E76.62042
G1 X73.042 Y45.337 E76.74746
G1 X73.082 Y44.944 E76.76264
G1 X73.2 Y44.566 E76.77785
G1 X73.391 Y44.22 E76.79303
G1 X73.648 Y43.919 E76.80824
G1 X73.961 Y43.677 E76.82344
G1 X74.315 Y43.501 E76.83862
G1 X141.04 Y29.294 E79.45935
G1 X141.04 Y18.337 E79.88027
G1 X64 Y18.337 E82.8398
G1 X63.607 Y18.297 E82.85497
G1 X63.229 Y18.179 E82.87019
G1 X62.883 Y17.988 E82.88537
G1 X62.582 Y17.731 E82.90057
G1 X62.34 Y17.418 E82.91577
G1 X62.164 Y17.064 E82.93096
G1 X62.064 Y16.681 E82.94617
G1 X62.04 Y13.389 E83.07263
G1 X62.08 Y12.996 E83.08781
M204 S3000
M205 X10 Y10
G0 F1800 X62.64 Y13.057
M204 S1800
M205 X8 Y8
G1 F2400 X62.757 Y12.745 E83.10061
G1 X62.945 Y12.468 E83.11347
G1 X63.193 Y12.245 E83.12628
G1 X63.487 Y12.086 E83.13912
G1 X64 Y11.989 E83.15918
G1 X146 Y11.977 E86.30924
G1 X146.644 Y12.134 E86.33471
G1 X146.92 Y12.322 E86.34754
G1 X147.144 Y12.57 E86.36038
G1 X147.303 Y12.864 E86.37322
G1 X147.4 Y13.377 E86.39327
G1 X147.4 Y33.377 E87.16158
G1 X147.36 Y33.709 E87.17443
G1 X147.243 Y34.021 E87.18723
G1 X147.055 Y34.298 E87.20009
G1 X146.807 Y34.521 E87.2129
G1 X146.513 Y34.68 E87.22574
G1 X146 Y34.777 E87.2458
G1 X145.836 Y34.777 E87.2521
G1 X75.559 Y49.714 E90.01213
G1 X74.912 Y49.789 E90.03715
G1 X74.584 Y49.728 E90.04996
G1 X74.279 Y49.591 E90.06281
G1 X74.016 Y49.385 E90.07564
G1 X73.808 Y49.123 E90.08849
G1 X73.669 Y48.82 E90.1013
G1 X73.602 Y48.392 E90.11794
G1 X73.602 Y45.337 E90.2353
G1 X73.642 Y45.005 E90.24815
G1 X73.759 Y44.693 E90.26095
G1 X73.947 Y44.416 E90.27381
G1 X74.195 Y44.193 E90.28662
G1 X74.489 Y44.034 E90.29946
G1 X141.6 Y29.748 E92.93532
G1 X141.6 Y17.777 E93.3952
G1 X64 Y17.777 E96.37624
G1 X63.668 Y17.737 E96.38908
G1 X63.356 Y17.62 E96.40188
G1 X63.079 Y17.432 E96.41474
G1 X62.856 Y17.184 E96.42756
G1 X62.697 Y16.89 E96.4404
G1 X62.6 Y16.377 E96.46045
G1 X62.6 Y13.389 E96.57524
G1 X62.64 Y13.057 E96.58808
M204 S3000
M205 X10 Y10
G0 F1800 X63.16 Y13.389
M204 S1800
M205 X8 Y8
G1 F2400 X63.2 Y13.134 E96.598
G1 X63.315 Y12.902 E96.60795
G1 X63.496 Y12.717 E96.61789
G1 X63.724 Y12.596 E96.6278
G1 X64 Y12.549 E96.63856
G1 X146 Y12.537 E99.78863
G1 X146.486 Y12.692 E99.80822
G1 X146.672 Y12.873 E99.81819
G1 X146.793 Y13.101 E99.82811
G1 X146.84 Y13.377 E99.83886
G1 X146.84 Y33.377 E100.60717
G1 X146.8 Y33.632 E100.61709
G1 X146.685 Y33.864 E100.62704
G1 X146.504 Y34.049 E100.63698
G1 X146.276 Y34.17 E100.64689
G1 X145.781 Y34.217 E100.666
G1 X75.443 Y49.167 E103.42842
G1 X74.89 Y49.224 E103.44978
G1 X74.642 Y49.151 E103.45971
G1 X74.428 Y49.006 E103.46964
G1 X74.269 Y48.802 E103.47958
G1 X74.179 Y48.56 E103.48949
G1 X74.162 Y45.337 E103.61331
G1 X74.202 Y45.082 E103.62322
G1 X74.317 Y44.85 E103.63317
G1 X74.498 Y44.665 E103.64311
G1 X74.827 Y44.515 E103.657
G1 X142.16 Y30.2 E106.30144
G1 X142.16 Y17.217 E106.80019
G1 X64 Y17.217 E109.80274
G1 X63.745 Y17.177 E109.81266
G1 X63.513 Y17.062 E109.82261
G1 X63.328 Y16.881 E109.83255
G1 X63.207 Y16.653 E109.84246
G1 X63.16 Y16.377 E109.85322
G1 X63.16 Y13.389 E109.968
M204 S3000
M205 X10 Y10
G0 F1800 X63.72 Y13.389
M204 S1800
M205 X8 Y8
G1 F2400 X63.759 Y13.246 E109.9737
G1 X63.866 Y13.143 E109.9794
G1 X64 Y13.109 E109.98471
G1 X146 Y13.097 E113.13478
G1 X146.246 Y13.243 E113.14577
G1 X146.28 Y13.377 E113.15108
G1 X146.28 Y33.377 E113.91939
G1 X146.241 Y33.52 E113.92509
G1 X146.134 Y33.623 E113.93079
G1 X145.721 Y33.657 E113.94671
G1 X75.326 Y48.619 E116.71137
G1 X75.051 Y48.668 E116.7221
G1 X74.903 Y48.654 E116.72782
G1 X74.783 Y48.567 E116.73351
G1 X74.722 Y48.392 E116.74063
G1 X74.722 Y45.337 E116.85799
G1 X74.761 Y45.194 E116.86368
G1 X74.944 Y45.063 E116.87233
G1 X142.72 Y30.654 E119.53416
G1 X142.72 Y16.657 E120.07186
G1 X64 Y16.657 E123.09593
G1 X63.857 Y16.618 E123.10162
G1 X63.754 Y16.511 E123.10733
G1 X63.72 Y16.377 E123.11264
G1 X63.72 Y13.389 E123.22742
M204 S3000
M205 X10 Y10
G1 F2400 E117.22742
G0 F1800 X63.335 Y13.389
G0 X63.68 Y52.763
M204 S1800
M205 X8 Y8
G1 F2400 E123.22742
G1 X145.691 Y52.737 E126.37791
G1 X145.999 Y52.737 E126.38975
G1 X146.537 Y52.777 E126.41047
G1 X147.063 Y52.896 E126.43119
G1 X147.566 Y53.091 E126.45191
G1 X148.034 Y53.358 E126.47261
G1 X148.458 Y53.692 E126.49335
G1 X148.828 Y54.085 E126.51408
G1 X149.135 Y54.528 E126.53479
G1 X149.374 Y55.011 E126.55549
G1 X149.539 Y55.525 E126.57623
G1 X149.626 Y56.057 E126.59693
G1 X149.64 Y76.377 E127.37754
