;FLAVOR:Marlin
;TIME:4180
;Filament used: 8.70801m
;Layer height: 0.3
;MINX:68.8
;MINY:11.761
;MINZ:0.15
;MAXX:141.2
;MAXY:85.161
;MAXZ:39.75
;Generated with Cura_SteamEngine 4.5.0
M140 S60
M105
M190 S60
M104 S200
M105
M109 S200
M82 ;absolute extrusion mode
G21 ;metric values
G90 ;absolute positioning
M82 ;set extruder to absolute mode
M107 ;start with the fan off
G28 X0 Y0 ;move X/Y to min endstops
G28 Z0 ;move Z to min endstops
G1 Z15.0 F100 ;move the platform down 15mm
G92 E0 ;zero the extruded length
G1 F200 E3 ;extrude 3mm of feed stock
G92 E0 ;zero the extruded length again
G1 F100
G0 Y20 F100
M117 Printing...
G5
G92 E0
G92 E0
G1 F2400 E-6
;LAYER_COUNT:133
;LAYER:0
M106 S255
M204 S3000
M205 X10 Y10
G1 F600 Z0.225
G0 F1800 X68.959 Y14.817 Z0.225
M204 S1800
M205 X8 Y8
;TYPE:SKIRT
G1 F600 Z0.15
G1 F2400 E0
G1 X69.155 Y14.272 E0.02225
G1 X69.424 Y13.759 E0.0445
G1 X69.761 Y13.287 E0.06678
G1 X70.16 Y12.867 E0.08904
G1 X70.612 Y12.506 E0.11126
G1 X71.11 Y12.21 E0.13351
G1 X71.645 Y11.986 E0.15579
G1 X72.204 Y11.837 E0.17802
G1 X73 Y11.761 E0.20874
G1 X75.993 Y11.761 E0.32371
G1 X76.571 Y11.801 E0.34597
G1 X77.138 Y11.92 E0.36823
G1 X77.683 Y12.116 E0.39048
G1 X78.196 Y12.385 E0.41273
G1 X78.667 Y12.722 E0.43498
G1 X79.087 Y13.121 E0.45723
G1 X79.449 Y13.574 E0.47951
G1 X79.744 Y14.072 E0.50174
G1 X79.969 Y14.606 E0.524
G1 X80.117 Y15.166 E0.54625
G1 X80.193 Y15.959 E0.57686
G1 X80.198 Y30.761 E1.14548
G1 X137 Y30.761 E3.32756
G1 X137.578 Y30.801 E3.34981
G1 X138.145 Y30.92 E3.37207
G1 X138.69 Y31.116 E3.39432
G1 X139.203 Y31.385 E3.41657
G1 X139.674 Y31.722 E3.43882
G1 X140.094 Y32.121 E3.46107
G1 X140.456 Y32.574 E3.48335
G1 X140.751 Y33.072 E3.50559
G1 X140.976 Y33.606 E3.52785
G1 X141.124 Y34.166 E3.5501
G1 X141.2 Y34.961 E3.58078
G1 X141.2 Y80.961 E5.34789
G1 X141.16 Y81.539 E5.37015
G1 X141.041 Y82.106 E5.3924
G1 X140.845 Y82.651 E5.41465
G1 X140.576 Y83.164 E5.4369
G1 X140.239 Y83.635 E5.45915
G1 X139.84 Y84.055 E5.48141
G1 X139.387 Y84.417 E5.50368
G1 X138.889 Y84.712 E5.52592
G1 X138.355 Y84.937 E5.54818
G1 X137.795 Y85.085 E5.57043
G1 X137 Y85.161 E5.60111
G1 X118 Y85.161 E6.331
G1 X117.422 Y85.121 E6.35326
G1 X116.855 Y85.002 E6.37552
G1 X116.31 Y84.806 E6.39776
G1 X115.797 Y84.537 E6.42002
G1 X115.326 Y84.2 E6.44226
G1 X114.906 Y83.801 E6.46452
G1 X114.544 Y83.348 E6.4868
G1 X114.249 Y82.85 E6.50903
G1 X114.024 Y82.316 E6.53129
G1 X113.876 Y81.756 E6.55354
G1 X113.8 Y80.961 E6.58422
G1 X113.8 Y75.861 E6.78014
G1 X113.84 Y75.283 E6.8024
G1 X113.959 Y74.716 E6.82465
G1 X114.155 Y74.171 E6.8469
G1 X114.424 Y73.658 E6.86916
G1 X114.761 Y73.187 E6.8914
G1 X115.16 Y72.767 E6.91366
G1 X115.613 Y72.405 E6.93593
G1 X116.111 Y72.11 E6.95817
G1 X116.645 Y71.885 E6.98043
G1 X117.205 Y71.737 E7.00268
G1 X117.997 Y71.661 E7.03325
G1 X129.8 Y71.653 E7.48666
G1 X129.8 Y42.161 E8.61961
G1 X80.2 Y42.161 E10.52502
G1 X80.2 Y55.961 E11.05515
G1 X80.16 Y56.539 E11.07741
G1 X80.041 Y57.106 E11.09967
G1 X79.845 Y57.651 E11.12191
G1 X79.576 Y58.164 E11.14417
G1 X79.239 Y58.635 E11.16642
G1 X78.84 Y59.055 E11.18867
G1 X78.387 Y59.417 E11.21095
G1 X77.889 Y59.712 E11.23318
G1 X77.355 Y59.937 E11.25544
G1 X76.795 Y60.085 E11.27769
G1 X76 Y60.161 E11.30837
G1 X73.007 Y60.161 E11.42335
G1 X72.429 Y60.121 E11.44561
G1 X71.862 Y60.002 E11.46786
G1 X71.317 Y59.806 E11.49011
G1 X70.804 Y59.537 E11.51236
G1 X70.333 Y59.2 E11.53461
G1 X69.913 Y58.801 E11.55687
G1 X69.551 Y58.348 E11.57914
G1 X69.256 Y57.85 E11.60138
G1 X69.031 Y57.316 E11.62364
G1 X68.883 Y56.756 E11.64589
G1 X68.807 Y55.962 E11.67653
G1 X68.8 Y16.038 E13.21023
G1 X68.84 Y15.384 E13.2354
G1 X68.959 Y14.817 E13.25766
M204 S3000
M205 X10 Y10
G0 F1800 X69.519 Y14.898
M204 S1800
M205 X8 Y8
G1 F2400 X69.714 Y14.395 E13.27838
G1 X69.981 Y13.927 E13.29908
G1 X70.315 Y13.503 E13.31981
G1 X70.708 Y13.134 E13.34052
G1 X71.15 Y12.826 E13.36122
G1 X71.634 Y12.587 E13.38196
G1 X72.147 Y12.422 E13.40266
G1 X72.68 Y12.335 E13.4234
G1 X75.993 Y12.321 E13.55068
G1 X76.531 Y12.361 E13.5714
G1 X77.057 Y12.48 E13.59212
G1 X77.559 Y12.675 E13.61281
G1 X78.028 Y12.943 E13.63356
G1 X78.451 Y13.276 E13.65424
G1 X78.821 Y13.669 E13.67497
G1 X79.128 Y14.112 E13.69568
G1 X79.367 Y14.596 E13.71641
G1 X79.532 Y15.109 E13.73712
G1 X79.619 Y15.641 E13.75782
G1 X79.639 Y31.321 E14.36018
G1 X137 Y31.321 E16.56373
G1 X137.538 Y31.361 E16.58445
G1 X138.064 Y31.48 E16.60517
G1 X138.566 Y31.675 E16.62586
G1 X139.035 Y31.943 E16.64661
G1 X139.458 Y32.276 E16.66729
G1 X139.828 Y32.669 E16.68803
G1 X140.135 Y33.112 E16.70873
G1 X140.374 Y33.596 E16.72947
G1 X140.539 Y34.109 E16.75017
G1 X140.626 Y34.641 E16.77088
G1 X140.64 Y80.961 E18.55028
G1 X140.6 Y81.499 E18.57101
G1 X140.481 Y82.025 E18.59172
G1 X140.286 Y82.527 E18.61241
G1 X140.018 Y82.996 E18.63316
G1 X139.685 Y83.419 E18.65384
G1 X139.292 Y83.789 E18.67458
G1 X138.849 Y84.096 E18.69528
G1 X138.365 Y84.335 E18.71602
G1 X137.852 Y84.5 E18.73672
G1 X137.32 Y84.587 E18.75743
G1 X118 Y84.601 E19.49962
G1 X117.462 Y84.561 E19.52034
G1 X116.936 Y84.442 E19.54106
G1 X116.434 Y84.247 E19.56175
G1 X115.965 Y83.979 E19.5825
G1 X115.542 Y83.646 E19.60318
G1 X115.172 Y83.253 E19.62391
G1 X114.865 Y82.81 E19.64462
G1 X114.626 Y82.326 E19.66536
G1 X114.461 Y81.813 E19.68606
G1 X114.374 Y81.281 E19.70677
G1 X114.36 Y75.861 E19.91498
G1 X114.4 Y75.323 E19.9357
G1 X114.519 Y74.797 E19.95642
G1 X114.714 Y74.295 E19.97711
G1 X114.982 Y73.826 E19.99786
G1 X115.315 Y73.403 E20.01854
G1 X115.708 Y73.033 E20.03927
G1 X116.151 Y72.726 E20.05998
G1 X116.635 Y72.487 E20.08072
G1 X117.148 Y72.322 E20.10142
G1 X117.68 Y72.235 E20.12213
G1 X130.36 Y72.213 E20.60923
G1 X130.36 Y41.601 E21.78521
G1 X79.64 Y41.601 E23.73364
G1 X79.64 Y55.961 E24.28529
G1 X79.6 Y56.499 E24.30601
G1 X79.481 Y57.025 E24.32673
G1 X79.286 Y57.527 E24.34742
G1 X79.018 Y57.996 E24.36817
G1 X78.685 Y58.419 E24.38885
G1 X78.292 Y58.789 E24.40958
G1 X77.849 Y59.096 E24.43029
G1 X77.365 Y59.335 E24.45103
G1 X76.852 Y59.5 E24.47173
G1 X76.32 Y59.587 E24.49244
G1 X73.007 Y59.601 E24.61971
G1 X72.469 Y59.561 E24.64043
G1 X71.943 Y59.442 E24.66115
G1 X71.441 Y59.247 E24.68184
G1 X70.972 Y58.979 E24.70259
G1 X70.549 Y58.646 E24.72327
G1 X70.179 Y58.253 E24.744
G1 X69.872 Y57.81 E24.76471
G1 X69.633 Y57.326 E24.78545
G1 X69.468 Y56.813 E24.80615
G1 X69.381 Y56.281 E24.82686
G1 X69.36 Y16.038 E26.37281
G1 X69.4 Y15.424 E26.39645
G1 X69.519 Y14.898 E26.41716
M204 S3000
M205 X10 Y10
G0 F1800 X70.079 Y14.986
M204 S1800
M205 X8 Y8
G1 F2400 X70.273 Y14.529 E26.43624
G1 X70.538 Y14.11 E26.45528
G1 X70.867 Y13.739 E26.47433
G1 X71.251 Y13.425 E26.49339
G1 X71.681 Y13.178 E26.51244
G1 X72.145 Y13.002 E26.5315
G1 X72.631 Y12.903 E26.55055
G1 X75.993 Y12.881 E26.67971
G1 X76.969 Y13.04 E26.7177
G1 X77.425 Y13.234 E26.73673
G1 X77.844 Y13.499 E26.75578
G1 X78.215 Y13.829 E26.77485
G1 X78.529 Y14.213 E26.79391
G1 X78.777 Y14.643 E26.81298
G1 X78.952 Y15.106 E26.83199
G1 X79.051 Y15.593 E26.85108
G1 X79.079 Y31.881 E27.47679
G1 X137 Y31.881 E29.70186
G1 X137.494 Y31.921 E29.72089
G1 X137.976 Y32.04 E29.73997
G1 X138.432 Y32.234 E29.759
G1 X138.851 Y32.499 E29.77805
G1 X139.222 Y32.829 E29.79712
G1 X139.536 Y33.213 E29.81618
G1 X139.784 Y33.643 E29.83525
G1 X139.959 Y34.106 E29.85426
G1 X140.058 Y34.593 E29.87335
G1 X140.08 Y80.961 E31.6546
G1 X140.04 Y81.455 E31.67364
G1 X139.921 Y81.937 E31.69271
G1 X139.727 Y82.393 E31.71175
G1 X139.462 Y82.812 E31.7308
G1 X139.132 Y83.183 E31.74987
G1 X138.748 Y83.497 E31.76893
G1 X138.318 Y83.745 E31.78799
G1 X137.855 Y83.92 E31.80701
G1 X137.368 Y84.019 E31.8261
G1 X118 Y84.041 E32.57013
G1 X117.506 Y84.001 E32.58917
G1 X117.024 Y83.882 E32.60824
G1 X116.568 Y83.688 E32.62728
G1 X116.149 Y83.423 E32.64632
G1 X115.778 Y83.093 E32.6654
G1 X115.464 Y82.709 E32.68445
G1 X115.216 Y82.279 E32.70352
G1 X115.041 Y81.816 E32.72254
G1 X114.942 Y81.329 E32.74163
G1 X114.92 Y75.861 E32.95169
G1 X114.96 Y75.367 E32.97073
G1 X115.079 Y74.885 E32.9898
G1 X115.273 Y74.429 E33.00883
G1 X115.538 Y74.01 E33.02788
G1 X115.868 Y73.639 E33.04695
G1 X116.252 Y73.325 E33.06601
G1 X116.682 Y73.077 E33.08508
G1 X117.145 Y72.902 E33.10409
G1 X117.632 Y72.803 E33.12318
G1 X130.92 Y72.772 E33.63365
G1 X130.92 Y41.041 E34.85261
G1 X79.08 Y41.041 E36.84407
G1 X79.08 Y55.961 E37.41723
G1 X79.04 Y56.455 E37.43627
G1 X78.921 Y56.937 E37.45534
G1 X78.727 Y57.393 E37.47437
G1 X78.462 Y57.812 E37.49342
G1 X78.132 Y58.183 E37.51249
G1 X77.748 Y58.497 E37.53155
G1 X77.318 Y58.745 E37.55062
G1 X76.855 Y58.92 E37.56963
G1 X76.368 Y59.019 E37.58872
G1 X73.007 Y59.041 E37.71784
G1 X72.513 Y59.001 E37.73688
G1 X72.031 Y58.882 E37.75595
G1 X71.575 Y58.688 E37.77499
G1 X71.156 Y58.423 E37.79404
G1 X70.785 Y58.093 E37.81311
G1 X70.471 Y57.709 E37.83217
G1 X70.223 Y57.279 E37.85123
G1 X70.048 Y56.816 E37.87025
G1 X69.949 Y56.329 E37.88934
G1 X69.92 Y16.038 E39.43714
G1 X69.96 Y15.467 E39.45913
G1 X70.079 Y14.986 E39.47816
M204 S3000
M205 X10 Y10
G0 F1800 X70.638 Y15.082
M204 S1800
M205 X8 Y8
G1 F2400 X70.832 Y14.677 E39.49541
G1 X71.093 Y14.313 E39.51262
G1 X71.416 Y14.001 E39.52987
G1 X71.788 Y13.751 E39.54709
G1 X72.199 Y13.572 E39.56431
G1 X72.636 Y13.467 E39.58157
G1 X75.993 Y13.441 E39.71054
G1 X76.872 Y13.599 E39.74485
G1 X77.277 Y13.793 E39.7621
G1 X77.641 Y14.055 E39.77933
G1 X77.953 Y14.377 E39.79655
G1 X78.203 Y14.75 E39.8138
G1 X78.383 Y15.161 E39.83104
G1 X78.487 Y15.597 E39.84826
G1 X78.513 Y15.96 E39.86224
G1 X78.519 Y32.441 E40.49536
G1 X137 Y32.441 E42.74194
G1 X137.447 Y32.481 E42.75918
G1 X137.879 Y32.599 E42.77638
G1 X138.284 Y32.793 E42.79363
G1 X138.648 Y33.055 E42.81086
G1 X138.96 Y33.377 E42.82808
G1 X139.21 Y33.75 E42.84533
G1 X139.39 Y34.161 E42.86257
G1 X139.494 Y34.597 E42.87979
G1 X139.52 Y34.961 E42.89381
G1 X139.52 Y80.961 E44.66092
G1 X139.48 Y81.408 E44.67816
G1 X139.362 Y81.84 E44.69536
G1 X139.168 Y82.245 E44.71261
G1 X138.906 Y82.609 E44.72984
G1 X138.584 Y82.921 E44.74707
G1 X138.211 Y83.171 E44.76432
G1 X137.8 Y83.351 E44.78155
G1 X137.364 Y83.455 E44.79877
G1 X137 Y83.481 E44.81279
G1 X118 Y83.481 E45.54269
G1 X117.553 Y83.441 E45.55993
G1 X117.121 Y83.323 E45.57713
G1 X116.716 Y83.129 E45.59438
G1 X116.352 Y82.867 E45.61161
G1 X116.04 Y82.545 E45.62883
G1 X115.79 Y82.172 E45.64608
G1 X115.61 Y81.761 E45.66332
G1 X115.506 Y81.325 E45.68054
G1 X115.48 Y75.861 E45.89044
G1 X115.52 Y75.414 E45.90768
G1 X115.638 Y74.982 E45.92489
G1 X115.832 Y74.577 E45.94214
G1 X116.094 Y74.213 E45.95937
G1 X116.416 Y73.901 E45.97659
G1 X116.789 Y73.651 E45.99384
G1 X117.2 Y73.471 E46.01108
G1 X117.636 Y73.367 E46.0283
G1 X117.998 Y73.341 E46.04224
G1 X131.48 Y73.332 E46.56015
G1 X131.48 Y40.481 E47.82214
G1 X78.52 Y40.481 E49.85662
G1 X78.52 Y55.961 E50.45129
G1 X78.48 Y56.408 E50.46854
G1 X78.362 Y56.84 E50.48574
G1 X78.168 Y57.245 E50.50299
G1 X77.906 Y57.609 E50.52022
G1 X77.584 Y57.921 E50.53744
G1 X77.211 Y58.171 E50.55469
G1 X76.8 Y58.351 E50.57193
G1 X76.364 Y58.455 E50.58915
G1 X73.007 Y58.481 E50.71811
G1 X72.56 Y58.441 E50.73535
G1 X72.128 Y58.323 E50.75256
G1 X71.723 Y58.129 E50.76981
G1 X71.359 Y57.867 E50.78704
G1 X71.047 Y57.545 E50.80426
G1 X70.797 Y57.172 E50.82151
G1 X70.617 Y56.761 E50.83875
G1 X70.513 Y56.325 E50.85597
G1 X70.487 Y55.961 E50.86998
G1 X70.48 Y16.037 E52.40368
G1 X70.52 Y15.515 E52.42379
G1 X70.638 Y15.082 E52.44104
M204 S3000
M205 X10 Y10
G0 F1800 X71.08 Y15.568
M204 S1800
M205 X8 Y8
G1 F2400 X71.198 Y15.19 E52.45625
G1 X71.389 Y14.844 E52.47143
G1 X71.646 Y14.544 E52.48661
G1 X71.958 Y14.301 E52.5018
G1 X72.313 Y14.125 E52.51702
G1 X72.695 Y14.025 E52.53219
G1 X75.993 Y14.001 E52.65889
G1 X76.764 Y14.159 E52.68912
G1 X77.11 Y14.35 E52.7043
G1 X77.411 Y14.607 E52.71951
G1 X77.653 Y14.92 E52.7347
G1 X77.829 Y15.274 E52.74989
G1 X77.929 Y15.657 E52.7651
G1 X77.959 Y33.001 E53.43138
G1 X137 Y33.001 E55.69946
G1 X137.393 Y33.041 E55.71464
G1 X137.771 Y33.159 E55.72985
G1 X138.117 Y33.35 E55.74503
G1 X138.418 Y33.607 E55.76024
G1 X138.66 Y33.92 E55.77544
G1 X138.836 Y34.274 E55.79062
G1 X138.936 Y34.657 E55.80583
G1 X138.96 Y80.961 E57.58462
G1 X138.92 Y81.354 E57.5998
G1 X138.802 Y81.732 E57.61501
G1 X138.611 Y82.078 E57.63019
G1 X138.354 Y82.379 E57.64539
G1 X138.041 Y82.621 E57.66059
G1 X137.687 Y82.797 E57.67578
G1 X137.304 Y82.897 E57.69099
G1 X118 Y82.921 E58.43256
G1 X117.607 Y82.881 E58.44773
G1 X117.229 Y82.763 E58.46295
G1 X116.883 Y82.572 E58.47813
G1 X116.582 Y82.315 E58.49333
G1 X116.34 Y82.002 E58.50853
G1 X116.164 Y81.648 E58.52372
G1 X116.064 Y81.265 E58.53893
G1 X116.04 Y75.861 E58.74652
G1 X116.08 Y75.468 E58.7617
G1 X116.198 Y75.09 E58.77691
G1 X116.389 Y74.744 E58.79209
G1 X116.646 Y74.443 E58.8073
G1 X116.959 Y74.201 E58.8225
G1 X117.313 Y74.025 E58.83769
G1 X117.696 Y73.925 E58.85289
G1 X132.04 Y73.891 E59.40392
G1 X132.04 Y39.921 E60.7089
G1 X77.96 Y39.921 E62.78641
G1 X77.96 Y55.961 E63.40259
G1 X77.92 Y56.354 E63.41776
G1 X77.802 Y56.732 E63.43298
G1 X77.611 Y57.078 E63.44816
G1 X77.354 Y57.379 E63.46336
G1 X77.041 Y57.621 E63.47856
G1 X76.687 Y57.797 E63.49375
G1 X76.304 Y57.897 E63.50896
G1 X73.007 Y57.921 E63.63561
G1 X72.614 Y57.881 E63.65079
G1 X72.236 Y57.763 E63.666
G1 X71.89 Y57.572 E63.68118
G1 X71.589 Y57.315 E63.69639
G1 X71.347 Y57.002 E63.71159
G1 X71.171 Y56.648 E63.72677
G1 X71.071 Y56.265 E63.74198
G1 X71.04 Y16.037 E65.28736
G1 X71.08 Y15.568 E65.30544
M204 S3000
M205 X10 Y10
G0 F1800 X71.64 Y15.63
M204 S1800
M205 X8 Y8
G1 F2400 X71.757 Y15.317 E65.31828
G1 X71.945 Y15.041 E65.33111
G1 X72.193 Y14.817 E65.34394
G1 X72.487 Y14.658 E65.35678
G1 X73 Y14.561 E65.37684
G1 X75.993 Y14.561 E65.49182
G1 X76.637 Y14.718 E65.51728
G1 X76.914 Y14.906 E65.53014
G1 X77.137 Y15.154 E65.54295
G1 X77.296 Y15.448 E65.55579
G1 X77.393 Y15.96 E65.57581
G1 X77.399 Y33.561 E66.25196
G1 X137 Y33.561 E68.54156
G1 X137.332 Y33.601 E68.55441
G1 X137.644 Y33.718 E68.56721
G1 X137.921 Y33.906 E68.58007
G1 X138.144 Y34.154 E68.59288
G1 X138.303 Y34.448 E68.60572
G1 X138.4 Y34.961 E68.62578
G1 X138.4 Y80.961 E70.39289
G1 X138.36 Y81.293 E70.40574
G1 X138.243 Y81.605 E70.41854
G1 X138.055 Y81.882 E70.4314
G1 X137.807 Y82.105 E70.44421
G1 X137.513 Y82.264 E70.45705
G1 X137 Y82.361 E70.47711
G1 X118 Y82.361 E71.207
G1 X117.668 Y82.321 E71.21985
G1 X117.356 Y82.204 E71.23265
G1 X117.079 Y82.016 E71.24551
G1 X116.856 Y81.768 E71.25832
G1 X116.697 Y81.474 E71.27116
G1 X116.6 Y80.961 E71.29122
G1 X116.6 Y75.861 E71.48713
G1 X116.64 Y75.529 E71.49998
G1 X116.757 Y75.217 E71.51278
G1 X116.945 Y74.94 E71.52564
G1 X117.193 Y74.717 E71.53845
G1 X117.487 Y74.558 E71.55129
G1 X117.999 Y74.461 E71.57131
G1 X132.6 Y74.451 E72.13222
G1 X132.6 Y39.361 E73.48021
G1 X77.4 Y39.361 E75.60075
G1 X77.4 Y55.961 E76.23844
G1 X77.36 Y56.293 E76.25129
G1 X77.243 Y56.605 E76.26409
G1 X77.055 Y56.882 E76.27695
G1 X76.807 Y57.105 E76.28976
G1 X76.513 Y57.264 E76.3026
G1 X76 Y57.361 E76.32266
G1 X73.007 Y57.361 E76.43764
G1 X72.675 Y57.321 E76.45048
G1 X72.363 Y57.204 E76.46328
G1 X72.086 Y57.016 E76.47615
G1 X71.863 Y56.768 E76.48896
G1 X71.704 Y56.474 E76.5018
G1 X71.607 Y55.961 E76.52185
G1 X71.6 Y16.037 E78.05555
G1 X71.64 Y15.63 E78.07126
M204 S3000
M205 X10 Y10
G0 F1800 X72.2 Y15.706
M204 S1800
M205 X8 Y8
G1 F2400 X72.315 Y15.475 E78.08118
G1 X72.496 Y15.289 E78.09115
G1 X72.724 Y15.168 E78.10106
G1 X73 Y15.121 E78.11182
G1 X75.993 Y15.121 E78.22679
G1 X76.48 Y15.276 E78.24643
G1 X76.665 Y15.457 E78.25637
G1 X76.786 Y15.685 E78.26629
G1 X76.833 Y15.961 E78.27704
G1 X76.84 Y34.121 E78.97467
G1 X137 Y34.121 E81.28574
G1 X137.255 Y34.161 E81.29566
G1 X137.487 Y34.276 E81.3056
G1 X137.672 Y34.457 E81.31554
G1 X137.793 Y34.685 E81.32546
G1 X137.84 Y34.961 E81.33622
G1 X137.84 Y80.961 E83.10333
G1 X137.8 Y81.216 E83.11324
G1 X137.685 Y81.448 E83.12319
G1 X137.504 Y81.633 E83.13313
G1 X137.276 Y81.754 E83.14305
G1 X137 Y81.801 E83.1538
G1 X118 Y81.801 E83.8837
G1 X117.745 Y81.761 E83.89361
G1 X117.513 Y81.646 E83.90356
G1 X117.328 Y81.465 E83.9135
G1 X117.207 Y81.237 E83.92342
G1 X117.16 Y80.961 E83.93417
G1 X117.16 Y75.861 E84.13009
G1 X117.2 Y75.606 E84.14001
