;FLAVOR:Marlin
;TIME:7512
;Filament used: 14.9152m
;Layer height: 0.3
;MINX:69.385
;MINY:8.727
;MINZ:0.15
;MAXX:140.623
;MAXY:89.416
;MAXZ:39.75
;Generated with Cura_SteamEngine 4.5.0
M140 S60
M105
M190 S60
M104 S200
M105
M109 S200
M82 ;absolute extrusion mode
G21 ;metric values
G90 ;absolute positioning
M82 ;set extruder to absolute mode
M107 ;start with the fan off
G28 X0 Y0 ;move X/Y to min endstops
G28 Z0 ;move Z to min endstops
G1 Z15.0 F100 ;move the platform down 15mm
G92 E0 ;zero the extruded length
G1 F200 E3 ;extrude 3mm of feed stock
G92 E0 ;zero the extruded length again
G1 F100
G0 Y20 F100
M117 Printing...
G5
G92 E0
G92 E0
G1 F2400 E-6
;LAYER_COUNT:133
;LAYER:0
M106 S255
M204 S3000
M205 X10 Y10
G1 F600 Z0.225
G0 F1800 X70.522 Y62.779 Z0.225
M204 S1800
M205 X8 Y8
;TYPE:SKIRT
G1 F600 Z0.15
G1 F2400 E0
G1 X70.948 Y62.387 E0.02224
G1 X71.424 Y62.056 E0.04451
G1 X71.941 Y61.794 E0.06678
G1 X72.703 Y61.555 E0.09746
G1 X112.223 Y53.152 E1.64957
G1 X112.223 Y12.927 E3.19484
G1 X112.263 Y12.349 E3.21709
G1 X112.382 Y11.782 E3.23935
G1 X112.578 Y11.237 E3.2616
G1 X112.847 Y10.724 E3.28385
G1 X113.184 Y10.253 E3.3061
G1 X113.583 Y9.833 E3.32835
G1 X114.036 Y9.471 E3.35063
G1 X114.534 Y9.176 E3.37286
G1 X115.068 Y8.951 E3.39512
G1 X115.628 Y8.803 E3.41738
G1 X116.423 Y8.727 E3.44806
G1 X136.414 Y8.727 E4.21602
G1 X136.992 Y8.767 E4.23828
G1 X137.559 Y8.886 E4.26053
G1 X138.104 Y9.082 E4.28278
G1 X138.617 Y9.351 E4.30503
G1 X139.088 Y9.688 E4.32728
G1 X139.508 Y10.087 E4.34954
G1 X139.87 Y10.54 E4.37181
G1 X140.165 Y11.038 E4.39405
G1 X140.39 Y11.572 E4.41631
G1 X140.538 Y12.132 E4.43856
G1 X140.614 Y12.926 E4.4692
G1 X140.623 Y72.926 E6.77413
G1 X140.583 Y73.504 E6.79639
G1 X140.464 Y74.071 E6.81864
G1 X140.268 Y74.616 E6.84089
G1 X139.999 Y75.129 E6.86314
G1 X139.662 Y75.601 E6.88542
G1 X139.263 Y76.021 E6.90768
G1 X138.811 Y76.382 E6.9299
G1 X138.312 Y76.678 E6.95219
G1 X137.778 Y76.902 E6.97443
G1 X137.218 Y77.051 E6.99669
G1 X136.423 Y77.127 E7.02737
G1 X136.036 Y77.127 E7.04224
G1 X78.608 Y89.333 E9.29764
G1 X78.035 Y89.414 E9.31987
G1 X77.455 Y89.416 E9.34216
G1 X76.881 Y89.337 E9.36441
G1 X76.324 Y89.181 E9.38663
G1 X75.793 Y88.949 E9.40889
G1 X75.299 Y88.646 E9.43116
G1 X74.851 Y88.278 E9.45343
G1 X74.458 Y87.853 E9.47567
G1 X74.128 Y87.377 E9.49792
G1 X73.866 Y86.86 E9.52018
G1 X73.627 Y86.098 E9.55086
G1 X69.468 Y66.536 E10.31914
G1 X69.387 Y65.963 E10.34137
G1 X69.385 Y65.384 E10.36361
G1 X69.464 Y64.81 E10.38587
G1 X69.62 Y64.252 E10.40813
G1 X69.852 Y63.721 E10.43039
G1 X70.155 Y63.227 E10.45265
G1 X70.522 Y62.779 E10.4749
M204 S3000
M205 X10 Y10
G0 F1800 X71.115 Y62.981
M204 S1800
M205 X8 Y8
G1 F2400 X71.539 Y62.647 E10.49564
G1 X72.007 Y62.379 E10.51635
G1 X72.509 Y62.183 E10.53706
G1 X112.783 Y53.606 E12.1189
G1 X112.783 Y12.927 E13.6816
G1 X112.823 Y12.389 E13.70232
G1 X112.942 Y11.863 E13.72304
G1 X113.137 Y11.361 E13.74373
G1 X113.405 Y10.892 E13.76448
G1 X113.738 Y10.469 E13.78516
G1 X114.131 Y10.099 E13.8059
G1 X114.574 Y9.792 E13.8266
G1 X115.058 Y9.553 E13.84734
G1 X115.571 Y9.388 E13.86804
G1 X116.103 Y9.301 E13.88875
G1 X136.414 Y9.287 E14.669
G1 X136.952 Y9.327 E14.68973
G1 X137.478 Y9.446 E14.71045
G1 X137.98 Y9.641 E14.73113
G1 X138.449 Y9.909 E14.75188
G1 X138.872 Y10.242 E14.77257
G1 X139.242 Y10.635 E14.7933
G1 X139.549 Y11.078 E14.81401
G1 X139.788 Y11.562 E14.83474
G1 X139.953 Y12.075 E14.85544
G1 X140.04 Y12.607 E14.87615
G1 X140.063 Y72.926 E17.19333
G1 X140.023 Y73.464 E17.21406
G1 X139.904 Y73.99 E17.23478
G1 X139.709 Y74.493 E17.2555
G1 X139.442 Y74.961 E17.2762
G1 X139.108 Y75.385 E17.29693
G1 X138.715 Y75.755 E17.31767
G1 X138.272 Y76.062 E17.33837
G1 X137.789 Y76.301 E17.35908
G1 X137.275 Y76.466 E17.37981
G1 X136.743 Y76.553 E17.40052
G1 X135.977 Y76.567 E17.42995
G1 X78.492 Y88.785 E19.68759
G1 X77.957 Y88.858 E19.70834
G1 X77.418 Y88.851 E19.72904
G1 X76.886 Y88.765 E19.74975
G1 X76.372 Y88.6 E19.77049
G1 X75.889 Y88.362 E19.79117
G1 X75.445 Y88.055 E19.81191
G1 X75.052 Y87.685 E19.83264
G1 X74.718 Y87.262 E19.85335
G1 X74.451 Y86.794 E19.87405
G1 X74.255 Y86.292 E19.89475
G1 X70.016 Y66.42 E20.67532
G1 X69.943 Y65.886 E20.69602
G1 X69.95 Y65.346 E20.71677
G1 X70.036 Y64.814 E20.73747
G1 X70.201 Y64.301 E20.75817
G1 X70.439 Y63.817 E20.77889
G1 X70.746 Y63.374 E20.79959
G1 X71.115 Y62.981 E20.8203
M204 S3000
M205 X10 Y10
G0 F1800 X71.339 Y63.546
M204 S1800
M205 X8 Y8
G1 F2400 X71.708 Y63.214 E20.83937
G1 X72.125 Y62.946 E20.85841
G1 X72.58 Y62.749 E20.87746
G1 X113.343 Y54.059 E22.47858
G1 X113.343 Y12.927 E24.05868
G1 X113.383 Y12.433 E24.07772
G1 X113.502 Y11.951 E24.09679
G1 X113.696 Y11.495 E24.11583
G1 X113.961 Y11.076 E24.13488
G1 X114.291 Y10.705 E24.15395
G1 X114.675 Y10.391 E24.17301
G1 X115.105 Y10.143 E24.19208
G1 X115.568 Y9.968 E24.21109
G1 X116.055 Y9.869 E24.23018
G1 X136.414 Y9.847 E25.01228
G1 X137.39 Y10.006 E25.05027
G1 X137.846 Y10.2 E25.06931
G1 X138.265 Y10.465 E25.08835
G1 X138.636 Y10.795 E25.10743
G1 X138.95 Y11.179 E25.12648
G1 X139.198 Y11.609 E25.14555
G1 X139.373 Y12.072 E25.16456
G1 X139.472 Y12.559 E25.18366
G1 X139.503 Y72.927 E27.50272
G1 X139.463 Y73.421 E27.52176
G1 X139.344 Y73.902 E27.54079
G1 X139.15 Y74.359 E27.55987
G1 X138.885 Y74.778 E27.57891
G1 X138.556 Y75.149 E27.59796
G1 X138.171 Y75.463 E27.61705
G1 X137.742 Y75.71 E27.63606
G1 X137.278 Y75.886 E27.65513
G1 X136.792 Y75.985 E27.67418
G1 X135.921 Y76.007 E27.70765
G1 X78.375 Y88.238 E29.96769
G1 X77.883 Y88.301 E29.98674
G1 X77.388 Y88.285 E30.00577
G1 X76.901 Y88.19 E30.02483
G1 X76.436 Y88.018 E30.04387
G1 X76.005 Y87.773 E30.06292
G1 X75.618 Y87.462 E30.08199
G1 X75.286 Y87.093 E30.10106
G1 X75.018 Y86.676 E30.1201
G1 X74.821 Y86.221 E30.13915
G1 X70.563 Y66.304 E30.92156
G1 X70.5 Y65.812 E30.94061
G1 X70.516 Y65.316 E30.95968
G1 X70.611 Y64.829 E30.97874
G1 X70.783 Y64.364 E30.99779
G1 X71.028 Y63.933 E31.01683
G1 X71.339 Y63.546 E31.0359
M204 S3000
M205 X10 Y10
G0 F1800 X71.619 Y64.075
M204 S1800
M205 X8 Y8
G1 F2400 X71.932 Y63.753 E31.05315
G1 X72.296 Y63.492 E31.07036
G1 X72.701 Y63.3 E31.08758
G1 X73.052 Y63.198 E31.10162
G1 X113.903 Y54.512 E32.70601
G1 X113.903 Y12.927 E34.30352
G1 X113.943 Y12.48 E34.32076
G1 X114.061 Y12.048 E34.33796
G1 X114.255 Y11.643 E34.35521
G1 X114.517 Y11.279 E34.37244
G1 X114.839 Y10.967 E34.38967
G1 X115.212 Y10.717 E34.40692
G1 X115.623 Y10.537 E34.42415
G1 X116.059 Y10.433 E34.44137
G1 X116.423 Y10.407 E34.45539
G1 X136.414 Y10.407 E35.22335
G1 X137.293 Y10.565 E35.25766
G1 X137.698 Y10.759 E35.27491
G1 X138.062 Y11.021 E35.29214
G1 X138.374 Y11.343 E35.30937
G1 X138.624 Y11.716 E35.32662
G1 X138.804 Y12.127 E35.34385
G1 X138.908 Y12.563 E35.36107
G1 X138.934 Y12.927 E35.37509
G1 X138.943 Y72.927 E37.68002
G1 X138.903 Y73.373 E37.69722
G1 X138.785 Y73.806 E37.71446
G1 X138.591 Y74.211 E37.73171
G1 X138.329 Y74.575 E37.74894
G1 X138.007 Y74.887 E37.76616
G1 X137.635 Y75.137 E37.78338
G1 X137.224 Y75.316 E37.8006
G1 X136.787 Y75.421 E37.81787
G1 X135.861 Y75.447 E37.85346
G1 X78.259 Y87.69 E40.11569
G1 X77.814 Y87.744 E40.13291
G1 X77.366 Y87.718 E40.15015
G1 X76.93 Y87.613 E40.16738
G1 X76.519 Y87.432 E40.18463
G1 X76.147 Y87.182 E40.20185
G1 X75.825 Y86.869 E40.2191
G1 X75.564 Y86.505 E40.23631
G1 X75.372 Y86.099 E40.25356
G1 X75.27 Y85.749 E40.26756
G1 X71.111 Y66.187 E41.03584
G1 X71.057 Y65.742 E41.05306
G1 X71.083 Y65.294 E41.0703
G1 X71.188 Y64.858 E41.08753
G1 X71.369 Y64.447 E41.10478
G1 X71.619 Y64.075 E41.122
M204 S3000
M205 X10 Y10
G0 F1800 X72.212 Y64.255
M204 S1800
M205 X8 Y8
G1 F2400 X72.522 Y64.01 E41.13718
G1 X72.876 Y63.832 E41.1524
G1 X114.463 Y54.966 E42.78589
G1 X114.463 Y12.927 E44.40083
G1 X114.503 Y12.534 E44.41601
G1 X114.621 Y12.156 E44.43122
G1 X114.812 Y11.81 E44.4464
G1 X115.069 Y11.509 E44.46161
G1 X115.382 Y11.267 E44.47681
G1 X115.736 Y11.091 E44.49199
G1 X116.119 Y10.991 E44.5072
G1 X136.414 Y10.967 E45.28684
G1 X137.185 Y11.125 E45.31708
G1 X137.531 Y11.316 E45.33226
G1 X137.832 Y11.573 E45.34746
G1 X138.074 Y11.886 E45.36266
G1 X138.25 Y12.24 E45.37785
G1 X138.35 Y12.623 E45.39306
G1 X138.383 Y72.927 E47.70966
G1 X138.343 Y73.32 E47.72484
G1 X138.225 Y73.698 E47.74005
G1 X138.034 Y74.044 E47.75523
G1 X137.777 Y74.344 E47.77041
G1 X137.465 Y74.587 E47.7856
G1 X137.11 Y74.763 E47.80082
G1 X136.728 Y74.863 E47.81599
G1 X135.801 Y74.887 E47.85161
G1 X78.142 Y87.142 E50.11609
G1 X77.749 Y87.185 E50.13128
G1 X77.356 Y87.148 E50.14644
G1 X76.977 Y87.033 E50.16165
G1 X76.63 Y86.844 E50.17683
G1 X76.327 Y86.589 E50.19205
G1 X76.082 Y86.279 E50.20723
G1 X75.904 Y85.925 E50.22245
G1 X71.659 Y66.071 E51.00239
G1 X71.616 Y65.677 E51.01761
G1 X71.653 Y65.284 E51.03278
G1 X71.768 Y64.905 E51.04799
G1 X71.957 Y64.558 E51.06317
G1 X72.212 Y64.255 E51.07838
M204 S3000
M205 X10 Y10
G0 F1800 X72.549 Y64.712
M204 S1800
M205 X8 Y8
G1 F2400 X72.804 Y64.495 E51.09125
G1 X73.285 Y64.294 E51.11127
G1 X115.023 Y55.42 E52.7505
G1 X115.023 Y12.927 E54.38288
G1 X115.063 Y12.595 E54.39573
G1 X115.18 Y12.283 E54.40853
G1 X115.368 Y12.006 E54.42139
G1 X115.616 Y11.783 E54.4342
G1 X115.91 Y11.624 E54.44704
G1 X116.423 Y11.527 E54.4671
G1 X136.414 Y11.527 E55.23506
G1 X137.058 Y11.684 E55.26053
G1 X137.335 Y11.872 E55.27339
G1 X137.558 Y12.12 E55.2862
G1 X137.717 Y12.414 E55.29904
G1 X137.814 Y12.927 E55.3191
G1 X137.823 Y72.927 E57.62402
G1 X137.783 Y73.258 E57.63683
G1 X137.666 Y73.571 E57.64967
G1 X137.478 Y73.847 E57.6625
G1 X137.23 Y74.071 E57.67534
G1 X136.936 Y74.23 E57.68818
G1 X136.423 Y74.327 E57.70823
G1 X135.741 Y74.327 E57.73443
G1 X78.026 Y86.594 E60.00111
G1 X77.693 Y86.624 E60.01395
G1 X77.363 Y86.575 E60.02677
G1 X77.054 Y86.448 E60.0396
G1 X76.783 Y86.252 E60.05245
G1 X76.567 Y85.997 E60.06529
G1 X76.366 Y85.516 E60.08531
G1 X72.207 Y65.954 E60.85359
G1 X72.177 Y65.621 E60.86644
G1 X72.226 Y65.291 E60.87925
G1 X72.353 Y64.982 E60.89209
G1 X72.549 Y64.712 E60.9049
M204 S3000
M205 X10 Y10
G0 F1800 X72.943 Y65.111
M204 S1800
M205 X8 Y8
G1 F2400 X73.141 Y64.945 E60.91483
G1 X73.401 Y64.841 E60.92559
G1 X115.583 Y55.872 E62.58225
G1 X115.583 Y12.927 E64.232
G1 X115.623 Y12.672 E64.24192
G1 X115.738 Y12.44 E64.25187
G1 X115.919 Y12.255 E64.26181
G1 X116.147 Y12.134 E64.27172
G1 X116.423 Y12.087 E64.28248
G1 X136.414 Y12.087 E65.05044
G1 X136.901 Y12.242 E65.07008
G1 X137.086 Y12.423 E65.08002
G1 X137.207 Y12.651 E65.08993
G1 X137.254 Y12.927 E65.10069
G1 X137.263 Y72.927 E67.40562
G1 X137.223 Y73.182 E67.41553
G1 X137.108 Y73.413 E67.42545
G1 X136.927 Y73.599 E67.43542
G1 X136.699 Y73.72 E67.44533
G1 X136.423 Y73.767 E67.45609
G1 X135.686 Y73.767 E67.4844
G1 X77.91 Y86.047 E69.75347
G1 X77.652 Y86.061 E69.7634
G1 X77.401 Y85.996 E69.77336
G1 X77.183 Y85.858 E69.78327
G1 X77.017 Y85.66 E69.79319
G1 X76.913 Y85.4 E69.80395
G1 X72.754 Y65.838 E70.57223
G1 X72.74 Y65.58 E70.58216
G1 X72.805 Y65.329 E70.59212
G1 X72.943 Y65.111 E70.60203
M204 S3000
M205 X10 Y10
G0 F1800 X73.394 Y65.45
M204 S1800
M205 X8 Y8
G1 F2400 X73.518 Y65.389 E70.60734
G1 X116.143 Y56.326 E72.2814
G1 X116.143 Y12.927 E73.94859
G1 X116.182 Y12.784 E73.95429
G1 X116.289 Y12.681 E73.95999
G1 X116.423 Y12.647 E73.9653
G1 X136.414 Y12.647 E74.73327
G1 X136.66 Y12.793 E74.74425
G1 X136.694 Y12.927 E74.74957
G1 X136.703 Y72.927 E77.05449
G1 X136.664 Y73.07 E77.06019
G1 X136.557 Y73.173 E77.06589
G1 X136.423 Y73.207 E77.0712
G1 X135.626 Y73.207 E77.10182
G1 X77.793 Y85.499 E79.37313
G1 X77.645 Y85.49 E79.37882
G1 X77.522 Y85.407 E79.38452
G1 X77.461 Y85.283 E79.38983
G1 X73.302 Y65.721 E80.15811
G1 X73.311 Y65.573 E80.16381
G1 X73.394 Y65.45 E80.16951
M204 S3000
M205 X10 Y10
G1 F2400 E74.16951
;MESH:soporte-monitor-110-derecho.stl
G0 F1800 X74.588 Y66.319
G0 X117.294 Y57.259
G0 X116.703 Y56.781
M204 S1800
M205 X8 Y8
;TYPE:WALL-OUTER
G1 F2400 E80.16951
G1 F900 X116.703 Y13.207 E81.84342
G1 X136.134 Y13.207 E82.58987
G1 X136.143 Y72.367 E84.86253
G1 X136.143 Y72.647 E84.87329
G1 X135.863 Y72.647 E84.88025
G1 X135.565 Y72.647 E84.8917
G1 X77.95 Y84.893 E87.15445
G1 X73.908 Y65.878 E87.90124
G1 X116.703 Y56.781 E89.58196
M204 S3000
M205 X10 Y10
G0 F1800 X116.703 Y56.581
G0 X117.263 Y57.234
M204 S1800
M205 X8 Y8
;TYPE:WALL-INNER
G1 F900 X117.263 Y13.767 E91.25177
G1 X135.574 Y13.767 E91.95519
G1 X135.583 Y72.087 E94.19558
G1 X135.506 Y72.087 E94.19854
G1 X78.381 Y84.229 E96.44205
G1 X74.572 Y66.309 E97.14583
G1 X117.263 Y57.234 E98.82247
M204 S3000
M205 X10 Y10
G0 F1800 X117.823 Y57.687
M204 S1800
M205 X8 Y8
G1 F900 X117.823 Y14.327 E100.48816
G1 X135.014 Y14.327 E101.14856
G1 X135.023 Y71.617 E103.34939
G1 X79.085 Y83.507 E105.54628
G1 X78.812 Y83.565 E105.557
G1 X78.754 Y83.292 E105.56393
G1 X75.236 Y66.74 E106.21399
G1 X117.823 Y57.687 E107.88655
M204 S3000
M205 X10 Y10
G0 F1800 X118.373 Y58.133
M204 S1800
M205 X8 Y8
;TYPE:SKIN
G1 F900 X118.373 Y14.877 E109.54824
G1 X134.464 Y14.877 E110.16639
G1 X134.473 Y71.171 E112.32895
G1 X79.236 Y82.913 E114.49832
G1 X75.888 Y67.164 E115.11684
G1 X118.373 Y58.133 E116.78539
M204 S3000
M205 X10 Y10
G0 F1800 X134.204 Y15.41
M204 S1800
M205 X8 Y8
G1 F900 X133.93 Y15.137 E116.80025
M204 S3000
M205 X10 Y10
G0 F1800 X133.139 Y15.137
M204 S1800
M205 X8 Y8
G1 F900 X134.204 Y16.202 E116.8581
M204 S3000
M205 X10 Y10
G0 F1800 X134.204 Y16.994
M204 S1800
M205 X8 Y8
G1 F900 X132.347 Y15.137 E116.95899
M204 S3000
M205 X10 Y10
G0 F1800 X131.555 Y15.137
M204 S1800
M205 X8 Y8
G1 F900 X134.204 Y17.786 E117.10291
M204 S3000
M205 X10 Y10
G0 F1800 X134.204 Y18.578
M204 S1800
M205 X8 Y8
G1 F900 X130.763 Y15.137 E117.28985
M204 S3000
M205 X10 Y10
G0 F1800 X129.971 Y15.137
M204 S1800
M205 X8 Y8
G1 F900 X134.204 Y19.37 E117.51982
M204 S3000
M205 X10 Y10
G0 F1800 X134.205 Y20.163
M204 S1800
M205 X8 Y8
G1 F900 X129.179 Y15.137 E117.79287
M204 S3000
M205 X10 Y10
G0 F1800 X128.387 Y15.137
M204 S1800
M205 X8 Y8
G1 F900 X134.205 Y20.955 E118.10894
M204 S3000
M205 X10 Y10
G0 F1800 X134.205 Y21.747
M204 S1800
M205 X8 Y8
G1 F900 X127.595 Y15.137 E118.46805
M204 S3000
M205 X10 Y10
G0 F1800 X126.803 Y15.137
M204 S1800
M205 X8 Y8
G1 F900 X134.205 Y22.539 E118.87018
M204 S3000
M205 X10 Y10
G0 F1800 X134.205 Y23.33
M204 S1800
M205 X8 Y8
G1 F900 X126.011 Y15.137 E119.31532
M204 S3000
M205 X10 Y10
G0 F1800 X125.219 Y15.137
M204 S1800
M205 X8 Y8
G1 F900 X134.205 Y24.122 E119.80348
M204 S3000
M205 X10 Y10
G0 F1800 X134.206 Y24.915
M204 S1800
M205 X8 Y8
G1 F900 X124.427 Y15.137 E120.33472
M204 S3000
M205 X10 Y10
G0 F1800 X123.635 Y15.137
M204 S1800
M205 X8 Y8
G1 F900 X134.206 Y25.707 E120.90899
M204 S3000
M205 X10 Y10
G0 F1800 X134.206 Y26.499
M204 S1800
M205 X8 Y8
G1 F900 X122.843 Y15.137 E121.52629
M204 S3000
M205 X10 Y10
G0 F1800 X122.051 Y15.137
M204 S1800
M205 X8 Y8
G1 F900 X134.206 Y27.291 E122.18662
M204 S3000
M205 X10 Y10
G0 F1800 X134.206 Y28.083
M204 S1800
M205 X8 Y8
G1 F900 X121.259 Y15.137 E122.88997
M204 S3000
M205 X10 Y10
G0 F1800 X120.467 Y15.137
M204 S1800
M205 X8 Y8
G1 F900 X134.206 Y28.875 E123.63635
M204 S3000
M205 X10 Y10
G0 F1800 X134.206 Y29.668
M204 S1800
M205 X8 Y8
G1 F900 X119.675 Y15.137 E124.42578
M204 S3000
M205 X10 Y10
G0 F1800 X118.883 Y15.137
M204 S1800
M205 X8 Y8
G1 F900 X134.206 Y30.46 E125.25825
M204 S3000
M205 X10 Y10
G0 F1800 X134.206 Y31.251
M204 S1800
M205 X8 Y8
G1 F900 X118.632 Y15.677 E126.10435
M204 S3000
M205 X10 Y10
G0 F1800 X118.632 Y16.469
M204 S1800
M205 X8 Y8
G1 F900 X134.206 Y32.043 E126.95045
M204 S3000
M205 X10 Y10
G0 F1800 X134.206 Y32.835
M204 S1800
M205 X8 Y8
G1 F900 X118.632 Y17.261 E127.79654
M204 S3000
M205 X10 Y10
G0 F1800 X118.632 Y18.053
M204 S1800
M205 X8 Y8
G1 F900 X134.206 Y33.627 E128.64264
M204 S3000
M205 X10 Y10
G0 F1800 X134.207 Y34.42
M204 S1800
M205 X8 Y8
G1 F900 X118.632 Y18.845 E129.4888
M204 S3000
M205 X10 Y10
G0 F1800 X118.632 Y19.637
M204 S1800
M205 X8 Y8
G1 F900 X134.207 Y35.212 E130.33495
M204 S3000
M205 X10 Y10
G0 F1800 X134.207 Y36.004
M204 S1800
M205 X8 Y8
G1 F900 X118.632 Y20.429 E131.1811
M204 S3000
M205 X10 Y10
G0 F1800 X118.632 Y21.22
M204 S1800
M205 X8 Y8
G1 F900 X134.207 Y36.796 E132.02728
M204 S3000
M205 X10 Y10
G0 F1800 X134.207 Y37.588
M204 S1800
M205 X8 Y8
