;FLAVOR:Marlin
;TIME:7524
;Filament used: 14.9164m
;Layer height: 0.3
;MINX:69.376
;MINY:18.139
;MINZ:0.15
;MAXX:140.623
;MAXY:98.829
;MAXZ:39.75
;Generated with Cura_SteamEngine 4.5.0
M140 S60
M105
M190 S60
M104 S200
M105
M109 S200
M82 ;absolute extrusion mode
G21 ;metric values
G90 ;absolute positioning
M82 ;set extruder to absolute mode
M107 ;start with the fan off
G28 X0 Y0 ;move X/Y to min endstops
G28 Z0 ;move Z to min endstops
G1 Z15.0 F100 ;move the platform down 15mm
G92 E0 ;zero the extruded length
G1 F200 E3 ;extrude 3mm of feed stock
G92 E0 ;zero the extruded length again
G1 F100
G0 Y20 F100
M117 Printing...
G5
G92 E0
G92 E0
G1 F2400 E-6
;LAYER_COUNT:133
;LAYER:0
M106 S255
M204 S3000
M205 X10 Y10
G1 F600 Z0.225
G0 F1800 X69.634 Y20.912 Z0.225
M204 S1800
M205 X8 Y8
;TYPE:SKIRT
G1 F600 Z0.15
G1 F2400 E0
G1 X69.868 Y20.382 E0.02226
G1 X70.173 Y19.889 E0.04453
G1 X70.542 Y19.443 E0.06676
G1 X70.97 Y19.052 E0.08903
G1 X71.447 Y18.723 E0.11129
G1 X71.965 Y18.464 E0.13354
G1 X72.513 Y18.278 E0.15577
G1 X73.082 Y18.169 E0.17803
G1 X73.584 Y18.139 E0.19735
G1 X93.576 Y18.139 E0.96535
G1 X94.154 Y18.179 E0.98761
G1 X94.721 Y18.298 E1.00986
G1 X95.266 Y18.494 E1.03211
G1 X95.779 Y18.763 E1.05436
G1 X96.25 Y19.1 E1.07661
G1 X96.67 Y19.499 E1.09887
G1 X97.032 Y19.952 E1.12114
G1 X97.327 Y20.45 E1.14338
G1 X97.552 Y20.984 E1.16564
G1 X97.7 Y21.544 E1.18789
G1 X97.776 Y22.339 E1.21857
G1 X97.776 Y62.565 E2.76387
G1 X137.297 Y70.967 E4.31602
G1 X137.854 Y71.126 E4.33827
G1 X138.384 Y71.36 E4.36053
G1 X138.877 Y71.665 E4.3828
G1 X139.322 Y72.035 E4.40503
G1 X139.713 Y72.463 E4.4273
G1 X140.041 Y72.941 E4.44957
G1 X140.301 Y73.459 E4.47183
G1 X140.486 Y74.007 E4.49405
G1 X140.594 Y74.577 E4.51634
G1 X140.623 Y75.155 E4.53857
G1 X140.532 Y75.949 E4.56927
G1 X136.374 Y95.504 E5.33728
G1 X136.215 Y96.061 E5.35953
G1 X135.98 Y96.59 E5.38177
G1 X135.675 Y97.083 E5.40404
G1 X135.305 Y97.529 E5.4263
G1 X134.878 Y97.919 E5.44852
G1 X134.4 Y98.247 E5.47079
G1 X133.882 Y98.507 E5.49305
G1 X133.333 Y98.692 E5.51531
G1 X132.764 Y98.8 E5.53756
G1 X132.186 Y98.829 E5.55979
G1 X131.393 Y98.738 E5.59045
G1 X74.024 Y86.552 E7.84348
G1 X73.467 Y86.537 E7.86488
G1 X72.89 Y86.481 E7.88715
G1 X72.327 Y86.347 E7.90938
G1 X71.787 Y86.137 E7.93164
G1 X71.281 Y85.854 E7.95391
G1 X70.819 Y85.504 E7.97618
G1 X70.41 Y85.094 E7.99843
G1 X70.061 Y84.632 E8.02067
G1 X69.779 Y84.126 E8.04292
G1 X69.569 Y83.586 E8.06518
G1 X69.435 Y83.023 E8.08741
G1 X69.379 Y82.338 E8.11382
G1 X69.376 Y22.452 E10.41436
G1 X69.475 Y21.469 E10.45232
G1 X69.634 Y20.912 E10.47457
M204 S3000
M205 X10 Y10
G0 F1800 X70.187 Y21.032
M204 S1800
M205 X8 Y8
G1 F2400 X70.417 Y20.544 E10.49529
G1 X70.717 Y20.096 E10.51601
G1 X71.08 Y19.697 E10.53673
G1 X71.498 Y19.356 E10.55745
G1 X71.961 Y19.081 E10.57814
G1 X72.46 Y18.877 E10.59885
G1 X72.984 Y18.749 E10.61957
G1 X73.584 Y18.699 E10.6427
G1 X93.576 Y18.699 E11.4107
G1 X94.114 Y18.739 E11.43142
G1 X94.64 Y18.858 E11.45214
G1 X95.142 Y19.053 E11.47283
G1 X95.611 Y19.321 E11.49358
G1 X96.034 Y19.654 E11.51426
G1 X96.404 Y20.047 E11.535
G1 X96.711 Y20.49 E11.5557
G1 X96.95 Y20.974 E11.57644
G1 X97.115 Y21.487 E11.59714
G1 X97.202 Y22.019 E11.61785
G1 X97.216 Y63.019 E13.19288
G1 X137.181 Y71.515 E14.76246
G1 X137.699 Y71.665 E14.78318
G1 X138.188 Y71.891 E14.80388
G1 X138.639 Y72.187 E14.8246
G1 X139.042 Y72.546 E14.84533
G1 X139.387 Y72.96 E14.86604
G1 X139.667 Y73.421 E14.88676
G1 X139.875 Y73.918 E14.90745
G1 X140.008 Y74.441 E14.92818
G1 X140.063 Y74.978 E14.94892
G1 X140.037 Y75.516 E14.96961
G1 X135.826 Y95.387 E15.74992
G1 X135.675 Y95.905 E15.77065
G1 X135.45 Y96.394 E15.79132
G1 X135.154 Y96.845 E15.81205
G1 X134.795 Y97.248 E15.83278
G1 X134.381 Y97.593 E15.85348
G1 X133.92 Y97.873 E15.8742
G1 X133.422 Y98.081 E15.89494
G1 X132.9 Y98.214 E15.91563
G1 X132.363 Y98.269 E15.93637
G1 X131.825 Y98.243 E15.95706
G1 X74.085 Y85.993 E18.22454
G1 X73.482 Y85.977 E18.24771
G1 X72.945 Y85.922 E18.26845
G1 X72.423 Y85.789 E18.28914
G1 X71.926 Y85.581 E18.30984
G1 X71.465 Y85.301 E18.33056
G1 X71.05 Y84.956 E18.35129
G1 X70.691 Y84.554 E18.37199
G1 X70.395 Y84.103 E18.39272
G1 X70.17 Y83.613 E18.41343
G1 X70.019 Y83.095 E18.43416
G1 X69.939 Y82.338 E18.4634
G1 X69.936 Y22.452 E20.76395
G1 X70.031 Y21.548 E20.79887
G1 X70.187 Y21.032 E20.81958
M204 S3000
M205 X10 Y10
G0 F1800 X70.739 Y21.159
M204 S1800
M205 X8 Y8
G1 F2400 X70.965 Y20.718 E20.83861
G1 X71.259 Y20.319 E20.85765
G1 X71.614 Y19.972 E20.87672
G1 X72.019 Y19.686 E20.89577
G1 X72.465 Y19.469 E20.91482
G1 X72.941 Y19.327 E20.9339
G1 X73.584 Y19.259 E20.95874
G1 X93.576 Y19.259 E21.72674
G1 X94.552 Y19.418 E21.76473
G1 X95.008 Y19.612 E21.78377
G1 X95.427 Y19.877 E21.80281
G1 X95.798 Y20.207 E21.82189
G1 X96.112 Y20.591 E21.84094
G1 X96.36 Y21.021 E21.86001
G1 X96.535 Y21.484 E21.87903
G1 X96.634 Y21.971 E21.89812
G1 X96.656 Y63.472 E23.4924
G1 X137.064 Y72.062 E25.07938
G1 X137.54 Y72.204 E25.09846
G1 X137.986 Y72.42 E25.1175
G1 X138.392 Y72.706 E25.13657
G1 X138.747 Y73.052 E25.15562
G1 X139.041 Y73.451 E25.17466
G1 X139.268 Y73.892 E25.19371
G1 X139.421 Y74.364 E25.21277
G1 X139.496 Y74.854 E25.23181
G1 X139.492 Y75.35 E25.25087
G1 X135.279 Y95.271 E26.03307
G1 X135.137 Y95.746 E26.05212
G1 X134.92 Y96.192 E26.07117
G1 X134.635 Y96.598 E26.09022
G1 X134.289 Y96.953 E26.10927
G1 X133.89 Y97.247 E26.12831
G1 X133.448 Y97.474 E26.1474
G1 X132.977 Y97.627 E26.16642
G1 X132.486 Y97.702 E26.1855
G1 X131.99 Y97.698 E26.20456
G1 X74.151 Y85.434 E28.47587
G1 X73.497 Y85.417 E28.501
G1 X73.004 Y85.364 E28.52005
G1 X72.526 Y85.232 E28.5391
G1 X72.075 Y85.026 E28.55814
G1 X71.663 Y84.749 E28.57721
G1 X71.301 Y84.41 E28.59627
G1 X70.997 Y84.018 E28.61532
G1 X70.761 Y83.582 E28.63437
G1 X70.598 Y83.113 E28.65344
G1 X70.499 Y82.338 E28.68346
G1 X70.496 Y22.452 E30.984
G1 X70.586 Y21.631 E31.01573
G1 X70.739 Y21.159 E31.03479
M204 S3000
M205 X10 Y10
G0 F1800 X71.29 Y21.295
M204 S1800
M205 X8 Y8
G1 F2400 X71.512 Y20.905 E31.05203
G1 X71.799 Y20.56 E31.06927
G1 X72.143 Y20.272 E31.08651
G1 X72.532 Y20.049 E31.10373
G1 X72.954 Y19.899 E31.12094
G1 X73.584 Y19.819 E31.14533
G1 X93.576 Y19.819 E31.91334
G1 X94.455 Y19.977 E31.94764
G1 X94.86 Y20.171 E31.96489
G1 X95.224 Y20.433 E31.98212
G1 X95.536 Y20.755 E31.99935
G1 X95.786 Y21.128 E32.0166
G1 X95.966 Y21.539 E32.03383
G1 X96.07 Y21.975 E32.05105
G1 X96.096 Y22.339 E32.06507
G1 X96.096 Y63.925 E33.66262
G1 X136.948 Y72.61 E35.26704
G1 X137.377 Y72.742 E35.28428
G1 X137.775 Y72.948 E35.3015
G1 X138.131 Y73.221 E35.31873
G1 X138.433 Y73.553 E35.33597
G1 X138.671 Y73.933 E35.3532
G1 X138.837 Y74.35 E35.37044
G1 X138.928 Y74.789 E35.38766
G1 X138.939 Y75.238 E35.40492
G1 X138.889 Y75.599 E35.41892
G1 X134.731 Y95.154 E36.18692
G1 X134.599 Y95.583 E36.20417
G1 X134.393 Y95.981 E36.22138
G1 X134.12 Y96.337 E36.23862
G1 X133.788 Y96.639 E36.25586
G1 X133.408 Y96.877 E36.27308
G1 X132.991 Y97.043 E36.29032
G1 X132.552 Y97.134 E36.30755
G1 X132.103 Y97.145 E36.3248
G1 X131.742 Y97.095 E36.3388
G1 X74.217 Y84.876 E38.59795
G1 X73.512 Y84.857 E38.62505
G1 X73.066 Y84.805 E38.6423
G1 X72.637 Y84.675 E38.65952
G1 X72.237 Y84.471 E38.67677
G1 X71.881 Y84.2 E38.69395
G1 X71.577 Y83.869 E38.71122
G1 X71.338 Y83.49 E38.72843
G1 X71.169 Y83.074 E38.74568
G1 X71.077 Y82.635 E38.76291
G1 X71.056 Y22.452 E41.07487
G1 X71.142 Y21.718 E41.10326
G1 X71.29 Y21.295 E41.12047
M204 S3000
M205 X10 Y10
G0 F1800 X71.696 Y21.811
M204 S1800
M205 X8 Y8
G1 F2400 X71.841 Y21.443 E41.13567
G1 X72.056 Y21.111 E41.15086
G1 X72.334 Y20.829 E41.16607
G1 X72.662 Y20.609 E41.18125
G1 X73.028 Y20.459 E41.19644
G1 X73.584 Y20.379 E41.21802
G1 X93.576 Y20.379 E41.98602
G1 X94.347 Y20.537 E42.01626
G1 X94.693 Y20.728 E42.03144
G1 X94.994 Y20.985 E42.04664
G1 X95.236 Y21.298 E42.06184
G1 X95.412 Y21.652 E42.07703
G1 X95.512 Y22.035 E42.09224
G1 X95.536 Y64.379 E43.7189
G1 X136.832 Y73.158 E45.34076
G1 X137.208 Y73.279 E45.35593
G1 X137.553 Y73.473 E45.37113
G1 X137.851 Y73.732 E45.3863
G1 X138.092 Y74.046 E45.40151
G1 X138.265 Y74.402 E45.41671
G1 X138.362 Y74.785 E45.43189
G1 X138.381 Y75.18 E45.44708
G1 X134.183 Y95.038 E46.2268
G1 X134.062 Y95.414 E46.24197
G1 X133.868 Y95.759 E46.25717
G1 X133.609 Y96.057 E46.27234
G1 X133.295 Y96.298 E46.28755
G1 X132.939 Y96.471 E46.30275
G1 X132.556 Y96.568 E46.31793
G1 X132.161 Y96.587 E46.33312
G1 X74.284 Y84.317 E48.60591
G1 X73.527 Y84.297 E48.635
G1 X73.134 Y84.247 E48.65022
G1 X72.76 Y84.119 E48.6654
G1 X72.419 Y83.918 E48.68061
G1 X72.126 Y83.653 E48.69579
G1 X71.891 Y83.335 E48.71098
G1 X71.726 Y82.976 E48.72615
G1 X71.635 Y82.591 E48.74135
G1 X71.616 Y22.452 E51.05162
G1 X71.696 Y21.811 E51.07643
M204 S3000
M205 X10 Y10
G0 F1800 X72.251 Y21.912
M204 S1800
M205 X8 Y8
G1 F2400 X72.39 Y21.608 E51.08928
G1 X72.597 Y21.346 E51.1021
G1 X72.86 Y21.141 E51.11491
G1 X73.165 Y21.003 E51.12777
G1 X73.584 Y20.939 E51.14406
G1 X93.576 Y20.939 E51.91206
G1 X94.22 Y21.096 E51.93752
G1 X94.497 Y21.284 E51.95038
G1 X94.72 Y21.532 E51.96319
G1 X94.879 Y21.826 E51.97603
G1 X94.976 Y22.339 E51.99609
G1 X94.976 Y64.833 E53.62852
G1 X136.715 Y73.706 E55.26777
G1 X137.031 Y73.814 E55.2806
G1 X137.313 Y73.993 E55.29343
G1 X137.544 Y74.235 E55.30628
G1 X137.711 Y74.524 E55.3191
G1 X137.805 Y74.845 E55.33195
G1 X137.793 Y75.366 E55.35197
G1 X133.635 Y94.921 E56.11998
G1 X133.527 Y95.237 E56.13281
G1 X133.348 Y95.519 E56.14564
G1 X133.106 Y95.75 E56.15849
G1 X132.817 Y95.917 E56.17132
G1 X132.496 Y96.011 E56.18417
G1 X131.975 Y95.999 E56.20418
G1 X74.355 Y83.76 E58.46707
G1 X73.542 Y83.738 E58.49831
G1 X73.211 Y83.689 E58.51116
G1 X72.902 Y83.563 E58.52398
G1 X72.631 Y83.368 E58.53681
G1 X72.414 Y83.114 E58.54964
G1 X72.263 Y82.816 E58.56248
G1 X72.179 Y82.338 E58.58112
G1 X72.176 Y22.452 E60.88167
G1 X72.251 Y21.912 E60.90261
M204 S3000
M205 X10 Y10
G0 F1800 X72.804 Y22.028
M204 S1800
M205 X8 Y8
G1 F2400 X72.935 Y21.805 E60.91255
G1 X73.128 Y21.633 E60.92248
G1 X73.364 Y21.528 E60.9324
G1 X73.584 Y21.499 E60.94093
G1 X93.576 Y21.499 E61.70893
G1 X94.063 Y21.654 E61.72856
G1 X94.248 Y21.835 E61.7385
G1 X94.369 Y22.063 E61.74842
G1 X94.416 Y22.339 E61.75917
G1 X94.416 Y65.285 E63.40896
G1 X136.599 Y74.253 E65.06566
G1 X136.84 Y74.345 E65.07557
G1 X137.042 Y74.506 E65.08549
G1 X137.186 Y74.721 E65.09543
G1 X137.257 Y74.97 E65.10538
G1 X137.246 Y75.25 E65.11614
G1 X133.088 Y94.805 E65.88415
G1 X132.996 Y95.046 E65.89406
G1 X132.835 Y95.248 E65.90399
G1 X132.62 Y95.392 E65.91393
G1 X132.371 Y95.463 E65.92387
G1 X132.091 Y95.452 E65.93464
G1 X74.416 Y83.201 E68.19968
G1 X73.557 Y83.178 E68.23269
G1 X73.302 Y83.131 E68.24265
G1 X73.074 Y83.009 E68.25259
G1 X72.894 Y82.824 E68.2625
G1 X72.779 Y82.593 E68.27242
G1 X72.739 Y82.338 E68.28233
G1 X72.736 Y22.452 E70.58288
G1 X72.804 Y22.028 E70.59938
M204 S3000
M205 X10 Y10
G0 F1800 X73.354 Y22.179
M204 S1800
M205 X8 Y8
G1 F2400 X73.468 Y22.084 E70.60508
G1 X93.576 Y22.059 E71.37753
G1 X93.822 Y22.205 E71.38852
G1 X93.856 Y22.339 E71.39384
G1 X93.856 Y65.739 E73.06107
G1 X136.482 Y74.801 E74.73516
G1 X136.614 Y74.869 E74.74086
G1 X136.692 Y74.995 E74.74656
G1 X136.698 Y75.133 E74.75186
G1 X132.54 Y94.688 E75.51987
G1 X132.472 Y94.82 E75.52557
G1 X132.346 Y94.898 E75.53127
G1 X132.208 Y94.904 E75.53657
G1 X74.483 Y82.642 E77.80358
G1 X73.572 Y82.618 E77.83859
G1 X73.43 Y82.575 E77.84429
G1 X73.33 Y82.465 E77.85
G1 X73.299 Y82.338 E77.85502
G1 X73.296 Y22.452 E80.15557
G1 X73.354 Y22.179 E80.16629
M204 S3000
M205 X10 Y10
G1 F2400 E74.16629
;MESH:soporte-monitor-110-izquierdo.stl
G0 F1800 X74.43 Y23.193
G0 X92.705 Y66.672
G0 X93.296 Y66.194
M204 S1800
M205 X8 Y8
;TYPE:WALL-OUTER
G1 F2400 E80.16629
G1 F900 X135.819 Y75.232 E81.83632
G1 X136.092 Y75.29 E81.84705
G1 X136.034 Y75.563 E81.85398
G1 X132.051 Y94.298 E82.58978
G1 X74.551 Y82.084 E84.84795
G1 X73.859 Y82.066 E84.87455
G1 X73.856 Y22.899 E87.14747
G1 X73.856 Y22.619 E87.15823
G1 X74.136 Y22.619 E87.16519
G1 X93.296 Y22.619 E87.90123
G1 X93.296 Y66.194 E89.57519
M204 S3000
M205 X10 Y10
G0 F1800 X93.491 Y66.235
G0 X92.736 Y66.647
M204 S1800
M205 X8 Y8
;TYPE:WALL-INNER
G1 F900 X135.155 Y75.663 E91.24113
G1 X135.428 Y75.721 E91.25185
G1 X135.37 Y75.994 E91.25879
G1 X131.62 Y93.634 E91.95158
G1 X74.617 Y81.526 E94.19023
G1 X74.419 Y81.521 E94.19784
G1 X74.416 Y23.459 E96.42832
G1 X74.416 Y23.179 E96.43908
G1 X74.696 Y23.179 E96.44604
G1 X92.736 Y23.179 E97.13905
G1 X92.736 Y66.647 E98.8089
M204 S3000
M205 X10 Y10
G0 F1800 X92.176 Y67.1
M204 S1800
M205 X8 Y8
G1 F900 X134.491 Y76.094 E100.47076
G1 X134.764 Y76.152 E100.48148
G1 X134.706 Y76.425 E100.48842
G1 X131.189 Y92.97 E101.1382
G1 X74.979 Y81.03 E103.34571
G1 X74.976 Y24.019 E105.53582
G1 X74.976 Y23.739 E105.54657
G1 X75.256 Y23.739 E105.55354
G1 X92.176 Y23.739 E106.20353
G1 X92.176 Y67.1 E107.86926
M204 S3000
M205 X10 Y10
G0 F1800 X91.626 Y67.546
M204 S1800
M205 X8 Y8
;TYPE:SKIN
G1 F900 X134.112 Y76.576 E109.53784
G1 X130.765 Y92.318 E110.15609
G1 X75.529 Y80.584 E112.32536
G1 X75.526 Y24.289 E114.48795
G1 X91.626 Y24.289 E115.10644
G1 X91.626 Y67.546 E116.76818
M204 S3000
M205 X10 Y10
G0 F1800 X75.788 Y79.748
M204 S1800
M205 X8 Y8
G1 F900 X76.58 Y80.54 E116.81121
M204 S3000
M205 X10 Y10
G0 F1800 X77.586 Y80.754
M204 S1800
M205 X8 Y8
G1 F900 X75.788 Y78.956 E116.90889
M204 S3000
M205 X10 Y10
G0 F1800 X75.788 Y78.164
M204 S1800
M205 X8 Y8
G1 F900 X78.592 Y80.967 E117.0612
M204 S3000
M205 X10 Y10
G0 F1800 X79.597 Y81.181
M204 S1800
M205 X8 Y8
G1 F900 X75.788 Y77.372 E117.26813
M204 S3000
M205 X10 Y10
G0 F1800 X75.788 Y76.58
M204 S1800
M205 X8 Y8
G1 F900 X80.603 Y81.395 E117.52972
M204 S3000
M205 X10 Y10
G0 F1800 X81.608 Y81.608
M204 S1800
M205 X8 Y8
G1 F900 X75.788 Y75.788 E117.84591
M204 S3000
M205 X10 Y10
G0 F1800 X75.788 Y74.996
M204 S1800
M205 X8 Y8
G1 F900 X82.614 Y81.822 E118.21675
M204 S3000
M205 X10 Y10
G0 F1800 X83.62 Y82.036
M204 S1800
M205 X8 Y8
G1 F900 X75.788 Y74.204 E118.64224
M204 S3000
M205 X10 Y10
G0 F1800 X75.788 Y73.412
M204 S1800
M205 X8 Y8
G1 F900 X84.625 Y82.249 E119.12233
M204 S3000
M205 X10 Y10
G0 F1800 X85.631 Y82.463
M204 S1800
M205 X8 Y8
G1 F900 X75.788 Y72.62 E119.65708
M204 S3000
M205 X10 Y10
G0 F1800 X75.788 Y71.828
M204 S1800
M205 X8 Y8
G1 F900 X86.636 Y82.677 E120.24645
M204 S3000
M205 X10 Y10
G0 F1800 X87.642 Y82.89
M204 S1800
M205 X8 Y8
G1 F900 X75.788 Y71.036 E120.89045
M204 S3000
M205 X10 Y10
G0 F1800 X75.788 Y70.244
M204 S1800
M205 X8 Y8
G1 F900 X88.647 Y83.104 E121.58908
M204 S3000
M205 X10 Y10
G0 F1800 X89.654 Y83.318
M204 S1800
M205 X8 Y8
G1 F900 X75.788 Y69.452 E122.34239
M204 S3000
M205 X10 Y10
G0 F1800 X75.787 Y68.66
M204 S1800
M205 X8 Y8
G1 F900 X90.659 Y83.531 E123.15032
M204 S3000
M205 X10 Y10
G0 F1800 X91.665 Y83.745
M204 S1800
M205 X8 Y8
G1 F900 X75.787 Y67.868 E124.01291
M204 S3000
M205 X10 Y10
G0 F1800 X75.787 Y67.076
M204 S1800
M205 X8 Y8
G1 F900 X92.67 Y83.959 E124.93012
M204 S3000
M205 X10 Y10
G0 F1800 X93.676 Y84.172
M204 S1800
M205 X8 Y8
G1 F900 X75.787 Y66.284 E125.90196
M204 S3000
M205 X10 Y10
G0 F1800 X75.787 Y65.492
M204 S1800
M205 X8 Y8
G1 F900 X94.681 Y84.386 E126.92843
M204 S3000
M205 X10 Y10
G0 F1800 X95.687 Y84.599
M204 S1800
M205 X8 Y8
G1 F900 X75.787 Y64.7 E128.00952
M204 S3000
M205 X10 Y10
G0 F1800 X75.787 Y63.908
M204 S1800
M205 X8 Y8
G1 F900 X96.693 Y84.813 E129.14527
M204 S3000
M205 X10 Y10
G0 F1800 X97.698 Y85.027
M204 S1800
M205 X8 Y8
G1 F900 X75.787 Y63.116 E130.33564
M204 S3000
M205 X10 Y10
G0 F1800 X75.787 Y62.324
M204 S1800
M205 X8 Y8
G1 F900 X98.704 Y85.241 E131.58067
M204 S3000
M205 X10 Y10
G0 F1800 X99.709 Y85.454
M204 S1800
M205 X8 Y8
G1 F900 X75.787 Y61.532 E132.8803
M204 S3000
M205 X10 Y10
G0 F1800 X75.787 Y60.74
M204 S1800
M205 X8 Y8
G1 F900 X100.715 Y85.668 E134.23458
M204 S3000
M205 X10 Y10
G0 F1800 X101.72 Y85.881
M204 S1800
M205 X8 Y8
G1 F900 X75.787 Y59.948 E135.64346
M204 S3000
M205 X10 Y10
G0 F1800 X75.787 Y59.156
M204 S1800
M205 X8 Y8
G1 F900 X102.727 Y86.095 E137.10702
M204 S3000
M205 X10 Y10
G0 F1800 X103.732 Y86.309
M204 S1800
M205 X8 Y8
G1 F900 X75.787 Y58.364 E138.6252
M204 S3000
M205 X10 Y10
