;FLAVOR:Marlin
;TIME:656
;Filament used: 0.424009m
;Layer height: 0.1
;MINX:85
;MINY:13.59
;MINZ:0.15
;MAXX:125
;MAXY:53.79
;MAXZ:3.95
;Generated with Cura_SteamEngine 4.5.0
M140 S60
M105
M190 S60
M104 S200
M105
M109 S200
M82 ;absolute extrusion mode
G21 ;metric values
G90 ;absolute positioning
M82 ;set extruder to absolute mode
M107 ;start with the fan off
G28 X0 Y0 ;move X/Y to min endstops
G28 Z0 ;move Z to min endstops
G1 Z15.0 F100 ;move the platform down 15mm
G92 E0 ;zero the extruded length
G1 F200 E3 ;extrude 3mm of feed stock
G92 E0 ;zero the extruded length again
G1 F100
G0 Y20 F100
M117 Printing...
G5
G92 E0
G92 E0
G1 F2400 E-6
;LAYER_COUNT:39
;LAYER:0
M106 S255
M204 S3000
M205 X10 Y10
G1 F600 Z0.225
G0 F1800 X85.04 Y17.212 Z0.225
M204 S1800
M205 X8 Y8
;TYPE:SKIRT
G1 F600 Z0.15
G1 F2400 E0
G1 X85.159 Y16.645 E0.02226
G1 X85.355 Y16.1 E0.04451
G1 X85.624 Y15.587 E0.06676
G1 X85.961 Y15.116 E0.08901
G1 X86.36 Y14.696 E0.11126
G1 X86.813 Y14.334 E0.13354
G1 X87.311 Y14.039 E0.15577
G1 X87.845 Y13.814 E0.17803
G1 X88.405 Y13.666 E0.20028
G1 X89.2 Y13.59 E0.23096
G1 X120.8 Y13.59 E1.44489
G1 X121.378 Y13.63 E1.46715
G1 X121.945 Y13.749 E1.4894
G1 X122.49 Y13.945 E1.51165
G1 X123.003 Y14.214 E1.53391
G1 X123.474 Y14.551 E1.55615
G1 X123.894 Y14.95 E1.57841
G1 X124.256 Y15.403 E1.60068
G1 X124.551 Y15.901 E1.62292
G1 X124.776 Y16.435 E1.64518
G1 X124.924 Y16.995 E1.66743
G1 X125 Y17.79 E1.69811
G1 X125 Y49.59 E2.91972
G1 X124.96 Y50.168 E2.94198
G1 X124.841 Y50.735 E2.96424
G1 X124.645 Y51.28 E2.98649
G1 X124.376 Y51.793 E3.00874
G1 X124.039 Y52.264 E3.03099
G1 X123.64 Y52.684 E3.05324
G1 X123.187 Y53.046 E3.07552
G1 X122.689 Y53.341 E3.09775
G1 X122.155 Y53.566 E3.12001
G1 X121.595 Y53.714 E3.14226
G1 X120.8 Y53.79 E3.17294
G1 X89.2 Y53.79 E4.38687
G1 X88.622 Y53.75 E4.40913
G1 X88.055 Y53.631 E4.43138
G1 X87.51 Y53.435 E4.45363
G1 X86.997 Y53.166 E4.47589
G1 X86.526 Y52.829 E4.49813
G1 X86.106 Y52.43 E4.52039
G1 X85.744 Y51.977 E4.54267
G1 X85.449 Y51.479 E4.5649
G1 X85.224 Y50.945 E4.58716
G1 X85.076 Y50.385 E4.60941
G1 X85 Y49.59 E4.64009
G1 X85 Y17.79 E5.8617
G1 X85.04 Y17.212 E5.88396
M204 S3000
M205 X10 Y10
G0 F1800 X85.6 Y17.252
M204 S1800
M205 X8 Y8
G1 F2400 X85.719 Y16.726 E5.90468
G1 X85.914 Y16.224 E5.92537
G1 X86.182 Y15.755 E5.94612
G1 X86.515 Y15.332 E5.9668
G1 X86.908 Y14.962 E5.98753
G1 X87.351 Y14.655 E6.00824
G1 X87.835 Y14.416 E6.02897
G1 X88.348 Y14.251 E6.04968
G1 X88.88 Y14.164 E6.07038
G1 X120.8 Y14.15 E7.29661
G1 X121.338 Y14.19 E7.31733
G1 X121.864 Y14.309 E7.33805
G1 X122.366 Y14.504 E7.35874
G1 X122.835 Y14.772 E7.37949
G1 X123.258 Y15.105 E7.40017
G1 X123.628 Y15.498 E7.4209
G1 X123.935 Y15.941 E7.44161
G1 X124.174 Y16.425 E7.46235
G1 X124.339 Y16.938 E7.48305
G1 X124.426 Y17.47 E7.50375
G1 X124.44 Y49.59 E8.73766
G1 X124.4 Y50.128 E8.75838
G1 X124.281 Y50.654 E8.7791
G1 X124.086 Y51.156 E8.79979
G1 X123.818 Y51.625 E8.82054
G1 X123.485 Y52.048 E8.84122
G1 X123.092 Y52.418 E8.86196
G1 X122.649 Y52.725 E8.88266
G1 X122.165 Y52.964 E8.9034
G1 X121.652 Y53.129 E8.9241
G1 X121.12 Y53.216 E8.94481
G1 X89.2 Y53.23 E10.17103
G1 X88.662 Y53.19 E10.19175
G1 X88.136 Y53.071 E10.21247
G1 X87.634 Y52.876 E10.23316
G1 X87.165 Y52.608 E10.25391
G1 X86.742 Y52.275 E10.27459
G1 X86.372 Y51.882 E10.29533
G1 X86.065 Y51.439 E10.31603
G1 X85.826 Y50.955 E10.33677
G1 X85.661 Y50.442 E10.35747
G1 X85.574 Y49.91 E10.37818
G1 X85.56 Y17.79 E11.61208
G1 X85.6 Y17.252 E11.63281
M204 S3000
M205 X10 Y10
G0 F1800 X86.16 Y17.296
M204 S1800
M205 X8 Y8
G1 F2400 X86.279 Y16.814 E11.65188
G1 X86.473 Y16.358 E11.67092
G1 X86.738 Y15.939 E11.68996
G1 X87.068 Y15.568 E11.70904
G1 X87.452 Y15.254 E11.72809
G1 X87.882 Y15.006 E11.74716
G1 X88.345 Y14.831 E11.76618
G1 X88.832 Y14.732 E11.78527
G1 X120.8 Y14.71 E13.01333
G1 X121.776 Y14.869 E13.05132
G1 X122.232 Y15.063 E13.07036
G1 X122.651 Y15.328 E13.0894
G1 X123.022 Y15.658 E13.10848
G1 X123.336 Y16.042 E13.12753
G1 X123.584 Y16.472 E13.1466
G1 X123.759 Y16.935 E13.16562
G1 X123.858 Y17.422 E13.18471
G1 X123.88 Y49.59 E14.42045
G1 X123.84 Y50.084 E14.43949
G1 X123.721 Y50.566 E14.45857
G1 X123.527 Y51.022 E14.4776
G1 X123.262 Y51.441 E14.49665
G1 X122.932 Y51.812 E14.51572
G1 X122.548 Y52.126 E14.53478
G1 X122.118 Y52.374 E14.55385
G1 X121.655 Y52.549 E14.57286
G1 X121.168 Y52.648 E14.59195
G1 X89.2 Y52.67 E15.82002
G1 X88.706 Y52.63 E15.83906
G1 X88.224 Y52.511 E15.85813
G1 X87.768 Y52.317 E15.87717
G1 X87.349 Y52.052 E15.89621
G1 X86.978 Y51.722 E15.91529
G1 X86.664 Y51.338 E15.93434
G1 X86.416 Y50.908 E15.95341
G1 X86.241 Y50.445 E15.97243
G1 X86.142 Y49.958 E15.99152
G1 X86.12 Y17.79 E17.22726
G1 X86.16 Y17.296 E17.2463
M204 S3000
M205 X10 Y10
G0 F1800 X86.72 Y17.343
M204 S1800
M205 X8 Y8
G1 F2400 X86.838 Y16.911 E17.26351
G1 X87.032 Y16.506 E17.28076
G1 X87.294 Y16.142 E17.29799
G1 X87.616 Y15.83 E17.31521
G1 X87.989 Y15.58 E17.33246
G1 X88.4 Y15.4 E17.3497
G1 X88.836 Y15.296 E17.36692
G1 X89.2 Y15.27 E17.38094
G1 X120.8 Y15.27 E18.59486
G1 X121.679 Y15.428 E18.62917
G1 X122.084 Y15.622 E18.64642
G1 X122.448 Y15.884 E18.66365
G1 X122.76 Y16.206 E18.68088
G1 X123.01 Y16.579 E18.69813
G1 X123.19 Y16.99 E18.71536
G1 X123.294 Y17.426 E18.73258
G1 X123.32 Y17.79 E18.7466
G1 X123.32 Y49.59 E19.96821
G1 X123.28 Y50.037 E19.98545
G1 X123.162 Y50.469 E20.00266
G1 X122.968 Y50.874 E20.01991
G1 X122.706 Y51.238 E20.03714
G1 X122.384 Y51.55 E20.05436
G1 X122.011 Y51.8 E20.07161
G1 X121.6 Y51.98 E20.08885
G1 X121.164 Y52.084 E20.10607
G1 X120.8 Y52.11 E20.12008
G1 X89.2 Y52.11 E21.33401
G1 X88.753 Y52.07 E21.35125
G1 X88.321 Y51.952 E21.36846
G1 X87.916 Y51.758 E21.38571
G1 X87.552 Y51.496 E21.40294
G1 X87.24 Y51.174 E21.42016
G1 X86.99 Y50.801 E21.43741
G1 X86.81 Y50.39 E21.45465
G1 X86.706 Y49.954 E21.47187
G1 X86.68 Y49.59 E21.48588
G1 X86.68 Y17.79 E22.7075
G1 X86.72 Y17.343 E22.72474
M204 S3000
M205 X10 Y10
G0 F1800 X87.28 Y17.397
M204 S1800
M205 X8 Y8
G1 F2400 X87.398 Y17.019 E22.73995
G1 X87.589 Y16.673 E22.75513
G1 X87.846 Y16.372 E22.77034
G1 X88.159 Y16.13 E22.78553
G1 X88.513 Y15.954 E22.80072
G1 X88.896 Y15.854 E22.81593
G1 X120.8 Y15.83 E24.04153
G1 X121.571 Y15.988 E24.07177
G1 X121.917 Y16.179 E24.08695
G1 X122.218 Y16.436 E24.10216
G1 X122.46 Y16.749 E24.11735
G1 X122.636 Y17.103 E24.13254
G1 X122.736 Y17.486 E24.14775
G1 X122.76 Y49.59 E25.38104
G1 X122.72 Y49.983 E25.39621
G1 X122.602 Y50.361 E25.41142
G1 X122.411 Y50.707 E25.42661
G1 X122.154 Y51.008 E25.44181
G1 X121.841 Y51.25 E25.45701
G1 X121.487 Y51.426 E25.4722
G1 X121.104 Y51.526 E25.4874
G1 X89.2 Y51.55 E26.71301
G1 X88.807 Y51.51 E26.72819
G1 X88.429 Y51.392 E26.7434
G1 X88.083 Y51.201 E26.75858
G1 X87.782 Y50.944 E26.77379
G1 X87.54 Y50.631 E26.78898
G1 X87.364 Y50.277 E26.80417
G1 X87.264 Y49.894 E26.81938
G1 X87.24 Y17.79 E28.05267
G1 X87.28 Y17.397 E28.06784
M204 S3000
M205 X10 Y10
G0 F1800 X87.84 Y17.458
M204 S1800
M205 X8 Y8
G1 F2400 X87.957 Y17.146 E28.08064
G1 X88.145 Y16.869 E28.0935
G1 X88.393 Y16.646 E28.10632
G1 X88.687 Y16.487 E28.11916
G1 X89.2 Y16.39 E28.13921
G1 X120.8 Y16.39 E29.35314
G1 X121.444 Y16.547 E29.37861
G1 X121.721 Y16.735 E29.39147
G1 X121.944 Y16.983 E29.40428
G1 X122.103 Y17.277 E29.41712
G1 X122.2 Y17.79 E29.43717
G1 X122.2 Y49.59 E30.65879
G1 X122.16 Y49.922 E30.67163
G1 X122.043 Y50.234 E30.68443
G1 X121.855 Y50.511 E30.69729
G1 X121.607 Y50.734 E30.71011
G1 X121.313 Y50.893 E30.72295
G1 X120.8 Y50.99 E30.743
G1 X89.2 Y50.99 E31.95693
G1 X88.868 Y50.95 E31.96978
G1 X88.556 Y50.833 E31.98258
G1 X88.279 Y50.645 E31.99544
G1 X88.056 Y50.397 E32.00825
G1 X87.897 Y50.103 E32.02109
G1 X87.8 Y49.59 E32.04115
G1 X87.8 Y17.79 E33.26276
G1 X87.84 Y17.458 E33.2756
M204 S3000
M205 X10 Y10
G0 F1800 X88.36 Y17.79
M204 S1800
M205 X8 Y8
G1 F2400 X88.4 Y17.535 E33.28552
G1 X88.515 Y17.303 E33.29547
G1 X88.696 Y17.118 E33.30541
G1 X88.924 Y16.997 E33.31532
G1 X89.2 Y16.95 E33.32608
G1 X120.8 Y16.95 E34.54001
G1 X121.287 Y17.105 E34.55964
G1 X121.472 Y17.286 E34.56958
G1 X121.593 Y17.514 E34.5795
G1 X121.64 Y17.79 E34.59026
G1 X121.64 Y49.59 E35.81187
G1 X121.6 Y49.845 E35.82178
G1 X121.485 Y50.077 E35.83173
G1 X121.304 Y50.262 E35.84167
G1 X121.076 Y50.383 E35.85159
G1 X120.8 Y50.43 E35.86234
G1 X89.2 Y50.43 E37.07627
G1 X88.945 Y50.39 E37.08619
G1 X88.713 Y50.275 E37.09613
G1 X88.528 Y50.094 E37.10608
G1 X88.407 Y49.866 E37.11599
G1 X88.36 Y49.59 E37.12675
G1 X88.36 Y17.79 E38.34836
M204 S3000
M205 X10 Y10
G0 F1800 X88.92 Y17.79
M204 S1800
M205 X8 Y8
G1 F2400 X88.959 Y17.647 E38.35405
G1 X89.066 Y17.544 E38.35976
G1 X89.2 Y17.51 E38.36507
G1 X120.8 Y17.51 E39.579
G1 X121.046 Y17.656 E39.58999
G1 X121.08 Y17.79 E39.5953
G1 X121.08 Y49.59 E40.81691
G1 X121.041 Y49.733 E40.8226
G1 X120.934 Y49.836 E40.82831
G1 X120.8 Y49.87 E40.83362
G1 X89.2 Y49.87 E42.04755
G1 X89.057 Y49.831 E42.05324
G1 X88.954 Y49.724 E42.05895
G1 X88.92 Y49.59 E42.06426
G1 X88.92 Y17.79 E43.28587
M204 S3000
M205 X10 Y10
G1 F2400 E37.28587
;MESH:arduboy-nano (1).stl
G0 F1800 X90.578 Y19.168
G0 X90.492 Y47.838
G0 X90.952 Y47.838
M204 S1800
M205 X8 Y8
;TYPE:WALL-OUTER
G1 F2400 E43.28587
G1 F900 X98.718 Y47.838 E43.5842
G1 X98.718 Y48.954 E43.62708
G1 X110.756 Y48.972 E44.08952
G1 X110.787 Y48.972 E44.09071
G1 X111.283 Y48.935 E44.10982
G1 X111.283 Y48.904 E44.11101
G1 X111.283 Y47.853 E44.15139
G1 X119.048 Y47.837 E44.44968
G1 X119.048 Y19.542 E45.53665
G1 X90.952 Y19.542 E46.61597
G1 X90.952 Y47.838 E47.70297
M204 S3000
M205 X10 Y10
G0 F1800 X91.152 Y47.838
G0 X91.152 Y48.298
G0 X90.564 Y19.154
G0 X119.436 Y19.154
G0 X119.436 Y48.225
G0 X111.672 Y48.934
G0 X111.283 Y49.31
M204 S1800
M205 X8 Y8
G1 F900 X110.787 Y49.31 E47.7151
G1 X110.756 Y49.31 E47.71606
G1 X98.718 Y49.31 E48.09427
G1 X89.48 Y49.31 E48.44915
G1 X89.48 Y18.07 E49.64925
G1 X120.52 Y18.07 E50.84167
G1 X120.52 Y49.31 E52.04177
G1 X111.283 Y49.31 E52.39661
M204 S3000
M205 X10 Y10
G0 F1800 X111.083 Y49.31
G0 X111.083 Y49.21
G0 X119.436 Y48.225
G0 X119.608 Y18.982
M204 S1800
M205 X8 Y8
;TYPE:WALL-INNER
G1 F900 X90.392 Y18.982 E53.51896
G1 X90.392 Y48.398 E54.64898
G1 X98.158 Y48.398 E54.94732
G1 X98.158 Y48.75 E54.96084
G1 X90.392 Y48.75 E55.14837
G1 X90.04 Y48.75 E55.16025
G1 X90.04 Y48.398 E55.17214
G1 X90.04 Y18.982 E55.88244
G1 X90.04 Y18.63 E55.89433
G1 X90.392 Y18.63 E55.90622
G1 X119.608 Y18.63 E56.61169
G1 X119.96 Y18.63 E56.62521
G1 X119.96 Y18.982 E56.6371
G1 X119.96 Y48.396 E57.76705
G1 X119.96 Y48.75 E57.78065
G1 X119.608 Y48.75 E57.79254
G1 X111.843 Y48.75 E58.09083
G1 X111.843 Y48.412 E58.10382
G1 X119.608 Y48.396 E58.28812
G1 X119.608 Y18.982 E58.99838
M204 S3000
M205 X10 Y10
G0 F1800 X119.803 Y18.99
G1 F2400 E52.99838
;MESH:NONMESH
G0 F600 X119.803 Y18.99 Z0.25
G0 F1800 X119.768 Y48.558
;TIME_ELAPSED:69.895666
;LAYER:1
M140 S60
M204 S1800
M205 X8 Y8
;TYPE:WALL-INNER
;MESH:arduboy-nano (1).stl
G1 F2400 E58.99838
G1 F1950 X119.768 Y18.822 E59.54234
G1 X90.232 Y18.822 E60.08265
G1 X90.232 Y48.558 E60.62661
G1 X97.998 Y48.558 E60.76867
G1 X97.998 Y48.59 E60.76926
G1 X90.232 Y48.59 E60.78062
G1 X90.2 Y48.59 E60.78094
G1 X90.2 Y48.558 E60.78127
G1 X90.2 Y18.822 E60.82478
G1 X90.2 Y18.79 E60.8251
G1 X90.232 Y18.79 E60.82542
G1 X119.768 Y18.79 E60.86865
G1 X119.8 Y18.79 E60.86897
G1 X119.8 Y18.822 E60.86929
G1 X119.8 Y48.558 E60.91281
G1 X119.8 Y48.59 E60.91339
G1 X119.768 Y48.59 E60.91371
G1 X112.003 Y48.59 E61.05576
G1 X112.003 Y48.558 E61.05634
G1 X119.768 Y48.558 E61.06771
M204 S3000
M205 X10 Y10
G0 F3900 X119.368 Y48.158
M204 S1800
M205 X8 Y8
G1 F1950 X119.368 Y19.222 E61.59704
G1 X90.632 Y19.222 E62.12271
G1 X90.632 Y48.158 E62.65204
G1 X98.398 Y48.158 E62.7941
G1 X98.398 Y48.99 E62.80932
G1 X89.8 Y48.99 E62.9666
G1 X89.8 Y18.39 E63.52637
G1 X120.2 Y18.39 E64.08248
G1 X120.2 Y48.99 E64.64225
G1 X111.603 Y48.99 E64.79951
G1 X111.603 Y48.158 E64.81473
G1 X119.368 Y48.158 E64.95678
M204 S3000
M205 X10 Y10
G0 F3900 X111.431 Y48.92
G0 X98.57 Y48.92
G0 X90.804 Y47.986
G0 X91.032 Y47.758
M204 S1800
M205 X8 Y8
;TYPE:WALL-OUTER
G1 F1950 X98.798 Y47.758 E65.09884
G1 X98.798 Y48.892 E65.11959
G1 X111.203 Y48.892 E65.34651
G1 X111.203 Y47.758 E65.36726
G1 X118.968 Y47.758 E65.5093
G1 X118.968 Y19.622 E66.024
G1 X91.032 Y19.622 E66.53503
G1 X91.032 Y47.758 E67.04973
M204 S3000
M205 X10 Y10
G0 F3900 X91.232 Y47.758
G0 X91.232 Y48.058
G0 X89.67 Y49.12
G0 X89.4 Y49.39
M204 S1800
M205 X8 Y8
G1 F1950 X89.4 Y17.99 E67.62413
G1 X120.6 Y17.99 E68.19487
G1 X120.6 Y49.39 E68.76928
G1 X89.4 Y49.39 E69.34002
M204 S3000
M205 X10 Y10
G0 F3900 X89.4 Y49.19
G0 X89.67 Y49.12
G0 X98.731 Y49.09
G0 X98.785 Y49.14
M204 S1800
M205 X8 Y8
;TYPE:SKIN
G1 F1050 X99.068 Y49.14 E69.34147
G1 X110.947 Y49.14 E69.40218
M204 S3000
M205 X10 Y10
G0 F3900 X111.176 Y49.195
M204 S1800
M205 X8 Y8
G1 F1050 X111.285 Y49.086 E69.40359
M204 S3000
M205 X10 Y10
G1 F2400 E63.40359
;MESH:NONMESH
G0 F600 X111.285 Y49.086 Z0.35
G0 F3900 X119.768 Y48.558
;TIME_ELAPSED:92.614509
;LAYER:2
M204 S1800
M205 X8 Y8
;TYPE:WALL-INNER
;MESH:arduboy-nano (1).stl
G1 F2400 E69.40359
G1 F3000 X119.768 Y18.822 E69.94756
G1 X90.232 Y18.822 E70.48786
G1 X90.232 Y48.558 E71.03182
G1 X97.998 Y48.558 E71.17389
G1 X97.998 Y48.59 E71.17447
G1 X90.232 Y48.59 E71.18584
G1 X90.2 Y48.59 E71.18616
G1 X90.2 Y48.558 E71.18648
G1 X90.2 Y18.822 E71.23
G1 X90.2 Y18.79 E71.23032
G1 X90.232 Y18.79 E71.23064
G1 X119.768 Y18.79 E71.27386
G1 X119.8 Y18.79 E71.27419
G1 X119.8 Y18.822 E71.27451
G1 X119.8 Y48.558 E71.31802
G1 X119.8 Y48.59 E71.31861
G1 X119.768 Y48.59 E71.31893
G1 X112.003 Y48.59 E71.46097
G1 X112.003 Y48.558 E71.46156
G1 X119.768 Y48.558 E71.47292
M204 S3000
M205 X10 Y10
G0 F6000 X119.368 Y48.158
M204 S1800
M205 X8 Y8
G1 F3000 X119.368 Y19.222 E72.00225
G1 X90.632 Y19.222 E72.52792
G1 X90.632 Y48.158 E73.05725
G1 X98.398 Y48.158 E73.19931
G1 X98.398 Y48.99 E73.21453
G1 X89.8 Y48.99 E73.37182
G1 X89.8 Y18.39 E73.93159
G1 X120.2 Y18.39 E74.4877
G1 X120.2 Y48.99 E75.04746
G1 X111.603 Y48.99 E75.20473
G1 X111.603 Y48.158 E75.21995
G1 X119.368 Y48.158 E75.36199
M204 S3000
M205 X10 Y10
G0 F6000 X111.431 Y48.92
G0 X98.57 Y48.92
G0 X90.804 Y47.986
G0 X91.032 Y47.758
M204 S1800
M205 X8 Y8
;TYPE:WALL-OUTER
G1 F3000 X98.798 Y47.758 E75.50406
G1 X98.798 Y48.892 E75.5248
G1 X111.203 Y48.892 E75.75173
G1 X111.203 Y47.758 E75.77247
G1 X118.968 Y47.758 E75.91452
G1 X118.968 Y19.622 E76.42921
G1 X91.032 Y19.622 E76.94025
G1 X91.032 Y47.758 E77.45494
M204 S3000
M205 X10 Y10
G0 F6000 X91.232 Y47.758
G0 X91.232 Y48.058
G0 X89.67 Y49.12
G0 X89.4 Y49.39
M204 S1800
M205 X8 Y8
G1 F3000 X89.4 Y17.99 E78.02934
G1 X120.6 Y17.99 E78.60009
G1 X120.6 Y49.39 E79.17449
G1 X89.4 Y49.39 E79.74524
M204 S3000
M205 X10 Y10
G0 F6000 X89.4 Y49.19
G0 X89.67 Y49.12
G0 X98.584 Y49.086
G0 X98.638 Y49.14
M204 S1800
M205 X8 Y8
;TYPE:SKIN
G1 F1200 X98.92 Y49.14 E79.74666
G1 X111.366 Y49.14 E79.80949
M204 S3000
M205 X10 Y10
G0 F6000 X111.803 Y48.79
G1 F2400 E73.80949
;MESH:NONMESH
G0 F600 X111.803 Y48.79 Z0.45
G0 F6000 X119.768 Y48.558
;TIME_ELAPSED:108.239447
;LAYER:3
M204 S1800
M205 X8 Y8
;TYPE:WALL-INNER
;MESH:arduboy-nano (1).stl
G1 F2400 E79.80949
G1 F3000 X119.768 Y18.822 E80.35345
G1 X90.232 Y18.822 E80.89376
G1 X90.232 Y48.558 E81.43772
G1 X97.998 Y48.558 E81.57978
G1 X97.998 Y48.59 E81.58037
G1 X90.232 Y48.59 E81.59173
G1 X90.2 Y48.59 E81.59205
G1 X90.2 Y48.558 E81.59238
G1 X90.2 Y18.822 E81.63589
G1 X90.2 Y18.79 E81.63621
G1 X90.232 Y18.79 E81.63653
G1 X119.768 Y18.79 E81.67976
G1 X119.8 Y18.79 E81.68008
G1 X119.8 Y18.822 E81.6804
G1 X119.8 Y48.558 E81.72392
G1 X119.8 Y48.59 E81.7245
G1 X119.768 Y48.59 E81.72482
G1 X112.003 Y48.59 E81.86687
G1 X112.003 Y48.558 E81.86745
G1 X119.768 Y48.558 E81.87882
M204 S3000
M205 X10 Y10
G0 F6000 X119.368 Y48.158
M204 S1800
M205 X8 Y8
G1 F3000 X119.368 Y19.222 E82.40815
G1 X90.632 Y19.222 E82.93382
G1 X90.632 Y48.158 E83.46314
G1 X98.398 Y48.158 E83.60521
G1 X98.398 Y48.99 E83.62043
G1 X89.8 Y48.99 E83.77771
G1 X89.8 Y18.39 E84.33748
G1 X120.2 Y18.39 E84.89359
G1 X120.2 Y48.99 E85.45336
G1 X111.603 Y48.99 E85.61062
G1 X111.603 Y48.158 E85.62584
G1 X119.368 Y48.158 E85.76789
M204 S3000
M205 X10 Y10
