;FLAVOR:Marlin
;TIME:231
;Filament used: 0.139456m
;Layer height: 0.1
;MINX:86.5
;MINY:17.107
;MINZ:0.15
;MAXX:123.5
;MAXY:54.307
;MAXZ:2.15
;Generated with Cura_SteamEngine 4.5.0
M140 S60
M105
M190 S60
M104 S200
M105
M109 S200
M82 ;absolute extrusion mode
G21 ;metric values
G90 ;absolute positioning
M82 ;set extruder to absolute mode
M107 ;start with the fan off
G28 X0 Y0 ;move X/Y to min endstops
G28 Z0 ;move Z to min endstops
G1 Z15.0 F100 ;move the platform down 15mm
G92 E0 ;zero the extruded length
G1 F200 E3 ;extrude 3mm of feed stock
G92 E0 ;zero the extruded length again
G1 F100
G0 Y20 F100
M117 Printing...
G5
G92 E0
G92 E0
G1 F1800 E-4
;LAYER_COUNT:21
;LAYER:0
M106 S255
M204 S3000
M205 X10 Y10
G1 F600 Z0.225
G0 F1800 X95.898 Y26.504 Z0.225
M204 S1800
M205 X8 Y8
;TYPE:SKIRT
G1 F600 Z0.15
G1 F1800 E0
G1 F2400 X95.898 Y44.909 E0.70704
G1 X101.998 Y44.909 E0.94137
G1 X102.576 Y44.949 E0.96363
G1 X103.143 Y45.068 E0.98588
G1 X103.688 Y45.264 E1.00813
G1 X104.201 Y45.533 E1.03039
G1 X104.672 Y45.87 E1.05263
G1 X105.002 Y46.184 E1.07013
G1 X105.616 Y45.653 E1.10132
G1 X106.114 Y45.358 E1.12355
G1 X106.648 Y45.133 E1.14581
G1 X107.208 Y44.985 E1.16806
G1 X108.003 Y44.909 E1.19874
G1 X114.103 Y44.909 E1.43308
G1 X114.103 Y26.504 E2.14011
G1 X95.898 Y26.504 E2.83947
M204 S3000
M205 X10 Y10
G0 F1800 X95.338 Y25.944
M204 S1800
M205 X8 Y8
G1 F2400 X95.338 Y45.469 E3.58953
G1 X101.998 Y45.469 E3.84538
G1 X102.536 Y45.509 E3.8661
G1 X103.062 Y45.628 E3.88682
G1 X103.564 Y45.823 E3.90751
G1 X104.033 Y46.091 E3.92826
G1 X104.456 Y46.424 E3.94894
G1 X104.826 Y46.817 E3.96967
G1 X104.995 Y47.061 E3.98108
G1 X105.318 Y46.651 E4.00113
G1 X105.711 Y46.281 E4.02186
G1 X106.154 Y45.974 E4.04257
G1 X106.638 Y45.735 E4.0633
G1 X107.151 Y45.57 E4.084
G1 X107.683 Y45.483 E4.10471
G1 X114.663 Y45.469 E4.37285
G1 X114.663 Y25.944 E5.12292
G1 X95.338 Y25.944 E5.86529
M204 S3000
M205 X10 Y10
G0 F1800 X94.778 Y25.384
M204 S1800
M205 X8 Y8
G1 F2400 X94.778 Y46.029 E6.65838
G1 X101.998 Y46.029 E6.93574
G1 X102.492 Y46.069 E6.95478
G1 X102.974 Y46.188 E6.97385
G1 X103.43 Y46.382 E6.99289
G1 X103.849 Y46.647 E7.01193
G1 X104.22 Y46.977 E7.03101
G1 X104.534 Y47.361 E7.05006
G1 X104.782 Y47.791 E7.06913
G1 X105 Y48.465 E7.09635
G1 X105.082 Y48.133 E7.10948
G1 X105.276 Y47.677 E7.12852
G1 X105.541 Y47.258 E7.14757
G1 X105.871 Y46.887 E7.16664
G1 X106.255 Y46.573 E7.1857
G1 X106.685 Y46.325 E7.20476
G1 X107.148 Y46.15 E7.22378
G1 X107.635 Y46.051 E7.24287
G1 X115.223 Y46.029 E7.53437
G1 X115.223 Y25.384 E8.32745
G1 X94.778 Y25.384 E9.11286
M204 S3000
M205 X10 Y10
G0 F1800 X94.218 Y24.824
M204 S1800
M205 X8 Y8
G1 F2400 X94.218 Y46.589 E9.94897
G1 X101.998 Y46.589 E10.24784
G1 X102.445 Y46.629 E10.26508
G1 X102.877 Y46.747 E10.28229
G1 X103.282 Y46.941 E10.29954
G1 X103.646 Y47.203 E10.31677
G1 X103.958 Y47.525 E10.33399
G1 X104.208 Y47.898 E10.35124
G1 X104.388 Y48.309 E10.36848
G1 X104.492 Y48.745 E10.3857
G1 X104.518 Y50.107 E10.43803
G1 X104.478 Y50.554 E10.45527
G1 X104.36 Y50.986 E10.47247
G1 X104.166 Y51.391 E10.48972
G1 X103.904 Y51.755 E10.50695
G1 X103.582 Y52.067 E10.52418
G1 X103.209 Y52.317 E10.54143
G1 X102.798 Y52.497 E10.55866
G1 X102.362 Y52.601 E10.57588
G1 X101.998 Y52.627 E10.5899
G1 X90.7 Y52.627 E11.02392
G1 X90.253 Y52.587 E11.04116
G1 X89.821 Y52.469 E11.05836
G1 X89.416 Y52.275 E11.07561
G1 X89.052 Y52.013 E11.09284
G1 X88.74 Y51.691 E11.11006
G1 X88.49 Y51.318 E11.12731
G1 X88.31 Y50.907 E11.14455
G1 X88.206 Y50.471 E11.16177
G1 X88.18 Y50.107 E11.17579
G1 X88.18 Y21.307 E12.28215
G1 X88.22 Y20.86 E12.29939
G1 X88.338 Y20.428 E12.3166
G1 X88.532 Y20.023 E12.33385
G1 X88.794 Y19.659 E12.35108
G1 X89.116 Y19.347 E12.3683
G1 X89.489 Y19.097 E12.38555
G1 X89.9 Y18.917 E12.40279
G1 X90.336 Y18.813 E12.42001
G1 X90.7 Y18.787 E12.43403
G1 X119.3 Y18.787 E13.53271
G1 X120.179 Y18.945 E13.56702
G1 X120.584 Y19.139 E13.58427
G1 X120.948 Y19.401 E13.6015
G1 X121.26 Y19.723 E13.61872
G1 X121.51 Y20.096 E13.63597
G1 X121.69 Y20.507 E13.65321
G1 X121.794 Y20.943 E13.67043
G1 X121.82 Y21.307 E13.68444
G1 X121.82 Y50.107 E14.79081
G1 X121.78 Y50.554 E14.80805
G1 X121.662 Y50.986 E14.82525
G1 X121.468 Y51.391 E14.8425
G1 X121.206 Y51.755 E14.85973
G1 X120.884 Y52.067 E14.87696
G1 X120.511 Y52.317 E14.89421
G1 X120.1 Y52.497 E14.91144
G1 X119.664 Y52.601 E14.92866
G1 X119.3 Y52.627 E14.94268
G1 X108.003 Y52.627 E15.37666
G1 X107.556 Y52.587 E15.3939
G1 X107.124 Y52.469 E15.4111
G1 X106.719 Y52.275 E15.42836
G1 X106.355 Y52.013 E15.44558
G1 X106.043 Y51.691 E15.46281
G1 X105.793 Y51.318 E15.48006
G1 X105.613 Y50.907 E15.4973
G1 X105.509 Y50.471 E15.51451
G1 X105.483 Y49.109 E15.56685
G1 X105.523 Y48.662 E15.58409
G1 X105.641 Y48.23 E15.60129
G1 X105.835 Y47.825 E15.61854
G1 X106.097 Y47.461 E15.63577
G1 X106.419 Y47.149 E15.65299
G1 X106.792 Y46.899 E15.67024
G1 X107.203 Y46.719 E15.68748
G1 X107.639 Y46.615 E15.7047
G1 X115.783 Y46.589 E16.01756
G1 X115.783 Y24.824 E16.85367
G1 X94.218 Y24.824 E17.6821
M204 S3000
M205 X10 Y10
G0 F1800 X93.658 Y24.264
M204 S1800
M205 X8 Y8
G1 F2400 X93.658 Y47.149 E18.56124
G1 X101.998 Y47.149 E18.88162
G1 X102.391 Y47.189 E18.8968
G1 X102.769 Y47.307 E18.91201
G1 X103.115 Y47.498 E18.92719
G1 X103.416 Y47.755 E18.94239
G1 X103.658 Y48.068 E18.95759
G1 X103.834 Y48.422 E18.97278
G1 X103.934 Y48.805 E18.98799
G1 X103.958 Y50.107 E19.03801
G1 X103.918 Y50.5 E19.05319
G1 X103.8 Y50.878 E19.0684
G1 X103.609 Y51.224 E19.08358
G1 X103.352 Y51.525 E19.09879
G1 X103.039 Y51.767 E19.11399
G1 X102.685 Y51.943 E19.12917
G1 X102.302 Y52.043 E19.14438
G1 X90.7 Y52.067 E19.59008
G1 X90.307 Y52.027 E19.60525
G1 X89.929 Y51.909 E19.62046
G1 X89.583 Y51.718 E19.63565
G1 X89.282 Y51.461 E19.65085
G1 X89.04 Y51.148 E19.66605
G1 X88.864 Y50.794 E19.68124
G1 X88.764 Y50.411 E19.69644
G1 X88.74 Y21.307 E20.81449
G1 X88.78 Y20.914 E20.82966
G1 X88.898 Y20.536 E20.84487
G1 X89.089 Y20.19 E20.86006
G1 X89.346 Y19.889 E20.87526
G1 X89.659 Y19.647 E20.89046
G1 X90.013 Y19.471 E20.90565
G1 X90.396 Y19.371 E20.92085
G1 X119.3 Y19.347 E22.03121
G1 X120.071 Y19.505 E22.06145
G1 X120.417 Y19.696 E22.07663
G1 X120.718 Y19.953 E22.09183
G1 X120.96 Y20.266 E22.10703
G1 X121.136 Y20.62 E22.12222
G1 X121.236 Y21.003 E22.13743
G1 X121.26 Y50.107 E23.25547
G1 X121.22 Y50.5 E23.27065
G1 X121.102 Y50.878 E23.28586
G1 X120.911 Y51.224 E23.30104
G1 X120.654 Y51.525 E23.31624
G1 X120.341 Y51.767 E23.33144
G1 X119.987 Y51.943 E23.34663
G1 X119.604 Y52.043 E23.36184
G1 X108.003 Y52.067 E23.8075
G1 X107.61 Y52.027 E23.82267
G1 X107.232 Y51.909 E23.83788
G1 X106.886 Y51.718 E23.85307
G1 X106.585 Y51.461 E23.86827
G1 X106.343 Y51.148 E23.88347
G1 X106.167 Y50.794 E23.89866
G1 X106.067 Y50.411 E23.91386
G1 X106.043 Y49.109 E23.96389
G1 X106.083 Y48.716 E23.97906
G1 X106.201 Y48.338 E23.99427
G1 X106.392 Y47.992 E24.00946
G1 X106.649 Y47.691 E24.02466
G1 X106.962 Y47.449 E24.03986
G1 X107.316 Y47.273 E24.05505
G1 X107.699 Y47.173 E24.07025
G1 X116.343 Y47.149 E24.40232
G1 X116.343 Y24.264 E25.28146
G1 X93.658 Y24.264 E26.15291
M204 S3000
M205 X10 Y10
G0 F1800 X93.098 Y23.704
M204 S1800
M205 X8 Y8
G1 F2400 X93.098 Y47.709 E27.07507
G1 X101.998 Y47.709 E27.41697
G1 X102.33 Y47.749 E27.42982
G1 X102.642 Y47.866 E27.44262
G1 X102.919 Y48.054 E27.45548
G1 X103.142 Y48.302 E27.46829
G1 X103.301 Y48.596 E27.48113
G1 X103.398 Y49.109 E27.50119
G1 X103.398 Y50.107 E27.53953
G1 X103.358 Y50.439 E27.55237
G1 X103.241 Y50.751 E27.56517
G1 X103.053 Y51.028 E27.57803
G1 X102.805 Y51.251 E27.59085
G1 X102.511 Y51.41 E27.60369
G1 X101.998 Y51.507 E27.62374
G1 X90.7 Y51.507 E28.05776
G1 X90.368 Y51.467 E28.07061
G1 X90.056 Y51.35 E28.08341
G1 X89.779 Y51.162 E28.09627
G1 X89.556 Y50.914 E28.10908
G1 X89.397 Y50.62 E28.12192
G1 X89.3 Y50.107 E28.14198
G1 X89.3 Y21.307 E29.24834
G1 X89.34 Y20.975 E29.26119
G1 X89.457 Y20.663 E29.27399
G1 X89.645 Y20.386 E29.28685
G1 X89.893 Y20.163 E29.29966
G1 X90.187 Y20.004 E29.3125
G1 X90.7 Y19.907 E29.33256
G1 X119.3 Y19.907 E30.43124
G1 X119.944 Y20.064 E30.4567
G1 X120.221 Y20.252 E30.46956
G1 X120.444 Y20.5 E30.48237
G1 X120.603 Y20.794 E30.49521
G1 X120.7 Y21.307 E30.51527
G1 X120.7 Y50.107 E31.62164
G1 X120.66 Y50.439 E31.63448
G1 X120.543 Y50.751 E31.64728
G1 X120.355 Y51.028 E31.66014
G1 X120.107 Y51.251 E31.67296
G1 X119.813 Y51.41 E31.6858
G1 X119.3 Y51.507 E31.70585
G1 X108.003 Y51.507 E32.13983
G1 X107.671 Y51.467 E32.15268
G1 X107.359 Y51.35 E32.16548
G1 X107.082 Y51.162 E32.17834
G1 X106.859 Y50.914 E32.19115
G1 X106.7 Y50.62 E32.20399
G1 X106.603 Y50.107 E32.22405
G1 X106.603 Y49.109 E32.26239
G1 X106.643 Y48.777 E32.27523
G1 X106.76 Y48.465 E32.28803
G1 X106.948 Y48.188 E32.30089
G1 X107.196 Y47.965 E32.31371
G1 X107.49 Y47.806 E32.32655
G1 X108.003 Y47.709 E32.3466
G1 X116.903 Y47.709 E32.6885
G1 X116.903 Y23.704 E33.61066
G1 X93.098 Y23.704 E34.52514
M204 S3000
M205 X10 Y10
G0 F1800 X92.538 Y23.144
M204 S1800
M205 X8 Y8
G1 F2400 X92.538 Y48.269 E35.49033
G1 X101.998 Y48.269 E35.85374
G1 X102.253 Y48.309 E35.86366
G1 X102.485 Y48.424 E35.8736
G1 X102.67 Y48.605 E35.88355
G1 X102.791 Y48.833 E35.89346
G1 X102.838 Y49.109 E35.90422
G1 X102.838 Y50.107 E35.94256
G1 X102.798 Y50.362 E35.95247
G1 X102.683 Y50.594 E35.96242
G1 X102.502 Y50.779 E35.97236
G1 X102.274 Y50.9 E35.98228
G1 X101.998 Y50.947 E35.99303
G1 X90.7 Y50.947 E36.42705
G1 X90.445 Y50.907 E36.43697
G1 X90.213 Y50.792 E36.44691
G1 X90.028 Y50.611 E36.45686
G1 X89.907 Y50.383 E36.46677
G1 X89.86 Y50.107 E36.47753
G1 X89.86 Y21.307 E37.58389
G1 X89.9 Y21.052 E37.59381
G1 X90.015 Y20.82 E37.60375
G1 X90.196 Y20.635 E37.6137
G1 X90.424 Y20.514 E37.62361
G1 X90.7 Y20.467 E37.63437
G1 X119.3 Y20.467 E38.73305
G1 X119.787 Y20.622 E38.75268
G1 X119.972 Y20.803 E38.76263
G1 X120.093 Y21.031 E38.77254
G1 X120.14 Y21.307 E38.7833
G1 X120.14 Y50.107 E39.88966
G1 X120.1 Y50.362 E39.89958
G1 X119.985 Y50.594 E39.90953
G1 X119.804 Y50.779 E39.91947
G1 X119.576 Y50.9 E39.92938
G1 X119.3 Y50.947 E39.94014
G1 X108.003 Y50.947 E40.37412
G1 X107.748 Y50.907 E40.38403
G1 X107.516 Y50.792 E40.39398
G1 X107.331 Y50.611 E40.40392
G1 X107.21 Y50.383 E40.41384
G1 X107.163 Y50.107 E40.42459
G1 X107.163 Y49.109 E40.46293
G1 X107.203 Y48.854 E40.47285
G1 X107.318 Y48.622 E40.4828
G1 X107.499 Y48.437 E40.49274
G1 X107.727 Y48.316 E40.50265
G1 X108.003 Y48.269 E40.51341
G1 X117.463 Y48.269 E40.87682
G1 X117.463 Y23.144 E41.84201
G1 X92.538 Y23.144 E42.79951
M204 S3000
M205 X10 Y10
G0 F1800 X91.978 Y22.584
M204 S1800
M205 X8 Y8
G1 F2400 X91.978 Y48.829 E43.80773
G1 X101.998 Y48.829 E44.19265
G1 X102.141 Y48.868 E44.19834
G1 X102.244 Y48.975 E44.20405
G1 X102.278 Y49.109 E44.20936
G1 X102.278 Y50.107 E44.2477
G1 X102.239 Y50.25 E44.25339
G1 X102.132 Y50.353 E44.2591
G1 X101.998 Y50.387 E44.26441
G1 X90.7 Y50.387 E44.69843
G1 X90.557 Y50.348 E44.70412
G1 X90.454 Y50.241 E44.70983
G1 X90.42 Y50.107 E44.71514
G1 X90.42 Y21.307 E45.8215
G1 X90.459 Y21.164 E45.8272
G1 X90.566 Y21.061 E45.8329
G1 X90.7 Y21.027 E45.83821
G1 X119.3 Y21.027 E46.93689
G1 X119.546 Y21.173 E46.94788
G1 X119.58 Y21.307 E46.95319
G1 X119.58 Y50.107 E48.05956
G1 X119.541 Y50.25 E48.06525
G1 X119.434 Y50.353 E48.07096
G1 X119.3 Y50.387 E48.07627
G1 X108.003 Y50.387 E48.51025
G1 X107.86 Y50.348 E48.51594
G1 X107.757 Y50.241 E48.52165
G1 X107.723 Y50.107 E48.52696
G1 X107.723 Y49.109 E48.5653
G1 X107.762 Y48.966 E48.57099
G1 X107.869 Y48.863 E48.5767
G1 X108.003 Y48.829 E48.58201
G1 X118.023 Y48.829 E48.96693
G1 X118.023 Y22.584 E49.97515
G1 X91.978 Y22.584 E50.97568
M204 S3000
M205 X10 Y10
G1 F1800 E46.97568
G0 F1800 X92.351 Y22.957
G0 X102.651 Y48.456
G0 X102.651 Y50.76
G0 X90.047 Y50.76
G0 X87.62 Y21.307
M204 S1800
M205 X8 Y8
G1 F1800 E50.97568
G1 F2400 X87.66 Y20.813 E50.99472
G1 X87.779 Y20.331 E51.01379
G1 X87.973 Y19.875 E51.03282
G1 X88.238 Y19.456 E51.05187
G1 X88.568 Y19.085 E51.07094
G1 X88.952 Y18.771 E51.09
G1 X89.382 Y18.523 E51.10907
G1 X89.845 Y18.348 E51.12808
G1 X90.332 Y18.249 E51.14717
G1 X119.3 Y18.227 E52.25999
G1 X120.276 Y18.386 E52.29798
G1 X120.732 Y18.58 E52.31702
G1 X121.151 Y18.845 E52.33606
G1 X121.522 Y19.175 E52.35514
G1 X121.836 Y19.559 E52.37419
G1 X122.084 Y19.989 E52.39326
G1 X122.259 Y20.452 E52.41228
G1 X122.358 Y20.939 E52.43137
G1 X122.38 Y50.107 E53.55187
G1 X122.34 Y50.601 E53.57091
G1 X122.221 Y51.083 E53.58998
G1 X122.027 Y51.539 E53.60902
G1 X121.762 Y51.958 E53.62806
G1 X121.432 Y52.329 E53.64714
G1 X121.048 Y52.643 E53.66619
G1 X120.618 Y52.891 E53.68526
G1 X120.155 Y53.066 E53.70428
G1 X119.668 Y53.165 E53.72337
G1 X108.003 Y53.187 E54.17148
G1 X107.509 Y53.147 E54.19052
G1 X107.027 Y53.028 E54.2096
G1 X106.571 Y52.834 E54.22863
G1 X106.152 Y52.569 E54.24768
G1 X105.781 Y52.239 E54.26675
G1 X105.467 Y51.855 E54.28581
G1 X105.219 Y51.425 E54.30488
G1 X105.001 Y50.751 E54.33209
G1 X104.919 Y51.083 E54.34523
G1 X104.725 Y51.539 E54.36426
G1 X104.46 Y51.958 E54.38331
G1 X104.13 Y52.329 E54.40238
G1 X103.746 Y52.643 E54.42144
G1 X103.316 Y52.891 E54.44051
G1 X102.853 Y53.066 E54.45952
G1 X102.366 Y53.165 E54.47861
G1 X90.7 Y53.187 E54.92677
G1 X90.206 Y53.147 E54.94581
G1 X89.724 Y53.028 E54.96488
G1 X89.268 Y52.834 E54.98392
G1 X88.849 Y52.569 E55.00296
G1 X88.478 Y52.239 E55.02204
G1 X88.164 Y51.855 E55.04109
G1 X87.916 Y51.425 E55.06016
G1 X87.741 Y50.962 E55.07918
G1 X87.642 Y50.475 E55.09827
G1 X87.62 Y21.307 E56.21877
M204 S3000
M205 X10 Y10
G0 F1800 X87.06 Y21.307
M204 S1800
M205 X8 Y8
G1 F2400 X87.1 Y20.769 E56.23949
G1 X87.219 Y20.243 E56.26021
G1 X87.414 Y19.741 E56.2809
G1 X87.682 Y19.272 E56.30165
G1 X88.015 Y18.849 E56.32233
G1 X88.408 Y18.479 E56.34307
G1 X88.851 Y18.172 E56.36377
G1 X89.335 Y17.933 E56.38451
G1 X89.848 Y17.768 E56.40521
G1 X90.38 Y17.681 E56.42592
G1 X119.3 Y17.667 E57.53689
G1 X119.838 Y17.707 E57.55762
G1 X120.364 Y17.826 E57.57833
G1 X120.866 Y18.021 E57.59902
G1 X121.335 Y18.289 E57.61977
G1 X121.758 Y18.622 E57.64046
G1 X122.128 Y19.015 E57.66119
G1 X122.435 Y19.458 E57.6819
G1 X122.674 Y19.942 E57.70263
G1 X122.839 Y20.455 E57.72333
G1 X122.926 Y20.987 E57.74404
G1 X122.94 Y50.107 E58.8627
G1 X122.9 Y50.645 E58.88342
G1 X122.781 Y51.171 E58.90414
G1 X122.586 Y51.673 E58.92483
G1 X122.318 Y52.142 E58.94558
G1 X121.985 Y52.565 E58.96626
G1 X121.592 Y52.935 E58.987
G1 X121.149 Y53.242 E59.0077
G1 X120.665 Y53.481 E59.02844
G1 X120.152 Y53.646 E59.04914
G1 X119.62 Y53.733 E59.06985
G1 X108.003 Y53.747 E59.51612
G1 X107.465 Y53.707 E59.53685
G1 X106.939 Y53.588 E59.55756
G1 X106.437 Y53.393 E59.57825
G1 X105.968 Y53.125 E59.599
G1 X105.545 Y52.792 E59.61968
G1 X105.175 Y52.399 E59.64042
G1 X105.006 Y52.155 E59.65182
G1 X104.683 Y52.565 E59.67187
G1 X104.29 Y52.935 E59.69261
G1 X103.847 Y53.242 E59.71331
G1 X103.363 Y53.481 E59.73405
G1 X102.85 Y53.646 E59.75475
G1 X102.318 Y53.733 E59.77546
G1 X90.7 Y53.747 E60.22177
G1 X90.162 Y53.707 E60.24249
G1 X89.636 Y53.588 E60.26321
G1 X89.134 Y53.393 E60.2839
G1 X88.665 Y53.125 E60.30465
G1 X88.242 Y52.792 E60.32533
G1 X87.872 Y52.399 E60.34607
G1 X87.565 Y51.956 E60.36677
G1 X87.326 Y51.472 E60.38751
G1 X87.161 Y50.959 E60.40821
G1 X87.074 Y50.427 E60.42892
G1 X87.06 Y21.307 E61.54758
M204 S3000
M205 X10 Y10
G1 F1800 E57.54758
G0 F1800 X90.7 Y17.107
M204 S1800
M205 X8 Y8
G1 F1800 E61.54758
G1 F2400 X119.3 Y17.107 E62.64626
G1 X119.878 Y17.147 E62.66852
G1 X120.445 Y17.266 E62.69077
G1 X120.99 Y17.462 E62.71302
G1 X121.503 Y17.731 E62.73527
G1 X121.974 Y18.068 E62.75752
G1 X122.394 Y18.467 E62.77978
G1 X122.756 Y18.92 E62.80205
G1 X123.051 Y19.418 E62.82429
G1 X123.276 Y19.952 E62.84655
G1 X123.424 Y20.512 E62.8688
G1 X123.5 Y21.307 E62.89948
G1 X123.5 Y50.107 E64.00584
G1 X123.46 Y50.685 E64.0281
G1 X123.341 Y51.252 E64.05036
G1 X123.145 Y51.797 E64.07261
G1 X122.876 Y52.31 E64.09486
G1 X122.539 Y52.781 E64.11711
G1 X122.14 Y53.201 E64.13936
G1 X121.687 Y53.563 E64.16164
G1 X121.189 Y53.858 E64.18387
G1 X120.655 Y54.083 E64.20613
G1 X120.095 Y54.231 E64.22838
G1 X119.3 Y54.307 E64.25906
G1 X108.003 Y54.307 E64.69304
G1 X107.425 Y54.267 E64.7153
G1 X106.858 Y54.148 E64.73756
